(.../EAGLE-7.6.0/ulp/pcb-gcode.ulp)
(Copyright 2005 - 2012 by John Johnson)
(See readme.txt for licensing terms.)
(This file generated from the board:)
(.../PCB/placas/Sensor/sensor_dsp.brd)
(Current profile is .../EAGLE-7.6.0/ulp/profiles/mach.pp  )
(This file generated 08/03/2017 10:03)
(Settings from pcb-machine.h)
(spindle on time = 3.0000)
(  Tool Size)
(0.5000  )
(spindle speed = 30000.0000)
(tool change at 0.0000  0.0000  25.4000 )
(feed rate xy = F508   )
(feed rate z  = F254   )
(Z Axis Settings)
(  High     Up        Down     Drill)
(12.7000 	2.5400  	-0.1778 	-0.8128 )
(Settings from pcb-defaults.h)
(isolate min = 0.0254)
(isolate max = 0.5080)
(isolate step = 0.1270)
(Generated top outlines, top drill, bottom outlines, bottom drill, )
(Unit of measure: mm)
(Metric Mode)
G21
(Absolute Coordinates)
G90
S30000
G00 Z12.7000 
G00 X0.0000  Y0.0000  
M03
G04 P3.000000
G00 Z2.5400  
G00 X4.0892  Y17.4007 
G01 Z-0.1778 F254   
G01 X3.9821  Y17.5611 F508   
G01 X3.9082  Y17.7393 
G01 X3.8706  Y17.9285 
G01 X3.8706  Y18.1215 
G01 X3.9082  Y18.3107 
G01 X3.9821  Y18.4889 
G01 X4.0892  Y18.6493 
G01 X4.2257  Y18.7857 
G01 X4.3861  Y18.8929 
G01 X4.5643  Y18.9668 
G01 X4.7535  Y19.0044 
G01 X4.9465  Y19.0044 
G01 X5.1357  Y18.9668 
G01 X5.3139  Y18.8929 
G01 X5.4743  Y18.7857 
G01 X5.6107  Y18.6493 
G01 X5.7179  Y18.4889 
G01 X5.7918  Y18.3107 
G01 X5.8294  Y18.1215 
G01 X5.8294  Y17.9285 
G01 X5.7918  Y17.7393 
G01 X5.7179  Y17.5611 
G01 X5.6107  Y17.4007 
G01 X5.4743  Y17.2643 
G01 X5.3139  Y17.1571 
G01 X5.1357  Y17.0832 
G01 X4.9465  Y17.0456 
G01 X4.7535  Y17.0456 
G01 X4.5643  Y17.0832 
G01 X4.3861  Y17.1571 
G01 X4.2257  Y17.2643 
G01 X4.0892  Y17.4007 
G00 Z2.5400  
G00 X4.0892  Y19.9407 
G01 Z-0.1778 F254   
G01 X3.9821  Y20.1011 F508   
G01 X3.9082  Y20.2793 
G01 X3.8706  Y20.4685 
G01 X3.8706  Y20.6615 
G01 X3.9082  Y20.8507 
G01 X3.9821  Y21.0289 
G01 X4.0892  Y21.1893 
G01 X4.2257  Y21.3257 
G01 X4.3861  Y21.4329 
G01 X4.5643  Y21.5068 
G01 X4.7535  Y21.5444 
G01 X4.9465  Y21.5444 
G01 X5.1357  Y21.5068 
G01 X5.3139  Y21.4329 
G01 X5.4743  Y21.3257 
G01 X5.6107  Y21.1893 
G01 X5.7179  Y21.0289 
G01 X5.7918  Y20.8507 
G01 X5.8294  Y20.6615 
G01 X5.8294  Y20.4685 
G01 X5.7918  Y20.2793 
G01 X5.7179  Y20.1011 
G01 X5.6107  Y19.9407 
G01 X5.4743  Y19.8042 
G01 X5.3139  Y19.6971 
G01 X5.1357  Y19.6232 
G01 X4.9465  Y19.5856 
G01 X4.7535  Y19.5856 
G01 X4.5643  Y19.6232 
G01 X4.3861  Y19.6971 
G01 X4.2257  Y19.8042 
G01 X4.0892  Y19.9407 
G00 Z2.5400  
G00 X4.0892  Y22.4807 
G01 Z-0.1778 F254   
G01 X3.9821  Y22.6411 F508   
G01 X3.9082  Y22.8193 
G01 X3.8706  Y23.0085 
G01 X3.8706  Y23.2015 
G01 X3.9082  Y23.3907 
G01 X3.9821  Y23.5689 
G01 X4.0892  Y23.7293 
G01 X4.2257  Y23.8657 
G01 X4.3861  Y23.9729 
G01 X4.5643  Y24.0468 
G01 X4.7535  Y24.0844 
G01 X4.9465  Y24.0844 
G01 X5.1357  Y24.0468 
G01 X5.3139  Y23.9729 
G01 X5.4743  Y23.8657 
G01 X5.6107  Y23.7293 
G01 X5.7179  Y23.5689 
G01 X5.7918  Y23.3907 
G01 X5.8294  Y23.2015 
G01 X5.8294  Y23.0085 
G01 X5.7918  Y22.8193 
G01 X5.7179  Y22.6411 
G01 X5.6107  Y22.4807 
G01 X5.4743  Y22.3442 
G01 X5.3139  Y22.2371 
G01 X5.1357  Y22.1632 
G01 X4.9465  Y22.1256 
G01 X4.7535  Y22.1256 
G01 X4.5643  Y22.1632 
G01 X4.3861  Y22.2371 
G01 X4.2257  Y22.3442 
G01 X4.0892  Y22.4807 
G00 Z2.5400  
G00 X6.6292  Y22.4593 
G01 Z-0.1778 F254   
G01 X6.7657  Y22.5957 F508   
G01 X6.9261  Y22.7029 
G01 X7.1043  Y22.7768 
G01 X7.2935  Y22.8144 
G01 X7.4865  Y22.8144 
G01 X7.6757  Y22.7768 
G01 X7.8539  Y22.7029 
G01 X8.0143  Y22.5957 
G01 X8.1507  Y22.4593 
G01 X8.2579  Y22.2989 
G01 X8.3318  Y22.1207 
G01 X8.3694  Y21.9315 
G01 X8.3694  Y21.7385 
G01 X8.3318  Y21.5493 
G01 X8.2579  Y21.3711 
G01 X8.1507  Y21.2107 
G01 X8.0143  Y21.0742 
G01 X7.8539  Y20.9671 
G01 X7.6757  Y20.8932 
G01 X7.4865  Y20.8556 
G01 X7.2935  Y20.8556 
G01 X7.1043  Y20.8932 
G01 X6.9261  Y20.9671 
G01 X6.7657  Y21.0742 
G01 X6.6292  Y21.2107 
G01 X6.5221  Y21.3711 
G01 X6.4482  Y21.5493 
G01 X6.4106  Y21.7385 
G01 X6.4106  Y21.9315 
G01 X6.4482  Y22.1207 
G01 X6.5221  Y22.2989 
G01 X6.6292  Y22.4593 
G00 Z2.5400  
G00 X6.6292  Y23.7507 
G01 Z-0.1778 F254   
G01 X6.5221  Y23.9111 F508   
G01 X6.4482  Y24.0893 
G01 X6.4106  Y24.2785 
G01 X6.4106  Y24.4715 
G01 X6.4482  Y24.6607 
G01 X6.5221  Y24.8389 
G01 X6.6292  Y24.9993 
G01 X6.7657  Y25.1357 
G01 X6.9261  Y25.2429 
G01 X7.1043  Y25.3168 
G01 X7.2935  Y25.3544 
G01 X7.4865  Y25.3544 
G01 X7.6757  Y25.3168 
G01 X7.8539  Y25.2429 
G01 X8.0143  Y25.1357 
G01 X8.1507  Y24.9993 
G01 X8.2579  Y24.8389 
G01 X8.3318  Y24.6607 
G01 X8.3694  Y24.4715 
G01 X8.3694  Y24.2785 
G01 X8.3318  Y24.0893 
G01 X8.2579  Y23.9111 
G01 X8.1507  Y23.7507 
G01 X8.0143  Y23.6142 
G01 X7.8539  Y23.5071 
G01 X7.6757  Y23.4332 
G01 X7.4865  Y23.3956 
G01 X7.2935  Y23.3956 
G01 X7.1043  Y23.4332 
G01 X6.9261  Y23.5071 
G01 X6.7657  Y23.6142 
G01 X6.6292  Y23.7507 
G00 Z2.5400  
G00 X6.7657  Y20.0557 
G01 Z-0.1778 F254   
G01 X6.9261  Y20.1629 F508   
G01 X7.1043  Y20.2368 
G01 X7.2935  Y20.2744 
G01 X7.4865  Y20.2744 
G01 X7.6757  Y20.2368 
G01 X7.8539  Y20.1629 
G01 X8.0143  Y20.0557 
G01 X8.1507  Y19.9193 
G01 X8.2579  Y19.7589 
G01 X8.3318  Y19.5807 
G01 X8.3694  Y19.3915 
G01 X8.3694  Y19.1985 
G01 X8.3318  Y19.0093 
G01 X8.2579  Y18.8311 
G01 X8.1507  Y18.6707 
G01 X8.0143  Y18.5343 
G01 X7.8539  Y18.4271 
G01 X7.6757  Y18.3532 
G01 X7.4865  Y18.3156 
G01 X7.2935  Y18.3156 
G01 X7.1043  Y18.3532 
G01 X6.9261  Y18.4271 
G01 X6.7657  Y18.5343 
G01 X6.6292  Y18.6707 
G01 X6.5221  Y18.8311 
G01 X6.4482  Y19.0093 
G01 X6.4106  Y19.1985 
G01 X6.4106  Y19.3915 
G01 X6.4482  Y19.5807 
G01 X6.5221  Y19.7589 
G01 X6.6292  Y19.9193 
G01 X6.7657  Y20.0557 
G00 Z2.5400  
G00 X18.5907 Y19.9937 
G01 Z-0.1778 F254   
G01 X18.6931 Y20.1469 F508   
G01 X18.8235 Y20.2773 
G01 X18.9767 Y20.3797 
G01 X19.1470 Y20.4502 
G01 X19.3278 Y20.4862 
G01 X19.5122 Y20.4862 
G01 X19.6930 Y20.4502 
G01 X19.8633 Y20.3797 
G01 X20.0165 Y20.2773 
G01 X20.1469 Y20.1469 
G01 X20.2493 Y19.9937 
G01 X20.3198 Y19.8234 
G01 X20.3558 Y19.6426 
G01 X20.3558 Y18.1374 
G01 X20.3198 Y17.9566 
G01 X20.2493 Y17.7863 
G01 X20.1469 Y17.6331 
G01 X20.0165 Y17.5027 
G01 X19.8633 Y17.4003 
G01 X19.6930 Y17.3298 
G01 X19.5122 Y17.2938 
G01 X19.3278 Y17.2938 
G01 X19.1470 Y17.3298 
G01 X18.9767 Y17.4003 
G01 X18.8235 Y17.5027 
G01 X18.6931 Y17.6331 
G01 X18.5907 Y17.7863 
G01 X18.5202 Y17.9566 
G01 X18.4842 Y18.1374 
G01 X18.4842 Y19.6426 
G01 X18.5202 Y19.8234 
G01 X18.5907 Y19.9937 
G00 Z2.5400  
G00 X19.0224 Y21.0442 
G01 Z-0.1778 F254   
G01 X18.4742 Y21.5924 F508   
G01 X18.4742 Y22.3676 
G01 X19.0224 Y22.9158 
G01 X19.7976 Y22.9158 
G01 X20.3458 Y22.3676 
G01 X20.3458 Y21.5924 
G01 X19.7976 Y21.0442 
G01 X19.0224 Y21.0442 
G00 Z2.5400  
G00 X21.3635 Y20.2773 
G01 Z-0.1778 F254   
G01 X21.5167 Y20.3797 F508   
G01 X21.6870 Y20.4502 
G01 X21.8678 Y20.4862 
G01 X22.0522 Y20.4862 
G01 X22.2330 Y20.4502 
G01 X22.4033 Y20.3797 
G01 X22.5565 Y20.2773 
G01 X22.6869 Y20.1469 
G01 X22.7893 Y19.9937 
G01 X22.8598 Y19.8234 
G01 X22.8958 Y19.6426 
G01 X22.8958 Y18.1374 
G01 X22.8598 Y17.9566 
G01 X22.7893 Y17.7863 
G01 X22.6869 Y17.6331 
G01 X22.5565 Y17.5027 
G01 X22.4033 Y17.4003 
G01 X22.2330 Y17.3298 
G01 X22.0522 Y17.2938 
G01 X21.8678 Y17.2938 
G01 X21.6870 Y17.3298 
G01 X21.5167 Y17.4003 
G01 X21.3635 Y17.5027 
G01 X21.2331 Y17.6331 
G01 X21.1307 Y17.7863 
G01 X21.0602 Y17.9566 
G01 X21.0242 Y18.1374 
G01 X21.0242 Y19.6426 
G01 X21.0602 Y19.8234 
G01 X21.1307 Y19.9937 
G01 X21.2331 Y20.1469 
G01 X21.3635 Y20.2773 
G00 Z2.5400  
G00 X23.9035 Y20.2773 
G01 Z-0.1778 F254   
G01 X24.0567 Y20.3797 F508   
G01 X24.2270 Y20.4502 
G01 X24.4078 Y20.4862 
G01 X24.5922 Y20.4862 
G01 X24.7730 Y20.4502 
G01 X24.9433 Y20.3797 
G01 X25.0965 Y20.2773 
G01 X25.2269 Y20.1469 
G01 X25.3293 Y19.9937 
G01 X25.3998 Y19.8234 
G01 X25.4358 Y19.6426 
G01 X25.4358 Y18.1374 
G01 X25.3998 Y17.9566 
G01 X25.3293 Y17.7863 
G01 X25.2269 Y17.6331 
G01 X25.0965 Y17.5027 
G01 X24.9433 Y17.4003 
G01 X24.7730 Y17.3298 
G01 X24.5922 Y17.2938 
G01 X24.4078 Y17.2938 
G01 X24.2270 Y17.3298 
G01 X24.0567 Y17.4003 
G01 X23.9035 Y17.5027 
G01 X23.7731 Y17.6331 
G01 X23.6707 Y17.7863 
G01 X23.6002 Y17.9566 
G01 X23.5642 Y18.1374 
G01 X23.5642 Y19.6426 
G01 X23.6002 Y19.8234 
G01 X23.6707 Y19.9937 
G01 X23.7731 Y20.1469 
G01 X23.9035 Y20.2773 
G00 Z2.5400  
G00 X24.1024 Y21.0442 
G01 Z-0.1778 F254   
G01 X23.5542 Y21.5924 F508   
G01 X23.5542 Y22.3676 
G01 X24.1024 Y22.9158 
G01 X24.8776 Y22.9158 
G01 X25.4258 Y22.3676 
G01 X25.4258 Y21.5924 
G01 X24.8776 Y21.0442 
G01 X24.1024 Y21.0442 
G00 Z2.5400  
G00 X24.1524 Y23.6442 
G01 Z-0.1778 F254   
G01 X23.6042 Y24.1924 F508   
G01 X23.6042 Y24.9676 
G01 X24.1524 Y25.5158 
G01 X24.9276 Y25.5158 
G01 X25.4758 Y24.9676 
G01 X25.4758 Y24.1924 
G01 X24.9276 Y23.6442 
G01 X24.1524 Y23.6442 
G00 Z2.5400  
G00 X23.1955 Y24.9345 
G01 Z-0.1778 F254   
G01 X22.5655 Y24.3045 F508   
G01 X21.6745 Y24.3045 
G01 X21.0445 Y24.9345 
G01 X21.0445 Y25.8255 
G01 X21.6745 Y26.4555 
G01 X22.5655 Y26.4555 
G01 X23.1955 Y25.8255 
G01 X23.1955 Y24.9345 
G00 Z2.5400  
G00 X20.6555 Y24.9345 
G01 Z-0.1778 F254   
G01 X20.0255 Y24.3045 F508   
G01 X19.1345 Y24.3045 
G01 X18.5045 Y24.9345 
G01 X18.5045 Y25.8255 
G01 X19.1345 Y26.4555 
G01 X20.0255 Y26.4555 
G01 X20.6555 Y25.8255 
G01 X20.6555 Y24.9345 
G00 Z2.5400  
G00 X20.6555 Y28.5345 
G01 Z-0.1778 F254   
G01 X20.0255 Y27.9045 F508   
G01 X19.1345 Y27.9045 
G01 X18.5045 Y28.5345 
G01 X18.5045 Y29.4255 
G01 X19.1345 Y30.0555 
G01 X20.0255 Y30.0555 
G01 X20.6555 Y29.4255 
G01 X20.6555 Y28.5345 
G00 Z2.5400  
G00 X21.0445 Y28.5345 
G01 Z-0.1778 F254   
G01 X21.0445 Y29.4255 F508   
G01 X21.6745 Y30.0555 
G01 X22.5655 Y30.0555 
G01 X23.1955 Y29.4255 
G01 X23.1955 Y28.5345 
G01 X22.5655 Y27.9045 
G01 X21.6745 Y27.9045 
G01 X21.0445 Y28.5345 
G00 Z2.5400  
G00 X23.6042 Y29.2724 
G01 Z-0.1778 F254   
G01 X23.6042 Y30.0476 F508   
G01 X24.1524 Y30.5958 
G01 X24.9276 Y30.5958 
G01 X25.4758 Y30.0476 
G01 X25.4758 Y29.2724 
G01 X24.9276 Y28.7242 
G01 X24.1524 Y28.7242 
G01 X23.6042 Y29.2724 
G00 Z2.5400  
G00 X23.7031 Y33.6331 
G01 Z-0.1778 F254   
G01 X23.6007 Y33.7863 F508   
G01 X23.5302 Y33.9566 
G01 X23.4942 Y34.1374 
G01 X23.4942 Y35.6426 
G01 X23.5302 Y35.8234 
G01 X23.6007 Y35.9937 
G01 X23.7031 Y36.1469 
G01 X23.8335 Y36.2773 
G01 X23.9867 Y36.3797 
G01 X24.1570 Y36.4502 
G01 X24.3378 Y36.4862 
G01 X24.5222 Y36.4862 
G01 X24.7030 Y36.4502 
G01 X24.8733 Y36.3797 
G01 X25.0265 Y36.2773 
G01 X25.1569 Y36.1469 
G01 X25.2593 Y35.9937 
G01 X25.3298 Y35.8234 
G01 X25.3658 Y35.6426 
G01 X25.3658 Y34.1374 
G01 X25.3298 Y33.9566 
G01 X25.2593 Y33.7863 
G01 X25.1569 Y33.6331 
G01 X25.0265 Y33.5027 
G01 X24.8733 Y33.4003 
G01 X24.7030 Y33.3298 
G01 X24.5222 Y33.2938 
G01 X24.3378 Y33.2938 
G01 X24.1570 Y33.3298 
G01 X23.9867 Y33.4003 
G01 X23.8335 Y33.5027 
G01 X23.7031 Y33.6331 
G00 Z2.5400  
G00 X22.6169 Y33.6331 
G01 Z-0.1778 F254   
G01 X22.4865 Y33.5027 F508   
G01 X22.3333 Y33.4003 
G01 X22.1630 Y33.3298 
G01 X21.9822 Y33.2938 
G01 X21.7978 Y33.2938 
G01 X21.6170 Y33.3298 
G01 X21.4467 Y33.4003 
G01 X21.2935 Y33.5027 
G01 X21.1631 Y33.6331 
G01 X21.0607 Y33.7863 
G01 X20.9902 Y33.9566 
G01 X20.9542 Y34.1374 
G01 X20.9542 Y35.6426 
G01 X20.9902 Y35.8234 
G01 X21.0607 Y35.9937 
G01 X21.1631 Y36.1469 
G01 X21.2935 Y36.2773 
G01 X21.4467 Y36.3797 
G01 X21.6170 Y36.4502 
G01 X21.7978 Y36.4862 
G01 X21.9822 Y36.4862 
G01 X22.1630 Y36.4502 
G01 X22.3333 Y36.3797 
G01 X22.4865 Y36.2773 
G01 X22.6169 Y36.1469 
G01 X22.7193 Y35.9937 
G01 X22.7898 Y35.8234 
G01 X22.8258 Y35.6426 
G01 X22.8258 Y34.1374 
G01 X22.7898 Y33.9566 
G01 X22.7193 Y33.7863 
G01 X22.6169 Y33.6331 
G00 Z2.5400  
G00 X20.0769 Y33.6331 
G01 Z-0.1778 F254   
G01 X19.9465 Y33.5027 F508   
G01 X19.7933 Y33.4003 
G01 X19.6230 Y33.3298 
G01 X19.4422 Y33.2938 
G01 X19.2578 Y33.2938 
G01 X19.0770 Y33.3298 
G01 X18.9067 Y33.4003 
G01 X18.7535 Y33.5027 
G01 X18.6231 Y33.6331 
G01 X18.5207 Y33.7863 
G01 X18.4502 Y33.9566 
G01 X18.4142 Y34.1374 
G01 X18.4142 Y35.6426 
G01 X18.4502 Y35.8234 
G01 X18.5207 Y35.9937 
G01 X18.6231 Y36.1469 
G01 X18.7535 Y36.2773 
G01 X18.9067 Y36.3797 
G01 X19.0770 Y36.4502 
G01 X19.2578 Y36.4862 
G01 X19.4422 Y36.4862 
G01 X19.6230 Y36.4502 
G01 X19.7933 Y36.3797 
G01 X19.9465 Y36.2773 
G01 X20.0769 Y36.1469 
G01 X20.1793 Y35.9937 
G01 X20.2498 Y35.8234 
G01 X20.2858 Y35.6426 
G01 X20.2858 Y34.1374 
G01 X20.2498 Y33.9566 
G01 X20.1793 Y33.7863 
G01 X20.0769 Y33.6331 
G00 Z2.5400  
G00 X18.0286 Y33.6105 
G01 Z-0.1778 F254   
G01 X18.0098 Y33.5405 F508   
G01 X17.9736 Y33.4777 
G01 X17.9223 Y33.4264 
G01 X17.8595 Y33.3902 
G01 X17.7895 Y33.3714 
G01 X16.6105 Y33.3714 
G01 X16.5405 Y33.3902 
G01 X16.4777 Y33.4264 
G01 X16.4264 Y33.4777 
G01 X16.3902 Y33.5405 
G01 X16.3714 Y33.6105 
G01 X16.3714 Y33.7214 
G01 X11.9286 Y33.7214 
G01 X11.9286 Y33.6105 
G01 X11.9098 Y33.5405 
G01 X11.8736 Y33.4777 
G01 X11.8223 Y33.4264 
G01 X11.7595 Y33.3902 
G01 X11.6895 Y33.3714 
G01 X10.5105 Y33.3714 
G01 X10.4405 Y33.3902 
G01 X10.3777 Y33.4264 
G01 X10.3264 Y33.4777 
G01 X10.2902 Y33.5405 
G01 X10.2714 Y33.6105 
G01 X10.2714 Y34.7895 
G01 X10.2902 Y34.8595 
G01 X10.3264 Y34.9223 
G01 X10.3777 Y34.9736 
G01 X10.4405 Y35.0098 
G01 X10.5105 Y35.0286 
G01 X11.6895 Y35.0286 
G01 X11.7595 Y35.0098 
G01 X11.8223 Y34.9736 
G01 X11.8736 Y34.9223 
G01 X11.9098 Y34.8595 
G01 X11.9286 Y34.7895 
G01 X11.9286 Y34.6786 
G01 X16.3714 Y34.6786 
G01 X16.3714 Y34.7895 
G01 X16.3902 Y34.8595 
G01 X16.4264 Y34.9223 
G01 X16.4777 Y34.9736 
G01 X16.5405 Y35.0098 
G01 X16.6105 Y35.0286 
G01 X17.7895 Y35.0286 
G01 X17.8595 Y35.0098 
G01 X17.9223 Y34.9736 
G01 X17.9736 Y34.9223 
G01 X18.0098 Y34.8595 
G01 X18.0286 Y34.7895 
G01 X18.0286 Y33.6105 
G00 Z2.5400  
G00 X17.9223 Y36.6264 
G01 Z-0.1778 F254   
G01 X17.8595 Y36.5902 F508   
G01 X17.7895 Y36.5714 
G01 X16.6105 Y36.5714 
G01 X16.5405 Y36.5902 
G01 X16.4777 Y36.6264 
G01 X16.4264 Y36.6777 
G01 X16.3902 Y36.7405 
G01 X16.3714 Y36.8105 
G01 X16.3714 Y36.9214 
G01 X13.3286 Y36.9214 
G01 X13.3286 Y36.7105 
G01 X13.3098 Y36.6405 
G01 X13.2736 Y36.5777 
G01 X13.2223 Y36.5264 
G01 X13.1595 Y36.4902 
G01 X13.0895 Y36.4714 
G01 X11.9105 Y36.4714 
G01 X11.8405 Y36.4902 
G01 X11.7777 Y36.5264 
G01 X11.7264 Y36.5777 
G01 X11.6902 Y36.6405 
G01 X11.6714 Y36.7105 
G01 X11.6714 Y37.8895 
G01 X11.6902 Y37.9595 
G01 X11.7264 Y38.0223 
G01 X11.7777 Y38.0736 
G01 X11.8405 Y38.1098 
G01 X11.9105 Y38.1286 
G01 X13.0895 Y38.1286 
G01 X13.1595 Y38.1098 
G01 X13.2223 Y38.0736 
G01 X13.2736 Y38.0223 
G01 X13.3098 Y37.9595 
G01 X13.3286 Y37.8895 
G01 X13.3286 Y37.8786 
G01 X16.3714 Y37.8786 
G01 X16.3714 Y37.9895 
G01 X16.3902 Y38.0595 
G01 X16.4264 Y38.1223 
G01 X16.4777 Y38.1736 
G01 X16.5405 Y38.2098 
G01 X16.6105 Y38.2286 
G01 X17.7895 Y38.2286 
G01 X17.8595 Y38.2098 
G01 X17.9223 Y38.1736 
G01 X17.9736 Y38.1223 
G01 X18.0098 Y38.0595 
G01 X18.0286 Y37.9895 
G01 X18.0286 Y36.8105 
G01 X18.0098 Y36.7405 
G01 X17.9736 Y36.6777 
G01 X17.9223 Y36.6264 
G00 Z2.5400  
G00 X17.6276 Y39.1442 
G01 Z-0.1778 F254   
G01 X16.8524 Y39.1442 F508   
G01 X16.3042 Y39.6924 
G01 X16.3042 Y40.4676 
G01 X16.8524 Y41.0158 
G01 X17.6276 Y41.0158 
G01 X18.1758 Y40.4676 
G01 X18.1758 Y39.6924 
G01 X17.6276 Y39.1442 
G00 Z2.5400  
G00 X18.6231 Y41.2531 
G01 Z-0.1778 F254   
G01 X18.5207 Y41.4063 F508   
G01 X18.4502 Y41.5766 
G01 X18.4142 Y41.7574 
G01 X18.4142 Y43.2626 
G01 X18.4502 Y43.4434 
G01 X18.5207 Y43.6137 
G01 X18.6231 Y43.7669 
G01 X18.7535 Y43.8973 
G01 X18.9067 Y43.9997 
G01 X19.0770 Y44.0702 
G01 X19.2578 Y44.1062 
G01 X19.4422 Y44.1062 
G01 X19.6230 Y44.0702 
G01 X19.7933 Y43.9997 
G01 X19.9465 Y43.8973 
G01 X20.0769 Y43.7669 
G01 X20.1793 Y43.6137 
G01 X20.2498 Y43.4434 
G01 X20.2858 Y43.2626 
G01 X20.2858 Y41.7574 
G01 X20.2498 Y41.5766 
G01 X20.1793 Y41.4063 
G01 X20.0769 Y41.2531 
G01 X19.9465 Y41.1227 
G01 X19.7933 Y41.0203 
G01 X19.6230 Y40.9498 
G01 X19.4422 Y40.9138 
G01 X19.2578 Y40.9138 
G01 X19.0770 Y40.9498 
G01 X18.9067 Y41.0203 
G01 X18.7535 Y41.1227 
G01 X18.6231 Y41.2531 
G00 Z2.5400  
G00 X21.1631 Y41.2531 
G01 Z-0.1778 F254   
G01 X21.0607 Y41.4063 F508   
G01 X20.9902 Y41.5766 
G01 X20.9542 Y41.7574 
G01 X20.9542 Y43.2626 
G01 X20.9902 Y43.4434 
G01 X21.0607 Y43.6137 
G01 X21.1631 Y43.7669 
G01 X21.2935 Y43.8973 
G01 X21.4467 Y43.9997 
G01 X21.6170 Y44.0702 
G01 X21.7978 Y44.1062 
G01 X21.9822 Y44.1062 
G01 X22.1630 Y44.0702 
G01 X22.3333 Y43.9997 
G01 X22.4865 Y43.8973 
G01 X22.6169 Y43.7669 
G01 X22.7193 Y43.6137 
G01 X22.7898 Y43.4434 
G01 X22.8258 Y43.2626 
G01 X22.8258 Y41.7574 
G01 X22.7898 Y41.5766 
G01 X22.7193 Y41.4063 
G01 X22.6169 Y41.2531 
G01 X22.4865 Y41.1227 
G01 X22.3333 Y41.0203 
G01 X22.1630 Y40.9498 
G01 X21.9822 Y40.9138 
G01 X21.7978 Y40.9138 
G01 X21.6170 Y40.9498 
G01 X21.4467 Y41.0203 
G01 X21.2935 Y41.1227 
G01 X21.1631 Y41.2531 
G00 Z2.5400  
G00 X23.7031 Y41.2531 
G01 Z-0.1778 F254   
G01 X23.6007 Y41.4063 F508   
G01 X23.5302 Y41.5766 
G01 X23.4942 Y41.7574 
G01 X23.4942 Y43.2626 
G01 X23.5302 Y43.4434 
G01 X23.6007 Y43.6137 
G01 X23.7031 Y43.7669 
G01 X23.8335 Y43.8973 
G01 X23.9867 Y43.9997 
G01 X24.1570 Y44.0702 
G01 X24.3378 Y44.1062 
G01 X24.5222 Y44.1062 
G01 X24.7030 Y44.0702 
G01 X24.8733 Y43.9997 
G01 X25.0265 Y43.8973 
G01 X25.1569 Y43.7669 
G01 X25.2593 Y43.6137 
G01 X25.3298 Y43.4434 
G01 X25.3658 Y43.2626 
G01 X25.3658 Y41.7574 
G01 X25.3298 Y41.5766 
G01 X25.2593 Y41.4063 
G01 X25.1569 Y41.2531 
G01 X25.0265 Y41.1227 
G01 X24.8733 Y41.0203 
G01 X24.7030 Y40.9498 
G01 X24.5222 Y40.9138 
G01 X24.3378 Y40.9138 
G01 X24.1570 Y40.9498 
G01 X23.9867 Y41.0203 
G01 X23.8335 Y41.1227 
G01 X23.7031 Y41.2531 
G00 Z2.5400  
G00 X26.2431 Y41.2531 
G01 Z-0.1778 F254   
G01 X26.1407 Y41.4063 F508   
G01 X26.0702 Y41.5766 
G01 X26.0342 Y41.7574 
G01 X26.0342 Y43.2626 
G01 X26.0702 Y43.4434 
G01 X26.1407 Y43.6137 
G01 X26.2431 Y43.7669 
G01 X26.3735 Y43.8973 
G01 X26.5267 Y43.9997 
G01 X26.6970 Y44.0702 
G01 X26.8778 Y44.1062 
G01 X27.0622 Y44.1062 
G01 X27.2430 Y44.0702 
G01 X27.4133 Y43.9997 
G01 X27.5665 Y43.8973 
G01 X27.6969 Y43.7669 
G01 X27.7993 Y43.6137 
G01 X27.8698 Y43.4434 
G01 X27.9058 Y43.2626 
G01 X27.9058 Y41.7574 
G01 X27.8698 Y41.5766 
G01 X27.7993 Y41.4063 
G01 X27.6969 Y41.2531 
G01 X27.5665 Y41.1227 
G01 X27.4133 Y41.0203 
G01 X27.2430 Y40.9498 
G01 X27.0622 Y40.9138 
G01 X26.8778 Y40.9138 
G01 X26.6970 Y40.9498 
G01 X26.5267 Y41.0203 
G01 X26.3735 Y41.1227 
G01 X26.2431 Y41.2531 
G00 Z2.5400  
G00 X26.3777 Y39.6736 
G01 Z-0.1778 F254   
G01 X26.4405 Y39.7098 F508   
G01 X26.5105 Y39.7286 
G01 X27.6895 Y39.7286 
G01 X27.7595 Y39.7098 
G01 X27.8223 Y39.6736 
G01 X27.8736 Y39.6223 
G01 X27.9098 Y39.5595 
G01 X27.9286 Y39.4895 
G01 X27.9286 Y39.3786 
G01 X31.7714 Y39.3786 
G01 X31.7714 Y39.4895 
G01 X31.7902 Y39.5595 
G01 X31.8264 Y39.6223 
G01 X31.8777 Y39.6736 
G01 X31.9405 Y39.7098 
G01 X32.0105 Y39.7286 
G01 X33.1895 Y39.7286 
G01 X33.2595 Y39.7098 
G01 X33.3223 Y39.6736 
G01 X33.3736 Y39.6223 
G01 X33.4098 Y39.5595 
G01 X33.4286 Y39.4895 
G01 X33.4286 Y38.3105 
G01 X33.4098 Y38.2405 
G01 X33.3736 Y38.1777 
G01 X33.3223 Y38.1264 
G01 X33.2595 Y38.0902 
G01 X33.1895 Y38.0714 
G01 X32.0105 Y38.0714 
G01 X31.9405 Y38.0902 
G01 X31.8777 Y38.1264 
G01 X31.8264 Y38.1777 
G01 X31.7902 Y38.2405 
G01 X31.7714 Y38.3105 
G01 X31.7714 Y38.4214 
G01 X27.9286 Y38.4214 
G01 X27.9286 Y38.3105 
G01 X27.9098 Y38.2405 
G01 X27.8736 Y38.1777 
G01 X27.8223 Y38.1264 
G01 X27.7595 Y38.0902 
G01 X27.6895 Y38.0714 
G01 X26.5105 Y38.0714 
G01 X26.4405 Y38.0902 
G01 X26.3777 Y38.1264 
G01 X26.3264 Y38.1777 
G01 X26.2902 Y38.2405 
G01 X26.2714 Y38.3105 
G01 X26.2714 Y39.4895 
G01 X26.2902 Y39.5595 
G01 X26.3264 Y39.6223 
G01 X26.3777 Y39.6736 
G00 Z2.5400  
G00 X26.3735 Y36.2773 
G01 Z-0.1778 F254   
G01 X26.5267 Y36.3797 F508   
G01 X26.6970 Y36.4502 
G01 X26.8778 Y36.4862 
G01 X27.0622 Y36.4862 
G01 X27.2430 Y36.4502 
G01 X27.4133 Y36.3797 
G01 X27.5665 Y36.2773 
G01 X27.6969 Y36.1469 
G01 X27.7993 Y35.9937 
G01 X27.8698 Y35.8234 
G01 X27.9058 Y35.6426 
G01 X27.9058 Y34.1374 
G01 X27.8698 Y33.9566 
G01 X27.7993 Y33.7863 
G01 X27.6969 Y33.6331 
G01 X27.5665 Y33.5027 
G01 X27.4133 Y33.4003 
G01 X27.2430 Y33.3298 
G01 X27.0622 Y33.2938 
G01 X26.8778 Y33.2938 
G01 X26.6970 Y33.3298 
G01 X26.5267 Y33.4003 
G01 X26.3735 Y33.5027 
G01 X26.2431 Y33.6331 
G01 X26.1407 Y33.7863 
G01 X26.0702 Y33.9566 
G01 X26.0342 Y34.1374 
G01 X26.0342 Y35.6426 
G01 X26.0702 Y35.8234 
G01 X26.1407 Y35.9937 
G01 X26.2431 Y36.1469 
G01 X26.3735 Y36.2773 
G00 Z2.5400  
G00 X28.9135 Y36.2773 
G01 Z-0.1778 F254   
G01 X29.0667 Y36.3797 F508   
G01 X29.2370 Y36.4502 
G01 X29.4178 Y36.4862 
G01 X29.6022 Y36.4862 
G01 X29.7830 Y36.4502 
G01 X29.9533 Y36.3797 
G01 X30.1065 Y36.2773 
G01 X30.2369 Y36.1469 
G01 X30.3393 Y35.9937 
G01 X30.4098 Y35.8234 
G01 X30.4458 Y35.6426 
G01 X30.4458 Y34.1374 
G01 X30.4098 Y33.9566 
G01 X30.3393 Y33.7863 
G01 X30.2369 Y33.6331 
G01 X30.1065 Y33.5027 
G01 X29.9533 Y33.4003 
G01 X29.7830 Y33.3298 
G01 X29.6022 Y33.2938 
G01 X29.4178 Y33.2938 
G01 X29.2370 Y33.3298 
G01 X29.0667 Y33.4003 
G01 X28.9135 Y33.5027 
G01 X28.7831 Y33.6331 
G01 X28.6807 Y33.7863 
G01 X28.6102 Y33.9566 
G01 X28.5742 Y34.1374 
G01 X28.5742 Y35.6426 
G01 X28.6102 Y35.8234 
G01 X28.6807 Y35.9937 
G01 X28.7831 Y36.1469 
G01 X28.9135 Y36.2773 
G00 Z2.5400  
G00 X31.4535 Y36.2773 
G01 Z-0.1778 F254   
G01 X31.6067 Y36.3797 F508   
G01 X31.7770 Y36.4502 
G01 X31.9578 Y36.4862 
G01 X32.1422 Y36.4862 
G01 X32.3230 Y36.4502 
G01 X32.4933 Y36.3797 
G01 X32.6465 Y36.2773 
G01 X32.7769 Y36.1469 
G01 X32.8793 Y35.9937 
G01 X32.9498 Y35.8234 
G01 X32.9858 Y35.6426 
G01 X32.9858 Y34.1374 
G01 X32.9498 Y33.9566 
G01 X32.8793 Y33.7863 
G01 X32.7769 Y33.6331 
G01 X32.6465 Y33.5027 
G01 X32.4933 Y33.4003 
G01 X32.3230 Y33.3298 
G01 X32.1422 Y33.2938 
G01 X31.9578 Y33.2938 
G01 X31.7770 Y33.3298 
G01 X31.6067 Y33.4003 
G01 X31.4535 Y33.5027 
G01 X31.3231 Y33.6331 
G01 X31.2207 Y33.7863 
G01 X31.1502 Y33.9566 
G01 X31.1142 Y34.1374 
G01 X31.1142 Y35.6426 
G01 X31.1502 Y35.8234 
G01 X31.2207 Y35.9937 
G01 X31.3231 Y36.1469 
G01 X31.4535 Y36.2773 
G00 Z2.5400  
G00 X33.9935 Y36.2773 
G01 Z-0.1778 F254   
G01 X34.1467 Y36.3797 F508   
G01 X34.3170 Y36.4502 
G01 X34.4978 Y36.4862 
G01 X34.6822 Y36.4862 
G01 X34.8630 Y36.4502 
G01 X35.0333 Y36.3797 
G01 X35.1865 Y36.2773 
G01 X35.3169 Y36.1469 
G01 X35.4193 Y35.9937 
G01 X35.4898 Y35.8234 
G01 X35.5258 Y35.6426 
G01 X35.5258 Y34.1374 
G01 X35.4898 Y33.9566 
G01 X35.4193 Y33.7863 
G01 X35.3169 Y33.6331 
G01 X35.1865 Y33.5027 
G01 X35.0333 Y33.4003 
G01 X34.8630 Y33.3298 
G01 X34.6822 Y33.2938 
G01 X34.4978 Y33.2938 
G01 X34.3170 Y33.3298 
G01 X34.1467 Y33.4003 
G01 X33.9935 Y33.5027 
G01 X33.8631 Y33.6331 
G01 X33.7607 Y33.7863 
G01 X33.6902 Y33.9566 
G01 X33.6542 Y34.1374 
G01 X33.6542 Y35.6426 
G01 X33.6902 Y35.8234 
G01 X33.7607 Y35.9937 
G01 X33.8631 Y36.1469 
G01 X33.9935 Y36.2773 
G00 Z2.5400  
G00 X33.9935 Y41.1227 
G01 Z-0.1778 F254   
G01 X33.8631 Y41.2531 F508   
G01 X33.7607 Y41.4063 
G01 X33.6902 Y41.5766 
G01 X33.6542 Y41.7574 
G01 X33.6542 Y43.2626 
G01 X33.6902 Y43.4434 
G01 X33.7607 Y43.6137 
G01 X33.8631 Y43.7669 
G01 X33.9935 Y43.8973 
G01 X34.1467 Y43.9997 
G01 X34.3170 Y44.0702 
G01 X34.4978 Y44.1062 
G01 X34.6822 Y44.1062 
G01 X34.8630 Y44.0702 
G01 X35.0333 Y43.9997 
G01 X35.1865 Y43.8973 
G01 X35.3169 Y43.7669 
G01 X35.4193 Y43.6137 
G01 X35.4898 Y43.4434 
G01 X35.5258 Y43.2626 
G01 X35.5258 Y41.7574 
G01 X35.4898 Y41.5766 
G01 X35.4193 Y41.4063 
G01 X35.3169 Y41.2531 
G01 X35.1865 Y41.1227 
G01 X35.0333 Y41.0203 
G01 X34.8630 Y40.9498 
G01 X34.6822 Y40.9138 
G01 X34.4978 Y40.9138 
G01 X34.3170 Y40.9498 
G01 X34.1467 Y41.0203 
G01 X33.9935 Y41.1227 
G00 Z2.5400  
G00 X32.6465 Y41.1227 
G01 Z-0.1778 F254   
G01 X32.4933 Y41.0203 F508   
G01 X32.3230 Y40.9498 
G01 X32.1422 Y40.9138 
G01 X31.9578 Y40.9138 
G01 X31.7770 Y40.9498 
G01 X31.6067 Y41.0203 
G01 X31.4535 Y41.1227 
G01 X31.3231 Y41.2531 
G01 X31.2207 Y41.4063 
G01 X31.1502 Y41.5766 
G01 X31.1142 Y41.7574 
G01 X31.1142 Y43.2626 
G01 X31.1502 Y43.4434 
G01 X31.2207 Y43.6137 
G01 X31.3231 Y43.7669 
G01 X31.4535 Y43.8973 
G01 X31.6067 Y43.9997 
G01 X31.7770 Y44.0702 
G01 X31.9578 Y44.1062 
G01 X32.1422 Y44.1062 
G01 X32.3230 Y44.0702 
G01 X32.4933 Y43.9997 
G01 X32.6465 Y43.8973 
G01 X32.7769 Y43.7669 
G01 X32.8793 Y43.6137 
G01 X32.9498 Y43.4434 
G01 X32.9858 Y43.2626 
G01 X32.9858 Y41.7574 
G01 X32.9498 Y41.5766 
G01 X32.8793 Y41.4063 
G01 X32.7769 Y41.2531 
G01 X32.6465 Y41.1227 
G00 Z2.5400  
G00 X30.1065 Y41.1227 
G01 Z-0.1778 F254   
G01 X29.9533 Y41.0203 F508   
G01 X29.7830 Y40.9498 
G01 X29.6022 Y40.9138 
G01 X29.4178 Y40.9138 
G01 X29.2370 Y40.9498 
G01 X29.0667 Y41.0203 
G01 X28.9135 Y41.1227 
G01 X28.7831 Y41.2531 
G01 X28.6807 Y41.4063 
G01 X28.6102 Y41.5766 
G01 X28.5742 Y41.7574 
G01 X28.5742 Y43.2626 
G01 X28.6102 Y43.4434 
G01 X28.6807 Y43.6137 
G01 X28.7831 Y43.7669 
G01 X28.9135 Y43.8973 
G01 X29.0667 Y43.9997 
G01 X29.2370 Y44.0702 
G01 X29.4178 Y44.1062 
G01 X29.6022 Y44.1062 
G01 X29.7830 Y44.0702 
G01 X29.9533 Y43.9997 
G01 X30.1065 Y43.8973 
G01 X30.2369 Y43.7669 
G01 X30.3393 Y43.6137 
G01 X30.4098 Y43.4434 
G01 X30.4458 Y43.2626 
G01 X30.4458 Y41.7574 
G01 X30.4098 Y41.5766 
G01 X30.3393 Y41.4063 
G01 X30.2369 Y41.2531 
G01 X30.1065 Y41.1227 
G00 Z2.5400  
G00 X30.1878 Y47.6738 
G01 Z-0.1778 F254   
G01 X30.0070 Y47.7098 F508   
G01 X29.8367 Y47.7803 
G01 X29.6835 Y47.8827 
G01 X29.5531 Y48.0131 
G01 X29.4507 Y48.1663 
G01 X29.3802 Y48.3366 
G01 X29.3442 Y48.5174 
G01 X29.3442 Y50.0226 
G01 X29.3802 Y50.2034 
G01 X29.4507 Y50.3737 
G01 X29.5531 Y50.5269 
G01 X29.6835 Y50.6573 
G01 X29.8367 Y50.7597 
G01 X30.0070 Y50.8302 
G01 X30.1878 Y50.8662 
G01 X30.3722 Y50.8662 
G01 X30.5530 Y50.8302 
G01 X30.7233 Y50.7597 
G01 X30.8765 Y50.6573 
G01 X31.0069 Y50.5269 
G01 X31.1093 Y50.3737 
G01 X31.1798 Y50.2034 
G01 X31.2158 Y50.0226 
G01 X31.2158 Y48.5174 
G01 X31.1798 Y48.3366 
G01 X31.1093 Y48.1663 
G01 X31.0069 Y48.0131 
G01 X30.8765 Y47.8827 
G01 X30.7233 Y47.7803 
G01 X30.5530 Y47.7098 
G01 X30.3722 Y47.6738 
G01 X30.1878 Y47.6738 
G00 Z2.5400  
G00 X28.3365 Y47.8827 
G01 Z-0.1778 F254   
G01 X28.1833 Y47.7803 F508   
G01 X28.0130 Y47.7098 
G01 X27.8322 Y47.6738 
G01 X27.6478 Y47.6738 
G01 X27.4670 Y47.7098 
G01 X27.2967 Y47.7803 
G01 X27.1435 Y47.8827 
G01 X27.0131 Y48.0131 
G01 X26.9107 Y48.1663 
G01 X26.8402 Y48.3366 
G01 X26.8042 Y48.5174 
G01 X26.8042 Y50.0226 
G01 X26.8402 Y50.2034 
G01 X26.9107 Y50.3737 
G01 X27.0131 Y50.5269 
G01 X27.1435 Y50.6573 
G01 X27.2967 Y50.7597 
G01 X27.4670 Y50.8302 
G01 X27.6478 Y50.8662 
G01 X27.8322 Y50.8662 
G01 X28.0130 Y50.8302 
G01 X28.1833 Y50.7597 
G01 X28.3365 Y50.6573 
G01 X28.4669 Y50.5269 
G01 X28.5693 Y50.3737 
G01 X28.6398 Y50.2034 
G01 X28.6758 Y50.0226 
G01 X28.6758 Y48.5174 
G01 X28.6398 Y48.3366 
G01 X28.5693 Y48.1663 
G01 X28.4669 Y48.0131 
G01 X28.3365 Y47.8827 
G00 Z2.5400  
G00 X25.7965 Y47.8827 
G01 Z-0.1778 F254   
G01 X25.6433 Y47.7803 F508   
G01 X25.4730 Y47.7098 
G01 X25.2922 Y47.6738 
G01 X25.1078 Y47.6738 
G01 X24.9270 Y47.7098 
G01 X24.7567 Y47.7803 
G01 X24.6035 Y47.8827 
G01 X24.4731 Y48.0131 
G01 X24.3707 Y48.1663 
G01 X24.3002 Y48.3366 
G01 X24.2642 Y48.5174 
G01 X24.2642 Y50.0226 
G01 X24.3002 Y50.2034 
G01 X24.3707 Y50.3737 
G01 X24.4731 Y50.5269 
G01 X24.6035 Y50.6573 
G01 X24.7567 Y50.7597 
G01 X24.9270 Y50.8302 
G01 X25.1078 Y50.8662 
G01 X25.2922 Y50.8662 
G01 X25.4730 Y50.8302 
G01 X25.6433 Y50.7597 
G01 X25.7965 Y50.6573 
G01 X25.9269 Y50.5269 
G01 X26.0293 Y50.3737 
G01 X26.0998 Y50.2034 
G01 X26.1358 Y50.0226 
G01 X26.1358 Y48.5174 
G01 X26.0998 Y48.3366 
G01 X26.0293 Y48.1663 
G01 X25.9269 Y48.0131 
G01 X25.7965 Y47.8827 
G00 Z2.5400  
G00 X23.2565 Y47.8827 
G01 Z-0.1778 F254   
G01 X23.1033 Y47.7803 F508   
G01 X22.9330 Y47.7098 
G01 X22.7522 Y47.6738 
G01 X22.5678 Y47.6738 
G01 X22.3870 Y47.7098 
G01 X22.2167 Y47.7803 
G01 X22.0635 Y47.8827 
G01 X21.9331 Y48.0131 
G01 X21.8307 Y48.1663 
G01 X21.7602 Y48.3366 
G01 X21.7242 Y48.5174 
G01 X21.7242 Y50.0226 
G01 X21.7602 Y50.2034 
G01 X21.8307 Y50.3737 
G01 X21.9331 Y50.5269 
G01 X22.0635 Y50.6573 
G01 X22.2167 Y50.7597 
G01 X22.3870 Y50.8302 
G01 X22.5678 Y50.8662 
G01 X22.7522 Y50.8662 
G01 X22.9330 Y50.8302 
G01 X23.1033 Y50.7597 
G01 X23.2565 Y50.6573 
G01 X23.3869 Y50.5269 
G01 X23.4893 Y50.3737 
G01 X23.5598 Y50.2034 
G01 X23.5958 Y50.0226 
G01 X23.5958 Y48.5174 
G01 X23.5598 Y48.3366 
G01 X23.4893 Y48.1663 
G01 X23.3869 Y48.0131 
G01 X23.2565 Y47.8827 
G00 Z2.5400  
G00 X20.7165 Y47.8827 
G01 Z-0.1778 F254   
G01 X20.5633 Y47.7803 F508   
G01 X20.3930 Y47.7098 
G01 X20.2122 Y47.6738 
G01 X20.0278 Y47.6738 
G01 X19.8470 Y47.7098 
G01 X19.6767 Y47.7803 
G01 X19.5235 Y47.8827 
G01 X19.3931 Y48.0131 
G01 X19.2907 Y48.1663 
G01 X19.2202 Y48.3366 
G01 X19.1842 Y48.5174 
G01 X19.1842 Y50.0226 
G01 X19.2202 Y50.2034 
G01 X19.2907 Y50.3737 
G01 X19.3931 Y50.5269 
G01 X19.5235 Y50.6573 
G01 X19.6767 Y50.7597 
G01 X19.8470 Y50.8302 
G01 X20.0278 Y50.8662 
G01 X20.2122 Y50.8662 
G01 X20.3930 Y50.8302 
G01 X20.5633 Y50.7597 
G01 X20.7165 Y50.6573 
G01 X20.8469 Y50.5269 
G01 X20.9493 Y50.3737 
G01 X21.0198 Y50.2034 
G01 X21.0558 Y50.0226 
G01 X21.0558 Y48.5174 
G01 X21.0198 Y48.3366 
G01 X20.9493 Y48.1663 
G01 X20.8469 Y48.0131 
G01 X20.7165 Y47.8827 
G00 Z2.5400  
G00 X18.1765 Y47.8827 
G01 Z-0.1778 F254   
G01 X18.0233 Y47.7803 F508   
G01 X17.8530 Y47.7098 
G01 X17.6722 Y47.6738 
G01 X17.4878 Y47.6738 
G01 X17.3070 Y47.7098 
G01 X17.1367 Y47.7803 
G01 X16.9835 Y47.8827 
G01 X16.8531 Y48.0131 
G01 X16.7507 Y48.1663 
G01 X16.6802 Y48.3366 
G01 X16.6442 Y48.5174 
G01 X16.6442 Y50.0226 
G01 X16.6802 Y50.2034 
G01 X16.7507 Y50.3737 
G01 X16.8531 Y50.5269 
G01 X16.9835 Y50.6573 
G01 X17.1367 Y50.7597 
G01 X17.3070 Y50.8302 
G01 X17.4878 Y50.8662 
G01 X17.6722 Y50.8662 
G01 X17.8530 Y50.8302 
G01 X18.0233 Y50.7597 
G01 X18.1765 Y50.6573 
G01 X18.3069 Y50.5269 
G01 X18.4093 Y50.3737 
G01 X18.4798 Y50.2034 
G01 X18.5158 Y50.0226 
G01 X18.5158 Y48.5174 
G01 X18.4798 Y48.3366 
G01 X18.4093 Y48.1663 
G01 X18.3069 Y48.0131 
G01 X18.1765 Y47.8827 
G00 Z2.5400  
G00 X15.6365 Y47.8827 
G01 Z-0.1778 F254   
G01 X15.4833 Y47.7803 F508   
G01 X15.3130 Y47.7098 
G01 X15.1322 Y47.6738 
G01 X14.9478 Y47.6738 
G01 X14.7670 Y47.7098 
G01 X14.5967 Y47.7803 
G01 X14.4435 Y47.8827 
G01 X14.3131 Y48.0131 
G01 X14.2107 Y48.1663 
G01 X14.1402 Y48.3366 
G01 X14.1042 Y48.5174 
G01 X14.1042 Y50.0226 
G01 X14.1402 Y50.2034 
G01 X14.2107 Y50.3737 
G01 X14.3131 Y50.5269 
G01 X14.4435 Y50.6573 
G01 X14.5967 Y50.7597 
G01 X14.7670 Y50.8302 
G01 X14.9478 Y50.8662 
G01 X15.1322 Y50.8662 
G01 X15.3130 Y50.8302 
G01 X15.4833 Y50.7597 
G01 X15.6365 Y50.6573 
G01 X15.7669 Y50.5269 
G01 X15.8693 Y50.3737 
G01 X15.9398 Y50.2034 
G01 X15.9758 Y50.0226 
G01 X15.9758 Y48.5174 
G01 X15.9398 Y48.3366 
G01 X15.8693 Y48.1663 
G01 X15.7669 Y48.0131 
G01 X15.6365 Y47.8827 
G00 Z2.5400  
G00 X15.1297 Y46.1374 
G01 Z-0.1778 F254   
G01 X15.7374 Y45.5297 F508   
G01 X15.7374 Y44.6703 
G01 X15.1297 Y44.0626 
G01 X14.2703 Y44.0626 
G01 X13.6626 Y44.6703 
G01 X13.6626 Y45.5297 
G01 X14.2703 Y46.1374 
G01 X15.1297 Y46.1374 
G00 Z2.5400  
G00 X12.8286 Y45.9105 
G01 Z-0.1778 F254   
G01 X12.8098 Y45.8405 F508   
G01 X12.7736 Y45.7777 
G01 X12.7223 Y45.7264 
G01 X12.6595 Y45.6902 
G01 X12.5895 Y45.6714 
G01 X11.4105 Y45.6714 
G01 X11.3405 Y45.6902 
G01 X11.2777 Y45.7264 
G01 X11.2264 Y45.7777 
G01 X11.1902 Y45.8405 
G01 X11.1714 Y45.9105 
G01 X11.1714 Y47.0895 
G01 X11.1902 Y47.1595 
G01 X11.2264 Y47.2223 
G01 X11.2777 Y47.2736 
G01 X11.3405 Y47.3098 
G01 X11.4105 Y47.3286 
G01 X11.5214 Y47.3286 
G01 X11.5214 Y49.7714 
G01 X11.4105 Y49.7714 
G01 X11.3405 Y49.7902 
G01 X11.2777 Y49.8264 
G01 X11.2264 Y49.8777 
G01 X11.1902 Y49.9405 
G01 X11.1714 Y50.0105 
G01 X11.1714 Y51.1895 
G01 X11.1902 Y51.2595 
G01 X11.2264 Y51.3223 
G01 X11.2777 Y51.3736 
G01 X11.3405 Y51.4098 
G01 X11.4105 Y51.4286 
G01 X12.5895 Y51.4286 
G01 X12.6595 Y51.4098 
G01 X12.7223 Y51.3736 
G01 X12.7736 Y51.3223 
G01 X12.8098 Y51.2595 
G01 X12.8286 Y51.1895 
G01 X12.8286 Y50.0105 
G01 X12.8098 Y49.9405 
G01 X12.7736 Y49.8777 
G01 X12.7223 Y49.8264 
G01 X12.6595 Y49.7902 
G01 X12.5895 Y49.7714 
G01 X12.4786 Y49.7714 
G01 X12.4786 Y47.3286 
G01 X12.5895 Y47.3286 
G01 X12.6595 Y47.3098 
G01 X12.7223 Y47.2736 
G01 X12.7736 Y47.2223 
G01 X12.8098 Y47.1595 
G01 X12.8286 Y47.0895 
G01 X12.8286 Y45.9105 
G00 Z2.5400  
G00 X9.9558  Y45.4376 
G01 Z-0.1778 F254   
G01 X9.9558  Y44.6624 F508   
G01 X9.4076  Y44.1142 
G01 X8.6324  Y44.1142 
G01 X8.1856  Y44.5610 
G01 X8.1534  Y44.4618 
G01 X8.0793  Y44.3163 
G01 X7.9833  Y44.1842 
G01 X7.8678  Y44.0687 
G01 X7.7357  Y43.9727 
G01 X7.5902  Y43.8986 
G01 X7.4349  Y43.8481 
G01 X7.2736  Y43.8226 
G01 X5.5864  Y43.8226 
G01 X5.4251  Y43.8481 
G01 X5.2698  Y43.8986 
G01 X5.1243  Y43.9727 
G01 X4.9922  Y44.0687 
G01 X4.8767  Y44.1842 
G01 X4.7807  Y44.3163 
G01 X4.7066  Y44.4618 
G01 X4.6561  Y44.6171 
G01 X4.6306  Y44.7784 
G01 X4.6306  Y44.9416 
G01 X4.6561  Y45.1029 
G01 X4.7066  Y45.2582 
G01 X4.7807  Y45.4037 
G01 X4.8767  Y45.5358 
G01 X4.9922  Y45.6513 
G01 X5.1243  Y45.7473 
G01 X5.2698  Y45.8214 
G01 X5.4251  Y45.8719 
G01 X5.5864  Y45.8974 
G01 X7.2736  Y45.8974 
G01 X7.4349  Y45.8719 
G01 X7.5902  Y45.8214 
G01 X7.7357  Y45.7473 
G01 X7.8678  Y45.6513 
G01 X7.9833  Y45.5358 
G01 X8.0793  Y45.4037 
G01 X8.0842  Y45.3940 
G01 X8.0842  Y45.4376 
G01 X8.6324  Y45.9858 
G01 X9.4076  Y45.9858 
G01 X9.9558  Y45.4376 
G00 Z2.5400  
G00 X9.9558  Y42.8976 
G01 Z-0.1778 F254   
G01 X9.9558  Y42.1224 F508   
G01 X9.4076  Y41.5742 
G01 X8.6324  Y41.5742 
G01 X8.1856  Y42.0210 
G01 X8.1534  Y41.9218 
G01 X8.0793  Y41.7763 
G01 X7.9833  Y41.6442 
G01 X7.8678  Y41.5287 
G01 X7.7357  Y41.4327 
G01 X7.5902  Y41.3586 
G01 X7.4349  Y41.3081 
G01 X7.2736  Y41.2826 
G01 X5.5864  Y41.2826 
G01 X5.4251  Y41.3081 
G01 X5.2698  Y41.3586 
G01 X5.1243  Y41.4327 
G01 X4.9922  Y41.5287 
G01 X4.8767  Y41.6442 
G01 X4.7807  Y41.7763 
G01 X4.7066  Y41.9218 
G01 X4.6561  Y42.0771 
G01 X4.6306  Y42.2384 
G01 X4.6306  Y42.4016 
G01 X4.6561  Y42.5629 
G01 X4.7066  Y42.7182 
G01 X4.7807  Y42.8637 
G01 X4.8767  Y42.9958 
G01 X4.9922  Y43.1113 
G01 X5.1243  Y43.2073 
G01 X5.2698  Y43.2814 
G01 X5.4251  Y43.3319 
G01 X5.5864  Y43.3574 
G01 X7.2736  Y43.3574 
G01 X7.4349  Y43.3319 
G01 X7.5902  Y43.2814 
G01 X7.7357  Y43.2073 
G01 X7.8678  Y43.1113 
G01 X7.9833  Y42.9958 
G01 X8.0793  Y42.8637 
G01 X8.0842  Y42.8540 
G01 X8.0842  Y42.8976 
G01 X8.6324  Y43.4458 
G01 X9.4076  Y43.4458 
G01 X9.9558  Y42.8976 
G00 Z2.5400  
G00 X11.7724 Y41.0158 
G01 Z-0.1778 F254   
G01 X12.5476 Y41.0158 F508   
G01 X13.0958 Y40.4676 
G01 X13.0958 Y39.6924 
G01 X12.5476 Y39.1442 
G01 X11.7724 Y39.1442 
G01 X11.2242 Y39.6924 
G01 X11.2242 Y40.4676 
G01 X11.7724 Y41.0158 
G00 Z2.5400  
G00 X7.9833  Y40.4558 
G01 Z-0.1778 F254   
G01 X8.0793  Y40.3237 F508   
G01 X8.1534  Y40.1782 
G01 X8.2039  Y40.0229 
G01 X8.2294  Y39.8616 
G01 X8.2294  Y39.6984 
G01 X8.2039  Y39.5371 
G01 X8.1534  Y39.3818 
G01 X8.0793  Y39.2363 
G01 X7.9833  Y39.1042 
G01 X7.8678  Y38.9887 
G01 X7.7357  Y38.8927 
G01 X7.5902  Y38.8186 
G01 X7.4349  Y38.7681 
G01 X7.2736  Y38.7426 
G01 X5.5864  Y38.7426 
G01 X5.4251  Y38.7681 
G01 X5.2698  Y38.8186 
G01 X5.1243  Y38.8927 
G01 X4.9922  Y38.9887 
G01 X4.8767  Y39.1042 
G01 X4.7807  Y39.2363 
G01 X4.7066  Y39.3818 
G01 X4.6561  Y39.5371 
G01 X4.6306  Y39.6984 
G01 X4.6306  Y39.8616 
G01 X4.6561  Y40.0229 
G01 X4.7066  Y40.1782 
G01 X4.7807  Y40.3237 
G01 X4.8767  Y40.4558 
G01 X4.9922  Y40.5713 
G01 X5.1243  Y40.6673 
G01 X5.2698  Y40.7414 
G01 X5.4251  Y40.7919 
G01 X5.5864  Y40.8174 
G01 X7.2736  Y40.8174 
G01 X7.4349  Y40.7919 
G01 X7.5902  Y40.7414 
G01 X7.7357  Y40.6673 
G01 X7.8678  Y40.5713 
G01 X7.9833  Y40.4558 
G00 Z2.5400  
G00 X7.7178  Y48.2987 
G01 Z-0.1778 F254   
G01 X7.5857  Y48.2027 F508   
G01 X7.4402  Y48.1286 
G01 X7.2849  Y48.0781 
G01 X7.1236  Y48.0526 
G01 X5.4364  Y48.0526 
G01 X5.2751  Y48.0781 
G01 X5.1198  Y48.1286 
G01 X4.9743  Y48.2027 
G01 X4.8422  Y48.2987 
G01 X4.7267  Y48.4142 
G01 X4.6307  Y48.5463 
G01 X4.5566  Y48.6918 
G01 X4.5061  Y48.8471 
G01 X4.4806  Y49.0084 
G01 X4.4806  Y49.1716 
G01 X4.5061  Y49.3329 
G01 X4.5566  Y49.4882 
G01 X4.6307  Y49.6337 
G01 X4.7267  Y49.7658 
G01 X4.8422  Y49.8813 
G01 X4.9743  Y49.9773 
G01 X5.1198  Y50.0514 
G01 X5.2751  Y50.1019 
G01 X5.4364  Y50.1274 
G01 X7.1236  Y50.1274 
G01 X7.2849  Y50.1019 
G01 X7.4402  Y50.0514 
G01 X7.5857  Y49.9773 
G01 X7.7178  Y49.8813 
G01 X7.8333  Y49.7658 
G01 X7.9293  Y49.6337 
G01 X8.0034  Y49.4882 
G01 X8.0539  Y49.3329 
G01 X8.0794  Y49.1716 
G01 X8.0794  Y49.0084 
G01 X8.0539  Y48.8471 
G01 X8.0034  Y48.6918 
G01 X7.9293  Y48.5463 
G01 X7.8333  Y48.4142 
G01 X7.7178  Y48.2987 
G00 Z2.5400  
G00 X8.0842  Y48.7424 
G01 Z-0.1778 F254   
G01 X8.0842  Y49.5176 F508   
G01 X8.6324  Y50.0658 
G01 X9.4076  Y50.0658 
G01 X9.9558  Y49.5176 
G01 X9.9558  Y48.7424 
G01 X9.4076  Y48.1942 
G01 X8.6324  Y48.1942 
G01 X8.0842  Y48.7424 
G00 Z2.5400  
G00 X7.7178  Y50.8387 
G01 Z-0.1778 F254   
G01 X7.5857  Y50.7427 F508   
G01 X7.4402  Y50.6686 
G01 X7.2849  Y50.6181 
G01 X7.1236  Y50.5926 
G01 X5.4364  Y50.5926 
G01 X5.2751  Y50.6181 
G01 X5.1198  Y50.6686 
G01 X4.9743  Y50.7427 
G01 X4.8422  Y50.8387 
G01 X4.7267  Y50.9542 
G01 X4.6307  Y51.0863 
G01 X4.5566  Y51.2318 
G01 X4.5061  Y51.3871 
G01 X4.4806  Y51.5484 
G01 X4.4806  Y51.7116 
G01 X4.5061  Y51.8729 
G01 X4.5566  Y52.0282 
G01 X4.6307  Y52.1737 
G01 X4.7267  Y52.3058 
G01 X4.8422  Y52.4213 
G01 X4.9743  Y52.5173 
G01 X5.1198  Y52.5914 
G01 X5.2751  Y52.6419 
G01 X5.4364  Y52.6674 
G01 X7.1236  Y52.6674 
G01 X7.2849  Y52.6419 
G01 X7.4402  Y52.5914 
G01 X7.5857  Y52.5173 
G01 X7.7178  Y52.4213 
G01 X7.8333  Y52.3058 
G01 X7.9293  Y52.1737 
G01 X8.0034  Y52.0282 
G01 X8.0539  Y51.8729 
G01 X8.0794  Y51.7116 
G01 X8.0794  Y51.5484 
G01 X8.0539  Y51.3871 
G01 X8.0034  Y51.2318 
G01 X7.9293  Y51.0863 
G01 X7.8333  Y50.9542 
G01 X7.7178  Y50.8387 
G00 Z2.5400  
G00 X8.0842  Y51.2824 
G01 Z-0.1778 F254   
G01 X8.0842  Y52.0576 F508   
G01 X8.6324  Y52.6058 
G01 X9.4076  Y52.6058 
G01 X9.9558  Y52.0576 
G01 X9.9558  Y51.2824 
G01 X9.4076  Y50.7342 
G01 X8.6324  Y50.7342 
G01 X8.0842  Y51.2824 
G00 Z2.5400  
G00 X7.7178  Y53.3787 
G01 Z-0.1778 F254   
G01 X7.5857  Y53.2827 F508   
G01 X7.4402  Y53.2086 
G01 X7.2849  Y53.1581 
G01 X7.1236  Y53.1326 
G01 X5.4364  Y53.1326 
G01 X5.2751  Y53.1581 
G01 X5.1198  Y53.2086 
G01 X4.9743  Y53.2827 
G01 X4.8422  Y53.3787 
G01 X4.7267  Y53.4942 
G01 X4.6307  Y53.6263 
G01 X4.5566  Y53.7718 
G01 X4.5061  Y53.9271 
G01 X4.4806  Y54.0884 
G01 X4.4806  Y54.2516 
G01 X4.5061  Y54.4129 
G01 X4.5566  Y54.5682 
G01 X4.6307  Y54.7137 
G01 X4.7267  Y54.8458 
G01 X4.8422  Y54.9613 
G01 X4.9743  Y55.0573 
G01 X5.1198  Y55.1314 
G01 X5.2751  Y55.1819 
G01 X5.4364  Y55.2074 
G01 X7.1236  Y55.2074 
G01 X7.2849  Y55.1819 
G01 X7.4402  Y55.1314 
G01 X7.5857  Y55.0573 
G01 X7.7178  Y54.9613 
G01 X7.8333  Y54.8458 
G01 X7.9293  Y54.7137 
G01 X8.0034  Y54.5682 
G01 X8.0539  Y54.4129 
G01 X8.0794  Y54.2516 
G01 X8.0794  Y54.0884 
G01 X8.0539  Y53.9271 
G01 X8.0034  Y53.7718 
G01 X7.9293  Y53.6263 
G01 X7.8333  Y53.4942 
G01 X7.7178  Y53.3787 
G00 Z2.5400  
G00 X7.7178  Y55.9187 
G01 Z-0.1778 F254   
G01 X7.5857  Y55.8227 F508   
G01 X7.4402  Y55.7486 
G01 X7.2849  Y55.6981 
G01 X7.1236  Y55.6726 
G01 X5.4364  Y55.6726 
G01 X5.2751  Y55.6981 
G01 X5.1198  Y55.7486 
G01 X4.9743  Y55.8227 
G01 X4.8422  Y55.9187 
G01 X4.7267  Y56.0342 
G01 X4.6307  Y56.1663 
G01 X4.5566  Y56.3118 
G01 X4.5061  Y56.4671 
G01 X4.4806  Y56.6284 
G01 X4.4806  Y56.7916 
G01 X4.5061  Y56.9529 
G01 X4.5566  Y57.1082 
G01 X4.6307  Y57.2537 
G01 X4.7267  Y57.3858 
G01 X4.8422  Y57.5013 
G01 X4.9743  Y57.5973 
G01 X5.1198  Y57.6714 
G01 X5.2751  Y57.7219 
G01 X5.4364  Y57.7474 
G01 X7.1236  Y57.7474 
G01 X7.2849  Y57.7219 
G01 X7.4402  Y57.6714 
G01 X7.5857  Y57.5973 
G01 X7.7178  Y57.5013 
G01 X7.8333  Y57.3858 
G01 X7.9293  Y57.2537 
G01 X8.0034  Y57.1082 
G01 X8.0539  Y56.9529 
G01 X8.0794  Y56.7916 
G01 X8.0794  Y56.6284 
G01 X8.0539  Y56.4671 
G01 X8.0034  Y56.3118 
G01 X7.9293  Y56.1663 
G01 X7.8333  Y56.0342 
G01 X7.7178  Y55.9187 
G00 Z2.5400  
G00 X9.1264  Y56.5777 
G01 Z-0.1778 F254   
G01 X9.0902  Y56.6405 F508   
G01 X9.0714  Y56.7105 
G01 X9.0714  Y57.8895 
G01 X9.0902  Y57.9595 
G01 X9.1264  Y58.0223 
G01 X9.1777  Y58.0736 
G01 X9.2405  Y58.1098 
G01 X9.3105  Y58.1286 
G01 X9.4214  Y58.1286 
G01 X9.4214  Y61.8714 
G01 X9.3105  Y61.8714 
G01 X9.2405  Y61.8902 
G01 X9.1777  Y61.9264 
G01 X9.1264  Y61.9777 
G01 X9.0902  Y62.0405 
G01 X9.0714  Y62.1105 
G01 X9.0714  Y63.2895 
G01 X9.0902  Y63.3595 
G01 X9.1264  Y63.4223 
G01 X9.1777  Y63.4736 
G01 X9.2405  Y63.5098 
G01 X9.3105  Y63.5286 
G01 X10.4895 Y63.5286 
G01 X10.5595 Y63.5098 
G01 X10.6223 Y63.4736 
G01 X10.6736 Y63.4223 
G01 X10.7098 Y63.3595 
G01 X10.7286 Y63.2895 
G01 X10.7286 Y62.1105 
G01 X10.7098 Y62.0405 
G01 X10.6736 Y61.9777 
G01 X10.6223 Y61.9264 
G01 X10.5595 Y61.8902 
G01 X10.4895 Y61.8714 
G01 X10.3786 Y61.8714 
G01 X10.3786 Y58.1286 
G01 X10.4895 Y58.1286 
G01 X10.5595 Y58.1098 
G01 X10.6223 Y58.0736 
G01 X10.6736 Y58.0223 
G01 X10.7098 Y57.9595 
G01 X10.7286 Y57.8895 
G01 X10.7286 Y56.7105 
G01 X10.7098 Y56.6405 
G01 X10.6736 Y56.5777 
G01 X10.6223 Y56.5264 
G01 X10.5595 Y56.4902 
G01 X10.4895 Y56.4714 
G01 X9.3105  Y56.4714 
G01 X9.2405  Y56.4902 
G01 X9.1777  Y56.5264 
G01 X9.1264  Y56.5777 
G00 Z2.5400  
G00 X7.7178  Y58.4587 
G01 Z-0.1778 F254   
G01 X7.5857  Y58.3627 F508   
G01 X7.4402  Y58.2886 
G01 X7.2849  Y58.2381 
G01 X7.1236  Y58.2126 
G01 X5.4364  Y58.2126 
G01 X5.2751  Y58.2381 
G01 X5.1198  Y58.2886 
G01 X4.9743  Y58.3627 
G01 X4.8422  Y58.4587 
G01 X4.7267  Y58.5742 
G01 X4.6307  Y58.7063 
G01 X4.5566  Y58.8518 
G01 X4.5061  Y59.0071 
G01 X4.4806  Y59.1684 
G01 X4.4806  Y59.3316 
G01 X4.5061  Y59.4929 
G01 X4.5566  Y59.6482 
G01 X4.6307  Y59.7937 
G01 X4.7267  Y59.9258 
G01 X4.8422  Y60.0413 
G01 X4.9743  Y60.1373 
G01 X5.1198  Y60.2114 
G01 X5.2751  Y60.2619 
G01 X5.4364  Y60.2874 
G01 X7.1236  Y60.2874 
G01 X7.2849  Y60.2619 
G01 X7.4402  Y60.2114 
G01 X7.5857  Y60.1373 
G01 X7.7178  Y60.0413 
G01 X7.8333  Y59.9258 
G01 X7.9293  Y59.7937 
G01 X8.0034  Y59.6482 
G01 X8.0539  Y59.4929 
G01 X8.0794  Y59.3316 
G01 X8.0794  Y59.1684 
G01 X8.0539  Y59.0071 
G01 X8.0034  Y58.8518 
G01 X7.9293  Y58.7063 
G01 X7.8333  Y58.5742 
G01 X7.7178  Y58.4587 
G00 Z2.5400  
G00 X7.7178  Y60.9987 
G01 Z-0.1778 F254   
G01 X7.5857  Y60.9027 F508   
G01 X7.4402  Y60.8286 
G01 X7.2849  Y60.7781 
G01 X7.1236  Y60.7526 
G01 X5.4364  Y60.7526 
G01 X5.2751  Y60.7781 
G01 X5.1198  Y60.8286 
G01 X4.9743  Y60.9027 
G01 X4.8422  Y60.9987 
G01 X4.7267  Y61.1142 
G01 X4.6307  Y61.2463 
G01 X4.5566  Y61.3918 
G01 X4.5061  Y61.5471 
G01 X4.4806  Y61.7084 
G01 X4.4806  Y61.8716 
G01 X4.5061  Y62.0329 
G01 X4.5566  Y62.1882 
G01 X4.6307  Y62.3337 
G01 X4.7267  Y62.4658 
G01 X4.8422  Y62.5813 
G01 X4.9743  Y62.6773 
G01 X5.1198  Y62.7514 
G01 X5.2751  Y62.8019 
G01 X5.4364  Y62.8274 
G01 X7.1236  Y62.8274 
G01 X7.2849  Y62.8019 
G01 X7.4402  Y62.7514 
G01 X7.5857  Y62.6773 
G01 X7.7178  Y62.5813 
G01 X7.8333  Y62.4658 
G01 X7.9293  Y62.3337 
G01 X8.0034  Y62.1882 
G01 X8.0539  Y62.0329 
G01 X8.0794  Y61.8716 
G01 X8.0794  Y61.7084 
G01 X8.0539  Y61.5471 
G01 X8.0034  Y61.3918 
G01 X7.9293  Y61.2463 
G01 X7.8333  Y61.1142 
G01 X7.7178  Y60.9987 
G00 Z2.5400  
G00 X7.4976  Y65.7642 
G01 Z-0.1778 F254   
G01 X6.7224  Y65.7642 F508   
G01 X6.1742  Y66.3124 
G01 X6.1742  Y67.0876 
G01 X6.7224  Y67.6358 
G01 X7.4976  Y67.6358 
G01 X8.0458  Y67.0876 
G01 X8.0458  Y66.3124 
G01 X7.4976  Y65.7642 
G00 Z2.5400  
G00 X7.4976  Y68.0642 
G01 Z-0.1778 F254   
G01 X6.7224  Y68.0642 F508   
G01 X6.1742  Y68.6124 
G01 X6.1742  Y69.3876 
G01 X6.7224  Y69.9358 
G01 X7.4976  Y69.9358 
G01 X8.0458  Y69.3876 
G01 X8.0458  Y68.6124 
G01 X7.4976  Y68.0642 
G00 Z2.5400  
G00 X7.4976  Y70.3642 
G01 Z-0.1778 F254   
G01 X6.7224  Y70.3642 F508   
G01 X6.1742  Y70.9124 
G01 X6.1742  Y71.6876 
G01 X6.7224  Y72.2358 
G01 X7.4976  Y72.2358 
G01 X8.0458  Y71.6876 
G01 X8.0458  Y70.9124 
G01 X7.4976  Y70.3642 
G00 Z2.5400  
G00 X7.4976  Y72.6642 
G01 Z-0.1778 F254   
G01 X6.7224  Y72.6642 F508   
G01 X6.1742  Y73.2124 
G01 X6.1742  Y73.9876 
G01 X6.7224  Y74.5358 
G01 X7.4976  Y74.5358 
G01 X8.0458  Y73.9876 
G01 X8.0458  Y73.2124 
G01 X7.4976  Y72.6642 
G00 Z2.5400  
G00 X11.2542 Y73.2124 
G01 Z-0.1778 F254   
G01 X11.2542 Y73.9876 F508   
G01 X11.8024 Y74.5358 
G01 X12.5776 Y74.5358 
G01 X13.1258 Y73.9876 
G01 X13.1258 Y73.2124 
G01 X12.5776 Y72.6642 
G01 X11.8024 Y72.6642 
G01 X11.2542 Y73.2124 
G00 Z2.5400  
G00 X11.8024 Y72.2358 
G01 Z-0.1778 F254   
G01 X12.5776 Y72.2358 F508   
G01 X13.1258 Y71.6876 
G01 X13.1258 Y70.9124 
G01 X12.5776 Y70.3642 
G01 X11.8024 Y70.3642 
G01 X11.2542 Y70.9124 
G01 X11.2542 Y71.6876 
G01 X11.8024 Y72.2358 
G00 Z2.5400  
G00 X11.8024 Y69.9358 
G01 Z-0.1778 F254   
G01 X12.5776 Y69.9358 F508   
G01 X13.1258 Y69.3876 
G01 X13.1258 Y68.6124 
G01 X12.5776 Y68.0642 
G01 X11.8024 Y68.0642 
G01 X11.2542 Y68.6124 
G01 X11.2542 Y69.3876 
G01 X11.8024 Y69.9358 
G00 Z2.5400  
G00 X11.8024 Y67.6358 
G01 Z-0.1778 F254   
G01 X12.5776 Y67.6358 F508   
G01 X13.1258 Y67.0876 
G01 X13.1258 Y66.3124 
G01 X12.5776 Y65.7642 
G01 X11.8024 Y65.7642 
G01 X11.2542 Y66.3124 
G01 X11.2542 Y67.0876 
G01 X11.8024 Y67.6358 
G00 Z2.5400  
G00 X14.2902 Y67.6234 
G01 Z-0.1778 F254   
G01 X14.3607 Y67.7937 F508   
G01 X14.4631 Y67.9469 
G01 X14.5935 Y68.0773 
G01 X14.7467 Y68.1797 
G01 X14.9170 Y68.2502 
G01 X15.0978 Y68.2862 
G01 X15.2822 Y68.2862 
G01 X15.4630 Y68.2502 
G01 X15.6333 Y68.1797 
G01 X15.7865 Y68.0773 
G01 X15.9169 Y67.9469 
G01 X16.0193 Y67.7937 
G01 X16.0898 Y67.6234 
G01 X16.1258 Y67.4426 
G01 X16.1258 Y65.9374 
G01 X16.0898 Y65.7566 
G01 X16.0193 Y65.5863 
G01 X15.9169 Y65.4331 
G01 X15.7865 Y65.3027 
G01 X15.6333 Y65.2003 
G01 X15.4630 Y65.1298 
G01 X15.2822 Y65.0938 
G01 X15.0978 Y65.0938 
G01 X14.9170 Y65.1298 
G01 X14.7467 Y65.2003 
G01 X14.5935 Y65.3027 
G01 X14.4631 Y65.4331 
G01 X14.3607 Y65.5863 
G01 X14.2902 Y65.7566 
G01 X14.2542 Y65.9374 
G01 X14.2542 Y67.4426 
G01 X14.2902 Y67.6234 
G00 Z2.5400  
G00 X16.8302 Y67.6234 
G01 Z-0.1778 F254   
G01 X16.9007 Y67.7937 F508   
G01 X17.0031 Y67.9469 
G01 X17.1335 Y68.0773 
G01 X17.2867 Y68.1797 
G01 X17.4570 Y68.2502 
G01 X17.6378 Y68.2862 
G01 X17.8222 Y68.2862 
G01 X18.0030 Y68.2502 
G01 X18.1733 Y68.1797 
G01 X18.3265 Y68.0773 
G01 X18.4569 Y67.9469 
G01 X18.5593 Y67.7937 
G01 X18.6298 Y67.6234 
G01 X18.6658 Y67.4426 
G01 X18.6658 Y65.9374 
G01 X18.6298 Y65.7566 
G01 X18.5593 Y65.5863 
G01 X18.4569 Y65.4331 
G01 X18.3265 Y65.3027 
G01 X18.1733 Y65.2003 
G01 X18.0030 Y65.1298 
G01 X17.8222 Y65.0938 
G01 X17.6378 Y65.0938 
G01 X17.4570 Y65.1298 
G01 X17.2867 Y65.2003 
G01 X17.1335 Y65.3027 
G01 X17.0031 Y65.4331 
G01 X16.9007 Y65.5863 
G01 X16.8302 Y65.7566 
G01 X16.7942 Y65.9374 
G01 X16.7942 Y67.4426 
G01 X16.8302 Y67.6234 
G00 Z2.5400  
G00 X19.3702 Y67.6234 
G01 Z-0.1778 F254   
G01 X19.4407 Y67.7937 F508   
G01 X19.5431 Y67.9469 
G01 X19.6735 Y68.0773 
G01 X19.8267 Y68.1797 
G01 X19.9970 Y68.2502 
G01 X20.1778 Y68.2862 
G01 X20.3622 Y68.2862 
G01 X20.5430 Y68.2502 
G01 X20.7133 Y68.1797 
G01 X20.8665 Y68.0773 
G01 X20.9969 Y67.9469 
G01 X21.0993 Y67.7937 
G01 X21.1698 Y67.6234 
G01 X21.2058 Y67.4426 
G01 X21.2058 Y65.9374 
G01 X21.1698 Y65.7566 
G01 X21.0993 Y65.5863 
G01 X20.9969 Y65.4331 
G01 X20.8665 Y65.3027 
G01 X20.7133 Y65.2003 
G01 X20.5430 Y65.1298 
G01 X20.3622 Y65.0938 
G01 X20.1778 Y65.0938 
G01 X19.9970 Y65.1298 
G01 X19.8267 Y65.2003 
G01 X19.6735 Y65.3027 
G01 X19.5431 Y65.4331 
G01 X19.4407 Y65.5863 
G01 X19.3702 Y65.7566 
G01 X19.3342 Y65.9374 
G01 X19.3342 Y67.4426 
G01 X19.3702 Y67.6234 
G00 Z2.5400  
G00 X21.9102 Y67.6234 
G01 Z-0.1778 F254   
G01 X21.9807 Y67.7937 F508   
G01 X22.0831 Y67.9469 
G01 X22.2135 Y68.0773 
G01 X22.3667 Y68.1797 
G01 X22.5370 Y68.2502 
G01 X22.7178 Y68.2862 
G01 X22.9022 Y68.2862 
G01 X23.0830 Y68.2502 
G01 X23.2533 Y68.1797 
G01 X23.4065 Y68.0773 
G01 X23.5369 Y67.9469 
G01 X23.6393 Y67.7937 
G01 X23.7098 Y67.6234 
G01 X23.7458 Y67.4426 
G01 X23.7458 Y65.9374 
G01 X23.7098 Y65.7566 
G01 X23.6393 Y65.5863 
G01 X23.5369 Y65.4331 
G01 X23.4065 Y65.3027 
G01 X23.2533 Y65.2003 
G01 X23.0830 Y65.1298 
G01 X22.9022 Y65.0938 
G01 X22.7178 Y65.0938 
G01 X22.5370 Y65.1298 
G01 X22.3667 Y65.2003 
G01 X22.2135 Y65.3027 
G01 X22.0831 Y65.4331 
G01 X21.9807 Y65.5863 
G01 X21.9102 Y65.7566 
G01 X21.8742 Y65.9374 
G01 X21.8742 Y67.4426 
G01 X21.9102 Y67.6234 
G00 Z2.5400  
G00 X26.8902 Y67.6234 
G01 Z-0.1778 F254   
G01 X26.9607 Y67.7937 F508   
G01 X27.0631 Y67.9469 
G01 X27.1935 Y68.0773 
G01 X27.3467 Y68.1797 
G01 X27.5170 Y68.2502 
G01 X27.6978 Y68.2862 
G01 X27.8822 Y68.2862 
G01 X28.0630 Y68.2502 
G01 X28.2333 Y68.1797 
G01 X28.3865 Y68.0773 
G01 X28.5169 Y67.9469 
G01 X28.6193 Y67.7937 
G01 X28.6898 Y67.6234 
G01 X28.7258 Y67.4426 
G01 X28.7258 Y65.9374 
G01 X28.6898 Y65.7566 
G01 X28.6193 Y65.5863 
G01 X28.5169 Y65.4331 
G01 X28.3865 Y65.3027 
G01 X28.2333 Y65.2003 
G01 X28.0630 Y65.1298 
G01 X27.8822 Y65.0938 
G01 X27.6978 Y65.0938 
G01 X27.5170 Y65.1298 
G01 X27.3467 Y65.2003 
G01 X27.1935 Y65.3027 
G01 X27.0631 Y65.4331 
G01 X26.9607 Y65.5863 
G01 X26.8902 Y65.7566 
G01 X26.8542 Y65.9374 
G01 X26.8542 Y67.4426 
G01 X26.8902 Y67.6234 
G00 Z2.5400  
G00 X29.4302 Y67.6234 
G01 Z-0.1778 F254   
G01 X29.5007 Y67.7937 F508   
G01 X29.6031 Y67.9469 
G01 X29.7335 Y68.0773 
G01 X29.8867 Y68.1797 
G01 X30.0570 Y68.2502 
G01 X30.2378 Y68.2862 
G01 X30.4222 Y68.2862 
G01 X30.6030 Y68.2502 
G01 X30.7733 Y68.1797 
G01 X30.9265 Y68.0773 
G01 X31.0569 Y67.9469 
G01 X31.1593 Y67.7937 
G01 X31.2298 Y67.6234 
G01 X31.2658 Y67.4426 
G01 X31.2658 Y65.9374 
G01 X31.2298 Y65.7566 
G01 X31.1593 Y65.5863 
G01 X31.0569 Y65.4331 
G01 X30.9265 Y65.3027 
G01 X30.7733 Y65.2003 
G01 X30.6030 Y65.1298 
G01 X30.4222 Y65.0938 
G01 X30.2378 Y65.0938 
G01 X30.0570 Y65.1298 
G01 X29.8867 Y65.2003 
G01 X29.7335 Y65.3027 
G01 X29.6031 Y65.4331 
G01 X29.5007 Y65.5863 
G01 X29.4302 Y65.7566 
G01 X29.3942 Y65.9374 
G01 X29.3942 Y67.4426 
G01 X29.4302 Y67.6234 
G00 Z2.5400  
G00 X31.9702 Y67.6234 
G01 Z-0.1778 F254   
G01 X32.0407 Y67.7937 F508   
G01 X32.1431 Y67.9469 
G01 X32.2735 Y68.0773 
G01 X32.4267 Y68.1797 
G01 X32.5970 Y68.2502 
G01 X32.7778 Y68.2862 
G01 X32.9622 Y68.2862 
G01 X33.1430 Y68.2502 
G01 X33.3133 Y68.1797 
G01 X33.4665 Y68.0773 
G01 X33.5969 Y67.9469 
G01 X33.6993 Y67.7937 
G01 X33.7698 Y67.6234 
G01 X33.8058 Y67.4426 
G01 X33.8058 Y65.9374 
G01 X33.7698 Y65.7566 
G01 X33.6993 Y65.5863 
G01 X33.5969 Y65.4331 
G01 X33.4665 Y65.3027 
G01 X33.3133 Y65.2003 
G01 X33.1430 Y65.1298 
G01 X32.9622 Y65.0938 
G01 X32.7778 Y65.0938 
G01 X32.5970 Y65.1298 
G01 X32.4267 Y65.2003 
G01 X32.2735 Y65.3027 
G01 X32.1431 Y65.4331 
G01 X32.0407 Y65.5863 
G01 X31.9702 Y65.7566 
G01 X31.9342 Y65.9374 
G01 X31.9342 Y67.4426 
G01 X31.9702 Y67.6234 
G00 Z2.5400  
G00 X34.5102 Y67.6234 
G01 Z-0.1778 F254   
G01 X34.5807 Y67.7937 F508   
G01 X34.6831 Y67.9469 
G01 X34.8135 Y68.0773 
G01 X34.9667 Y68.1797 
G01 X35.1370 Y68.2502 
G01 X35.3178 Y68.2862 
G01 X35.5022 Y68.2862 
G01 X35.6830 Y68.2502 
G01 X35.8533 Y68.1797 
G01 X36.0065 Y68.0773 
G01 X36.1369 Y67.9469 
G01 X36.2393 Y67.7937 
G01 X36.3098 Y67.6234 
G01 X36.3458 Y67.4426 
G01 X36.3458 Y65.9374 
G01 X36.3098 Y65.7566 
G01 X36.2393 Y65.5863 
G01 X36.1369 Y65.4331 
G01 X36.0065 Y65.3027 
G01 X35.8533 Y65.2003 
G01 X35.6830 Y65.1298 
G01 X35.5022 Y65.0938 
G01 X35.3178 Y65.0938 
G01 X35.1370 Y65.1298 
G01 X34.9667 Y65.2003 
G01 X34.8135 Y65.3027 
G01 X34.6831 Y65.4331 
G01 X34.5807 Y65.5863 
G01 X34.5102 Y65.7566 
G01 X34.4742 Y65.9374 
G01 X34.4742 Y67.4426 
G01 X34.5102 Y67.6234 
G00 Z2.5400  
G00 X37.4742 Y67.0876 
G01 Z-0.1778 F254   
G01 X38.0224 Y67.6358 F508   
G01 X38.7976 Y67.6358 
G01 X39.3458 Y67.0876 
G01 X39.3458 Y66.3124 
G01 X38.7976 Y65.7642 
G01 X38.0224 Y65.7642 
G01 X37.4742 Y66.3124 
G01 X37.4742 Y67.0876 
G00 Z2.5400  
G00 X37.4742 Y68.6124 
G01 Z-0.1778 F254   
G01 X37.4742 Y69.3876 F508   
G01 X38.0224 Y69.9358 
G01 X38.7976 Y69.9358 
G01 X39.3458 Y69.3876 
G01 X39.3458 Y68.6124 
G01 X38.7976 Y68.0642 
G01 X38.0224 Y68.0642 
G01 X37.4742 Y68.6124 
G00 Z2.5400  
G00 X37.4742 Y70.9124 
G01 Z-0.1778 F254   
G01 X37.4742 Y71.6876 F508   
G01 X38.0224 Y72.2358 
G01 X38.7976 Y72.2358 
G01 X39.3458 Y71.6876 
G01 X39.3458 Y70.9124 
G01 X38.7976 Y70.3642 
G01 X38.0224 Y70.3642 
G01 X37.4742 Y70.9124 
G00 Z2.5400  
G00 X37.4742 Y73.2124 
G01 Z-0.1778 F254   
G01 X37.4742 Y73.9876 F508   
G01 X38.0224 Y74.5358 
G01 X38.7976 Y74.5358 
G01 X39.3458 Y73.9876 
G01 X39.3458 Y73.2124 
G01 X38.7976 Y72.6642 
G01 X38.0224 Y72.6642 
G01 X37.4742 Y73.2124 
G00 Z2.5400  
G00 X36.2393 Y73.2063 
G01 Z-0.1778 F254   
G01 X36.1369 Y73.0531 F508   
G01 X36.0065 Y72.9227 
G01 X35.8533 Y72.8203 
G01 X35.6830 Y72.7498 
G01 X35.5022 Y72.7138 
G01 X35.3178 Y72.7138 
G01 X35.1370 Y72.7498 
G01 X34.9667 Y72.8203 
G01 X34.8135 Y72.9227 
G01 X34.6831 Y73.0531 
G01 X34.5807 Y73.2063 
G01 X34.5102 Y73.3766 
G01 X34.4742 Y73.5574 
G01 X34.4742 Y75.0626 
G01 X34.5102 Y75.2434 
G01 X34.5807 Y75.4137 
G01 X34.6831 Y75.5669 
G01 X34.8135 Y75.6973 
G01 X34.9667 Y75.7997 
G01 X35.1370 Y75.8702 
G01 X35.3178 Y75.9062 
G01 X35.5022 Y75.9062 
G01 X35.6830 Y75.8702 
G01 X35.8533 Y75.7997 
G01 X36.0065 Y75.6973 
G01 X36.1369 Y75.5669 
G01 X36.2393 Y75.4137 
G01 X36.3098 Y75.2434 
G01 X36.3458 Y75.0626 
G01 X36.3458 Y73.5574 
G01 X36.3098 Y73.3766 
G01 X36.2393 Y73.2063 
G00 Z2.5400  
G00 X33.6993 Y73.2063 
G01 Z-0.1778 F254   
G01 X33.5969 Y73.0531 F508   
G01 X33.4665 Y72.9227 
G01 X33.3133 Y72.8203 
G01 X33.1430 Y72.7498 
G01 X32.9622 Y72.7138 
G01 X32.7778 Y72.7138 
G01 X32.5970 Y72.7498 
G01 X32.4267 Y72.8203 
G01 X32.2735 Y72.9227 
G01 X32.1431 Y73.0531 
G01 X32.0407 Y73.2063 
G01 X31.9702 Y73.3766 
G01 X31.9342 Y73.5574 
G01 X31.9342 Y75.0626 
G01 X31.9702 Y75.2434 
G01 X32.0407 Y75.4137 
G01 X32.1431 Y75.5669 
G01 X32.2735 Y75.6973 
G01 X32.4267 Y75.7997 
G01 X32.5970 Y75.8702 
G01 X32.7778 Y75.9062 
G01 X32.9622 Y75.9062 
G01 X33.1430 Y75.8702 
G01 X33.3133 Y75.7997 
G01 X33.4665 Y75.6973 
G01 X33.5969 Y75.5669 
G01 X33.6993 Y75.4137 
G01 X33.7698 Y75.2434 
G01 X33.8058 Y75.0626 
G01 X33.8058 Y73.5574 
G01 X33.7698 Y73.3766 
G01 X33.6993 Y73.2063 
G00 Z2.5400  
G00 X31.1593 Y73.2063 
G01 Z-0.1778 F254   
G01 X31.0569 Y73.0531 F508   
G01 X30.9265 Y72.9227 
G01 X30.7733 Y72.8203 
G01 X30.6030 Y72.7498 
G01 X30.4222 Y72.7138 
G01 X30.2378 Y72.7138 
G01 X30.0570 Y72.7498 
G01 X29.8867 Y72.8203 
G01 X29.7335 Y72.9227 
G01 X29.6031 Y73.0531 
G01 X29.5007 Y73.2063 
G01 X29.4302 Y73.3766 
G01 X29.3942 Y73.5574 
G01 X29.3942 Y75.0626 
G01 X29.4302 Y75.2434 
G01 X29.5007 Y75.4137 
G01 X29.6031 Y75.5669 
G01 X29.7335 Y75.6973 
G01 X29.8867 Y75.7997 
G01 X30.0570 Y75.8702 
G01 X30.2378 Y75.9062 
G01 X30.4222 Y75.9062 
G01 X30.6030 Y75.8702 
G01 X30.7733 Y75.7997 
G01 X30.9265 Y75.6973 
G01 X31.0569 Y75.5669 
G01 X31.1593 Y75.4137 
G01 X31.2298 Y75.2434 
G01 X31.2658 Y75.0626 
G01 X31.2658 Y73.5574 
G01 X31.2298 Y73.3766 
G01 X31.1593 Y73.2063 
G00 Z2.5400  
G00 X28.6193 Y73.2063 
G01 Z-0.1778 F254   
G01 X28.5169 Y73.0531 F508   
G01 X28.3865 Y72.9227 
G01 X28.2333 Y72.8203 
G01 X28.0630 Y72.7498 
G01 X27.8822 Y72.7138 
G01 X27.6978 Y72.7138 
G01 X27.5170 Y72.7498 
G01 X27.3467 Y72.8203 
G01 X27.1935 Y72.9227 
G01 X27.0631 Y73.0531 
G01 X26.9607 Y73.2063 
G01 X26.8902 Y73.3766 
G01 X26.8542 Y73.5574 
G01 X26.8542 Y75.0626 
G01 X26.8902 Y75.2434 
G01 X26.9607 Y75.4137 
G01 X27.0631 Y75.5669 
G01 X27.1935 Y75.6973 
G01 X27.3467 Y75.7997 
G01 X27.5170 Y75.8702 
G01 X27.6978 Y75.9062 
G01 X27.8822 Y75.9062 
G01 X28.0630 Y75.8702 
G01 X28.2333 Y75.7997 
G01 X28.3865 Y75.6973 
G01 X28.5169 Y75.5669 
G01 X28.6193 Y75.4137 
G01 X28.6898 Y75.2434 
G01 X28.7258 Y75.0626 
G01 X28.7258 Y73.5574 
G01 X28.6898 Y73.3766 
G01 X28.6193 Y73.2063 
G00 Z2.5400  
G00 X23.6393 Y73.2063 
G01 Z-0.1778 F254   
G01 X23.5369 Y73.0531 F508   
G01 X23.4065 Y72.9227 
G01 X23.2533 Y72.8203 
G01 X23.0830 Y72.7498 
G01 X22.9022 Y72.7138 
G01 X22.7178 Y72.7138 
G01 X22.5370 Y72.7498 
G01 X22.3667 Y72.8203 
G01 X22.2135 Y72.9227 
G01 X22.0831 Y73.0531 
G01 X21.9807 Y73.2063 
G01 X21.9102 Y73.3766 
G01 X21.8742 Y73.5574 
G01 X21.8742 Y75.0626 
G01 X21.9102 Y75.2434 
G01 X21.9807 Y75.4137 
G01 X22.0831 Y75.5669 
G01 X22.2135 Y75.6973 
G01 X22.3667 Y75.7997 
G01 X22.5370 Y75.8702 
G01 X22.7178 Y75.9062 
G01 X22.9022 Y75.9062 
G01 X23.0830 Y75.8702 
G01 X23.2533 Y75.7997 
G01 X23.4065 Y75.6973 
G01 X23.5369 Y75.5669 
G01 X23.6393 Y75.4137 
G01 X23.7098 Y75.2434 
G01 X23.7458 Y75.0626 
G01 X23.7458 Y73.5574 
G01 X23.7098 Y73.3766 
G01 X23.6393 Y73.2063 
G00 Z2.5400  
G00 X21.0993 Y73.2063 
G01 Z-0.1778 F254   
G01 X20.9969 Y73.0531 F508   
G01 X20.8665 Y72.9227 
G01 X20.7133 Y72.8203 
G01 X20.5430 Y72.7498 
G01 X20.3622 Y72.7138 
G01 X20.1778 Y72.7138 
G01 X19.9970 Y72.7498 
G01 X19.8267 Y72.8203 
G01 X19.6735 Y72.9227 
G01 X19.5431 Y73.0531 
G01 X19.4407 Y73.2063 
G01 X19.3702 Y73.3766 
G01 X19.3342 Y73.5574 
G01 X19.3342 Y75.0626 
G01 X19.3702 Y75.2434 
G01 X19.4407 Y75.4137 
G01 X19.5431 Y75.5669 
G01 X19.6735 Y75.6973 
G01 X19.8267 Y75.7997 
G01 X19.9970 Y75.8702 
G01 X20.1778 Y75.9062 
G01 X20.3622 Y75.9062 
G01 X20.5430 Y75.8702 
G01 X20.7133 Y75.7997 
G01 X20.8665 Y75.6973 
G01 X20.9969 Y75.5669 
G01 X21.0993 Y75.4137 
G01 X21.1698 Y75.2434 
G01 X21.2058 Y75.0626 
G01 X21.2058 Y73.5574 
G01 X21.1698 Y73.3766 
G01 X21.0993 Y73.2063 
G00 Z2.5400  
G00 X18.5593 Y73.2063 
G01 Z-0.1778 F254   
G01 X18.4569 Y73.0531 F508   
G01 X18.3265 Y72.9227 
G01 X18.1733 Y72.8203 
G01 X18.0030 Y72.7498 
G01 X17.8222 Y72.7138 
G01 X17.6378 Y72.7138 
G01 X17.4570 Y72.7498 
G01 X17.2867 Y72.8203 
G01 X17.1335 Y72.9227 
G01 X17.0031 Y73.0531 
G01 X16.9007 Y73.2063 
G01 X16.8302 Y73.3766 
G01 X16.7942 Y73.5574 
G01 X16.7942 Y75.0626 
G01 X16.8302 Y75.2434 
G01 X16.9007 Y75.4137 
G01 X17.0031 Y75.5669 
G01 X17.1335 Y75.6973 
G01 X17.2867 Y75.7997 
G01 X17.4570 Y75.8702 
G01 X17.6378 Y75.9062 
G01 X17.8222 Y75.9062 
G01 X18.0030 Y75.8702 
G01 X18.1733 Y75.7997 
G01 X18.3265 Y75.6973 
G01 X18.4569 Y75.5669 
G01 X18.5593 Y75.4137 
G01 X18.6298 Y75.2434 
G01 X18.6658 Y75.0626 
G01 X18.6658 Y73.5574 
G01 X18.6298 Y73.3766 
G01 X18.5593 Y73.2063 
G00 Z2.5400  
G00 X16.0193 Y73.2063 
G01 Z-0.1778 F254   
G01 X15.9169 Y73.0531 F508   
G01 X15.7865 Y72.9227 
G01 X15.6333 Y72.8203 
G01 X15.4630 Y72.7498 
G01 X15.2822 Y72.7138 
G01 X15.0978 Y72.7138 
G01 X14.9170 Y72.7498 
G01 X14.7467 Y72.8203 
G01 X14.5935 Y72.9227 
G01 X14.4631 Y73.0531 
G01 X14.3607 Y73.2063 
G01 X14.2902 Y73.3766 
G01 X14.2542 Y73.5574 
G01 X14.2542 Y75.0626 
G01 X14.2902 Y75.2434 
G01 X14.3607 Y75.4137 
G01 X14.4631 Y75.5669 
G01 X14.5935 Y75.6973 
G01 X14.7467 Y75.7997 
G01 X14.9170 Y75.8702 
G01 X15.0978 Y75.9062 
G01 X15.2822 Y75.9062 
G01 X15.4630 Y75.8702 
G01 X15.6333 Y75.7997 
G01 X15.7865 Y75.6973 
G01 X15.9169 Y75.5669 
G01 X16.0193 Y75.4137 
G01 X16.0898 Y75.2434 
G01 X16.1258 Y75.0626 
G01 X16.1258 Y73.5574 
G01 X16.0898 Y73.3766 
G01 X16.0193 Y73.2063 
G00 Z2.5400  
G00 X15.5355 Y62.9955 
G01 Z-0.1778 F254   
G01 X16.1655 Y62.3655 F508   
G01 X16.1655 Y61.4745 
G01 X15.5355 Y60.8445 
G01 X14.6445 Y60.8445 
G01 X14.0145 Y61.4745 
G01 X14.0145 Y62.3655 
G01 X14.6445 Y62.9955 
G01 X15.5355 Y62.9955 
G00 Z2.5400  
G00 X17.1845 Y62.9955 
G01 Z-0.1778 F254   
G01 X18.0755 Y62.9955 F508   
G01 X18.7055 Y62.3655 
G01 X18.7055 Y61.4745 
G01 X18.0755 Y60.8445 
G01 X17.1845 Y60.8445 
G01 X16.5545 Y61.4745 
G01 X16.5545 Y62.3655 
G01 X17.1845 Y62.9955 
G00 Z2.5400  
G00 X17.1367 Y58.3797 
G01 Z-0.1778 F254   
G01 X17.3070 Y58.4502 F508   
G01 X17.4878 Y58.4862 
G01 X17.6722 Y58.4862 
G01 X17.8530 Y58.4502 
G01 X18.0233 Y58.3797 
G01 X18.1765 Y58.2773 
G01 X18.3069 Y58.1469 
G01 X18.4093 Y57.9937 
G01 X18.4798 Y57.8234 
G01 X18.5158 Y57.6426 
G01 X18.5158 Y56.1374 
G01 X18.4798 Y55.9566 
G01 X18.4093 Y55.7863 
G01 X18.3069 Y55.6331 
G01 X18.1765 Y55.5027 
G01 X18.0233 Y55.4003 
G01 X17.8530 Y55.3298 
G01 X17.6722 Y55.2938 
G01 X17.4878 Y55.2938 
G01 X17.3070 Y55.3298 
G01 X17.1367 Y55.4003 
G01 X16.9835 Y55.5027 
G01 X16.8531 Y55.6331 
G01 X16.7507 Y55.7863 
G01 X16.6802 Y55.9566 
G01 X16.6442 Y56.1374 
G01 X16.6442 Y57.6426 
G01 X16.6802 Y57.8234 
G01 X16.7507 Y57.9937 
G01 X16.8531 Y58.1469 
G01 X16.9835 Y58.2773 
G01 X17.1367 Y58.3797 
G00 Z2.5400  
G00 X15.7669 Y58.1469 
G01 Z-0.1778 F254   
G01 X15.8693 Y57.9937 F508   
G01 X15.9398 Y57.8234 
G01 X15.9758 Y57.6426 
G01 X15.9758 Y56.1374 
G01 X15.9398 Y55.9566 
G01 X15.8693 Y55.7863 
G01 X15.7669 Y55.6331 
G01 X15.6365 Y55.5027 
G01 X15.4833 Y55.4003 
G01 X15.3130 Y55.3298 
G01 X15.1322 Y55.2938 
G01 X14.9478 Y55.2938 
G01 X14.7670 Y55.3298 
G01 X14.5967 Y55.4003 
G01 X14.4435 Y55.5027 
G01 X14.3131 Y55.6331 
G01 X14.2107 Y55.7863 
G01 X14.1402 Y55.9566 
G01 X14.1042 Y56.1374 
G01 X14.1042 Y57.6426 
G01 X14.1402 Y57.8234 
G01 X14.2107 Y57.9937 
G01 X14.3131 Y58.1469 
G01 X14.4435 Y58.2773 
G01 X14.5967 Y58.3797 
G01 X14.7670 Y58.4502 
G01 X14.9478 Y58.4862 
G01 X15.1322 Y58.4862 
G01 X15.3130 Y58.4502 
G01 X15.4833 Y58.3797 
G01 X15.6365 Y58.2773 
G01 X15.7669 Y58.1469 
G00 Z2.5400  
G00 X19.3931 Y58.1469 
G01 Z-0.1778 F254   
G01 X19.5235 Y58.2773 F508   
G01 X19.6767 Y58.3797 
G01 X19.8470 Y58.4502 
G01 X20.0278 Y58.4862 
G01 X20.2122 Y58.4862 
G01 X20.3930 Y58.4502 
G01 X20.5633 Y58.3797 
G01 X20.7165 Y58.2773 
G01 X20.8469 Y58.1469 
G01 X20.9493 Y57.9937 
G01 X21.0198 Y57.8234 
G01 X21.0558 Y57.6426 
G01 X21.0558 Y56.1374 
G01 X21.0198 Y55.9566 
G01 X20.9493 Y55.7863 
G01 X20.8469 Y55.6331 
G01 X20.7165 Y55.5027 
G01 X20.5633 Y55.4003 
G01 X20.3930 Y55.3298 
G01 X20.2122 Y55.2938 
G01 X20.0278 Y55.2938 
G01 X19.8470 Y55.3298 
G01 X19.6767 Y55.4003 
G01 X19.5235 Y55.5027 
G01 X19.3931 Y55.6331 
G01 X19.2907 Y55.7863 
G01 X19.2202 Y55.9566 
G01 X19.1842 Y56.1374 
G01 X19.1842 Y57.6426 
G01 X19.2202 Y57.8234 
G01 X19.2907 Y57.9937 
G01 X19.3931 Y58.1469 
G00 Z2.5400  
G00 X21.9331 Y58.1469 
G01 Z-0.1778 F254   
G01 X22.0635 Y58.2773 F508   
G01 X22.2167 Y58.3797 
G01 X22.3870 Y58.4502 
G01 X22.5678 Y58.4862 
G01 X22.7522 Y58.4862 
G01 X22.9330 Y58.4502 
G01 X23.1033 Y58.3797 
G01 X23.2565 Y58.2773 
G01 X23.3869 Y58.1469 
G01 X23.4893 Y57.9937 
G01 X23.5598 Y57.8234 
G01 X23.5958 Y57.6426 
G01 X23.5958 Y56.1374 
G01 X23.5598 Y55.9566 
G01 X23.4893 Y55.7863 
G01 X23.3869 Y55.6331 
G01 X23.2565 Y55.5027 
G01 X23.1033 Y55.4003 
G01 X22.9330 Y55.3298 
G01 X22.7522 Y55.2938 
G01 X22.5678 Y55.2938 
G01 X22.3870 Y55.3298 
G01 X22.2167 Y55.4003 
G01 X22.0635 Y55.5027 
G01 X21.9331 Y55.6331 
G01 X21.8307 Y55.7863 
G01 X21.7602 Y55.9566 
G01 X21.7242 Y56.1374 
G01 X21.7242 Y57.6426 
G01 X21.7602 Y57.8234 
G01 X21.8307 Y57.9937 
G01 X21.9331 Y58.1469 
G00 Z2.5400  
G00 X24.4731 Y58.1469 
G01 Z-0.1778 F254   
G01 X24.6035 Y58.2773 F508   
G01 X24.7567 Y58.3797 
G01 X24.9270 Y58.4502 
G01 X25.1078 Y58.4862 
G01 X25.2922 Y58.4862 
G01 X25.4730 Y58.4502 
G01 X25.6433 Y58.3797 
G01 X25.7965 Y58.2773 
G01 X25.9269 Y58.1469 
G01 X26.0293 Y57.9937 
G01 X26.0998 Y57.8234 
G01 X26.1358 Y57.6426 
G01 X26.1358 Y56.1374 
G01 X26.0998 Y55.9566 
G01 X26.0293 Y55.7863 
G01 X25.9269 Y55.6331 
G01 X25.7965 Y55.5027 
G01 X25.6433 Y55.4003 
G01 X25.4730 Y55.3298 
G01 X25.2922 Y55.2938 
G01 X25.1078 Y55.2938 
G01 X24.9270 Y55.3298 
G01 X24.7567 Y55.4003 
G01 X24.6035 Y55.5027 
G01 X24.4731 Y55.6331 
G01 X24.3707 Y55.7863 
G01 X24.3002 Y55.9566 
G01 X24.2642 Y56.1374 
G01 X24.2642 Y57.6426 
G01 X24.3002 Y57.8234 
G01 X24.3707 Y57.9937 
G01 X24.4731 Y58.1469 
G00 Z2.5400  
G00 X27.0131 Y58.1469 
G01 Z-0.1778 F254   
G01 X27.1435 Y58.2773 F508   
G01 X27.2967 Y58.3797 
G01 X27.4670 Y58.4502 
G01 X27.6478 Y58.4862 
G01 X27.8322 Y58.4862 
G01 X28.0130 Y58.4502 
G01 X28.1833 Y58.3797 
G01 X28.3365 Y58.2773 
G01 X28.4669 Y58.1469 
G01 X28.5693 Y57.9937 
G01 X28.6398 Y57.8234 
G01 X28.6758 Y57.6426 
G01 X28.6758 Y56.1374 
G01 X28.6398 Y55.9566 
G01 X28.5693 Y55.7863 
G01 X28.4669 Y55.6331 
G01 X28.3365 Y55.5027 
G01 X28.1833 Y55.4003 
G01 X28.0130 Y55.3298 
G01 X27.8322 Y55.2938 
G01 X27.6478 Y55.2938 
G01 X27.4670 Y55.3298 
G01 X27.2967 Y55.4003 
G01 X27.1435 Y55.5027 
G01 X27.0131 Y55.6331 
G01 X26.9107 Y55.7863 
G01 X26.8402 Y55.9566 
G01 X26.8042 Y56.1374 
G01 X26.8042 Y57.6426 
G01 X26.8402 Y57.8234 
G01 X26.9107 Y57.9937 
G01 X27.0131 Y58.1469 
G00 Z2.5400  
G00 X29.5531 Y58.1469 
G01 Z-0.1778 F254   
G01 X29.6835 Y58.2773 F508   
G01 X29.8367 Y58.3797 
G01 X30.0070 Y58.4502 
G01 X30.1878 Y58.4862 
G01 X30.3722 Y58.4862 
G01 X30.5530 Y58.4502 
G01 X30.7233 Y58.3797 
G01 X30.8765 Y58.2773 
G01 X31.0069 Y58.1469 
G01 X31.1093 Y57.9937 
G01 X31.1798 Y57.8234 
G01 X31.2158 Y57.6426 
G01 X31.2158 Y56.1374 
G01 X31.1798 Y55.9566 
G01 X31.1093 Y55.7863 
G01 X31.0069 Y55.6331 
G01 X30.8765 Y55.5027 
G01 X30.7233 Y55.4003 
G01 X30.5530 Y55.3298 
G01 X30.3722 Y55.2938 
G01 X30.1878 Y55.2938 
G01 X30.0070 Y55.3298 
G01 X29.8367 Y55.4003 
G01 X29.6835 Y55.5027 
G01 X29.5531 Y55.6331 
G01 X29.4507 Y55.7863 
G01 X29.3802 Y55.9566 
G01 X29.3442 Y56.1374 
G01 X29.3442 Y57.6426 
G01 X29.3802 Y57.8234 
G01 X29.4507 Y57.9937 
G01 X29.5531 Y58.1469 
G00 Z2.5400  
G00 X32.0931 Y58.1469 
G01 Z-0.1778 F254   
G01 X32.2235 Y58.2773 F508   
G01 X32.3767 Y58.3797 
G01 X32.5470 Y58.4502 
G01 X32.7278 Y58.4862 
G01 X32.9122 Y58.4862 
G01 X33.0930 Y58.4502 
G01 X33.2633 Y58.3797 
G01 X33.4165 Y58.2773 
G01 X33.5469 Y58.1469 
G01 X33.6493 Y57.9937 
G01 X33.7198 Y57.8234 
G01 X33.7558 Y57.6426 
G01 X33.7558 Y56.1374 
G01 X33.7198 Y55.9566 
G01 X33.6493 Y55.7863 
G01 X33.5469 Y55.6331 
G01 X33.4165 Y55.5027 
G01 X33.2633 Y55.4003 
G01 X33.0930 Y55.3298 
G01 X32.9122 Y55.2938 
G01 X32.7278 Y55.2938 
G01 X32.5470 Y55.3298 
G01 X32.3767 Y55.4003 
G01 X32.2235 Y55.5027 
G01 X32.0931 Y55.6331 
G01 X31.9907 Y55.7863 
G01 X31.9202 Y55.9566 
G01 X31.8842 Y56.1374 
G01 X31.8842 Y57.6426 
G01 X31.9202 Y57.8234 
G01 X31.9907 Y57.9937 
G01 X32.0931 Y58.1469 
G00 Z2.5400  
G00 X34.6331 Y58.1469 
G01 Z-0.1778 F254   
G01 X34.7635 Y58.2773 F508   
G01 X34.9167 Y58.3797 
G01 X35.0870 Y58.4502 
G01 X35.2678 Y58.4862 
G01 X35.4522 Y58.4862 
G01 X35.6330 Y58.4502 
G01 X35.8033 Y58.3797 
G01 X35.9565 Y58.2773 
G01 X36.0869 Y58.1469 
G01 X36.1893 Y57.9937 
G01 X36.2598 Y57.8234 
G01 X36.2958 Y57.6426 
G01 X36.2958 Y56.1374 
G01 X36.2598 Y55.9566 
G01 X36.1893 Y55.7863 
G01 X36.0869 Y55.6331 
G01 X35.9565 Y55.5027 
G01 X35.8033 Y55.4003 
G01 X35.6330 Y55.3298 
G01 X35.4522 Y55.2938 
G01 X35.2678 Y55.2938 
G01 X35.0870 Y55.3298 
G01 X34.9167 Y55.4003 
G01 X34.7635 Y55.5027 
G01 X34.6331 Y55.6331 
G01 X34.5307 Y55.7863 
G01 X34.4602 Y55.9566 
G01 X34.4242 Y56.1374 
G01 X34.4242 Y57.6426 
G01 X34.4602 Y57.8234 
G01 X34.5307 Y57.9937 
G01 X34.6331 Y58.1469 
G00 Z2.5400  
G00 X37.1731 Y58.1469 
G01 Z-0.1778 F254   
G01 X37.3035 Y58.2773 F508   
G01 X37.4567 Y58.3797 
G01 X37.6270 Y58.4502 
G01 X37.8078 Y58.4862 
G01 X37.9922 Y58.4862 
G01 X38.1730 Y58.4502 
G01 X38.3433 Y58.3797 
G01 X38.4965 Y58.2773 
G01 X38.6269 Y58.1469 
G01 X38.7293 Y57.9937 
G01 X38.7998 Y57.8234 
G01 X38.8358 Y57.6426 
G01 X38.8358 Y56.1374 
G01 X38.7998 Y55.9566 
G01 X38.7293 Y55.7863 
G01 X38.6269 Y55.6331 
G01 X38.4965 Y55.5027 
G01 X38.3433 Y55.4003 
G01 X38.1730 Y55.3298 
G01 X37.9922 Y55.2938 
G01 X37.8078 Y55.2938 
G01 X37.6270 Y55.3298 
G01 X37.4567 Y55.4003 
G01 X37.3035 Y55.5027 
G01 X37.1731 Y55.6331 
G01 X37.0707 Y55.7863 
G01 X37.0002 Y55.9566 
G01 X36.9642 Y56.1374 
G01 X36.9642 Y57.6426 
G01 X37.0002 Y57.8234 
G01 X37.0707 Y57.9937 
G01 X37.1731 Y58.1469 
G00 Z2.5400  
G00 X39.7131 Y58.1469 
G01 Z-0.1778 F254   
G01 X39.8435 Y58.2773 F508   
G01 X39.9967 Y58.3797 
G01 X40.1670 Y58.4502 
G01 X40.3478 Y58.4862 
G01 X40.5322 Y58.4862 
G01 X40.7130 Y58.4502 
G01 X40.8833 Y58.3797 
G01 X41.0365 Y58.2773 
G01 X41.1669 Y58.1469 
G01 X41.2693 Y57.9937 
G01 X41.3398 Y57.8234 
G01 X41.3758 Y57.6426 
G01 X41.3758 Y56.1374 
G01 X41.3398 Y55.9566 
G01 X41.2693 Y55.7863 
G01 X41.1669 Y55.6331 
G01 X41.0365 Y55.5027 
G01 X40.8833 Y55.4003 
G01 X40.7130 Y55.3298 
G01 X40.5322 Y55.2938 
G01 X40.3478 Y55.2938 
G01 X40.1670 Y55.3298 
G01 X39.9967 Y55.4003 
G01 X39.8435 Y55.5027 
G01 X39.7131 Y55.6331 
G01 X39.6107 Y55.7863 
G01 X39.5402 Y55.9566 
G01 X39.5042 Y56.1374 
G01 X39.5042 Y57.6426 
G01 X39.5402 Y57.8234 
G01 X39.6107 Y57.9937 
G01 X39.7131 Y58.1469 
G00 Z2.5400  
G00 X42.2531 Y58.1469 
G01 Z-0.1778 F254   
G01 X42.3835 Y58.2773 F508   
G01 X42.5367 Y58.3797 
G01 X42.7070 Y58.4502 
G01 X42.8878 Y58.4862 
G01 X43.0722 Y58.4862 
G01 X43.2530 Y58.4502 
G01 X43.4233 Y58.3797 
G01 X43.5765 Y58.2773 
G01 X43.7069 Y58.1469 
G01 X43.8093 Y57.9937 
G01 X43.8798 Y57.8234 
G01 X43.9158 Y57.6426 
G01 X43.9158 Y56.1374 
G01 X43.8798 Y55.9566 
G01 X43.8093 Y55.7863 
G01 X43.7069 Y55.6331 
G01 X43.5765 Y55.5027 
G01 X43.4233 Y55.4003 
G01 X43.2530 Y55.3298 
G01 X43.0722 Y55.2938 
G01 X42.8878 Y55.2938 
G01 X42.7070 Y55.3298 
G01 X42.5367 Y55.4003 
G01 X42.3835 Y55.5027 
G01 X42.2531 Y55.6331 
G01 X42.1507 Y55.7863 
G01 X42.0802 Y55.9566 
G01 X42.0442 Y56.1374 
G01 X42.0442 Y57.6426 
G01 X42.0802 Y57.8234 
G01 X42.1507 Y57.9937 
G01 X42.2531 Y58.1469 
G00 Z2.5400  
G00 X44.7931 Y58.1469 
G01 Z-0.1778 F254   
G01 X44.9235 Y58.2773 F508   
G01 X45.0767 Y58.3797 
G01 X45.2470 Y58.4502 
G01 X45.4278 Y58.4862 
G01 X45.6122 Y58.4862 
G01 X45.7930 Y58.4502 
G01 X45.9633 Y58.3797 
G01 X46.1165 Y58.2773 
G01 X46.2469 Y58.1469 
G01 X46.3493 Y57.9937 
G01 X46.4198 Y57.8234 
G01 X46.4558 Y57.6426 
G01 X46.4558 Y56.1374 
G01 X46.4198 Y55.9566 
G01 X46.3493 Y55.7863 
G01 X46.2469 Y55.6331 
G01 X46.1165 Y55.5027 
G01 X45.9633 Y55.4003 
G01 X45.7930 Y55.3298 
G01 X45.6122 Y55.2938 
G01 X45.4278 Y55.2938 
G01 X45.2470 Y55.3298 
G01 X45.0767 Y55.4003 
G01 X44.9235 Y55.5027 
G01 X44.7931 Y55.6331 
G01 X44.6907 Y55.7863 
G01 X44.6202 Y55.9566 
G01 X44.5842 Y56.1374 
G01 X44.5842 Y57.6426 
G01 X44.6202 Y57.8234 
G01 X44.6907 Y57.9937 
G01 X44.7931 Y58.1469 
G00 Z2.5400  
G00 X47.3331 Y58.1469 
G01 Z-0.1778 F254   
G01 X47.4635 Y58.2773 F508   
G01 X47.6167 Y58.3797 
G01 X47.7870 Y58.4502 
G01 X47.9678 Y58.4862 
G01 X48.1522 Y58.4862 
G01 X48.3330 Y58.4502 
G01 X48.5033 Y58.3797 
G01 X48.6565 Y58.2773 
G01 X48.7869 Y58.1469 
G01 X48.8893 Y57.9937 
G01 X48.9598 Y57.8234 
G01 X48.9958 Y57.6426 
G01 X48.9958 Y56.1374 
G01 X48.9598 Y55.9566 
G01 X48.8893 Y55.7863 
G01 X48.7869 Y55.6331 
G01 X48.6565 Y55.5027 
G01 X48.5033 Y55.4003 
G01 X48.3330 Y55.3298 
G01 X48.1522 Y55.2938 
G01 X47.9678 Y55.2938 
G01 X47.7870 Y55.3298 
G01 X47.6167 Y55.4003 
G01 X47.4635 Y55.5027 
G01 X47.3331 Y55.6331 
G01 X47.2307 Y55.7863 
G01 X47.1602 Y55.9566 
G01 X47.1242 Y56.1374 
G01 X47.1242 Y57.6426 
G01 X47.1602 Y57.8234 
G01 X47.2307 Y57.9937 
G01 X47.3331 Y58.1469 
G00 Z2.5400  
G00 X50.6131 Y57.8669 
G01 Z-0.1778 F254   
G01 X50.7663 Y57.9693 F508   
G01 X50.9366 Y58.0398 
G01 X51.1174 Y58.0758 
G01 X52.6226 Y58.0758 
G01 X52.8034 Y58.0398 
G01 X52.9737 Y57.9693 
G01 X53.1269 Y57.8669 
G01 X53.2573 Y57.7365 
G01 X53.3597 Y57.5833 
G01 X53.4302 Y57.4130 
G01 X53.4662 Y57.2322 
G01 X53.4662 Y57.0478 
G01 X53.4302 Y56.8670 
G01 X53.3597 Y56.6967 
G01 X53.2573 Y56.5435 
G01 X53.1269 Y56.4131 
G01 X52.9737 Y56.3107 
G01 X52.8034 Y56.2402 
G01 X52.6226 Y56.2042 
G01 X51.1174 Y56.2042 
G01 X50.9366 Y56.2402 
G01 X50.7663 Y56.3107 
G01 X50.6131 Y56.4131 
G01 X50.4827 Y56.5435 
G01 X50.3803 Y56.6967 
G01 X50.3098 Y56.8670 
G01 X50.2738 Y57.0478 
G01 X50.2738 Y57.2322 
G01 X50.3098 Y57.4130 
G01 X50.3803 Y57.5833 
G01 X50.4827 Y57.7365 
G01 X50.6131 Y57.8669 
G00 Z2.5400  
G00 X50.6131 Y55.3269 
G01 Z-0.1778 F254   
G01 X50.7663 Y55.4293 F508   
G01 X50.9366 Y55.4998 
G01 X51.1174 Y55.5358 
G01 X52.6226 Y55.5358 
G01 X52.8034 Y55.4998 
G01 X52.9737 Y55.4293 
G01 X53.1269 Y55.3269 
G01 X53.2573 Y55.1965 
G01 X53.3597 Y55.0433 
G01 X53.4302 Y54.8730 
G01 X53.4662 Y54.6922 
G01 X53.4662 Y54.5078 
G01 X53.4302 Y54.3270 
G01 X53.3597 Y54.1567 
G01 X53.2573 Y54.0035 
G01 X53.1269 Y53.8731 
G01 X52.9737 Y53.7707 
G01 X52.8034 Y53.7002 
G01 X52.6226 Y53.6642 
G01 X51.1174 Y53.6642 
G01 X50.9366 Y53.7002 
G01 X50.7663 Y53.7707 
G01 X50.6131 Y53.8731 
G01 X50.4827 Y54.0035 
G01 X50.3803 Y54.1567 
G01 X50.3098 Y54.3270 
G01 X50.2738 Y54.5078 
G01 X50.2738 Y54.6922 
G01 X50.3098 Y54.8730 
G01 X50.3803 Y55.0433 
G01 X50.4827 Y55.1965 
G01 X50.6131 Y55.3269 
G00 Z2.5400  
G00 X50.6131 Y52.7869 
G01 Z-0.1778 F254   
G01 X50.7663 Y52.8893 F508   
G01 X50.9366 Y52.9598 
G01 X51.1174 Y52.9958 
G01 X52.6226 Y52.9958 
G01 X52.8034 Y52.9598 
G01 X52.9737 Y52.8893 
G01 X53.1269 Y52.7869 
G01 X53.2573 Y52.6565 
G01 X53.3597 Y52.5033 
G01 X53.4302 Y52.3330 
G01 X53.4662 Y52.1522 
G01 X53.4662 Y51.9678 
G01 X53.4302 Y51.7870 
G01 X53.3597 Y51.6167 
G01 X53.2573 Y51.4635 
G01 X53.1269 Y51.3331 
G01 X52.9737 Y51.2307 
G01 X52.8034 Y51.1602 
G01 X52.6226 Y51.1242 
G01 X51.1174 Y51.1242 
G01 X50.9366 Y51.1602 
G01 X50.7663 Y51.2307 
G01 X50.6131 Y51.3331 
G01 X50.4827 Y51.4635 
G01 X50.3803 Y51.6167 
G01 X50.3098 Y51.7870 
G01 X50.2738 Y51.9678 
G01 X50.2738 Y52.1522 
G01 X50.3098 Y52.3330 
G01 X50.3803 Y52.5033 
G01 X50.4827 Y52.6565 
G01 X50.6131 Y52.7869 
G00 Z2.5400  
G00 X50.6131 Y50.2469 
G01 Z-0.1778 F254   
G01 X50.7663 Y50.3493 F508   
G01 X50.9366 Y50.4198 
G01 X51.1174 Y50.4558 
G01 X52.6226 Y50.4558 
G01 X52.8034 Y50.4198 
G01 X52.9737 Y50.3493 
G01 X53.1269 Y50.2469 
G01 X53.2573 Y50.1165 
G01 X53.3597 Y49.9633 
G01 X53.4302 Y49.7930 
G01 X53.4662 Y49.6122 
G01 X53.4662 Y49.4278 
G01 X53.4302 Y49.2470 
G01 X53.3597 Y49.0767 
G01 X53.2573 Y48.9235 
G01 X53.1269 Y48.7931 
G01 X52.9737 Y48.6907 
G01 X52.8034 Y48.6202 
G01 X52.6226 Y48.5842 
G01 X51.1174 Y48.5842 
G01 X50.9366 Y48.6202 
G01 X50.7663 Y48.6907 
G01 X50.6131 Y48.7931 
G01 X50.4827 Y48.9235 
G01 X50.3803 Y49.0767 
G01 X50.3098 Y49.2470 
G01 X50.2738 Y49.4278 
G01 X50.2738 Y49.6122 
G01 X50.3098 Y49.7930 
G01 X50.3803 Y49.9633 
G01 X50.4827 Y50.1165 
G01 X50.6131 Y50.2469 
G00 Z2.5400  
G00 X48.9598 Y50.2034 
G01 Z-0.1778 F254   
G01 X48.9958 Y50.0226 F508   
G01 X48.9958 Y48.5174 
G01 X48.9598 Y48.3366 
G01 X48.8893 Y48.1663 
G01 X48.7869 Y48.0131 
G01 X48.6565 Y47.8827 
G01 X48.5033 Y47.7803 
G01 X48.3330 Y47.7098 
G01 X48.1522 Y47.6738 
G01 X47.9678 Y47.6738 
G01 X47.7870 Y47.7098 
G01 X47.6167 Y47.7803 
G01 X47.4635 Y47.8827 
G01 X47.3331 Y48.0131 
G01 X47.2307 Y48.1663 
G01 X47.1602 Y48.3366 
G01 X47.1242 Y48.5174 
G01 X47.1242 Y50.0226 
G01 X47.1602 Y50.2034 
G01 X47.2307 Y50.3737 
G01 X47.3331 Y50.5269 
G01 X47.4635 Y50.6573 
G01 X47.6167 Y50.7597 
G01 X47.7870 Y50.8302 
G01 X47.9678 Y50.8662 
G01 X48.1522 Y50.8662 
G01 X48.3330 Y50.8302 
G01 X48.5033 Y50.7597 
G01 X48.6565 Y50.6573 
G01 X48.7869 Y50.5269 
G01 X48.8893 Y50.3737 
G01 X48.9598 Y50.2034 
G00 Z2.5400  
G00 X46.4198 Y50.2034 
G01 Z-0.1778 F254   
G01 X46.4558 Y50.0226 F508   
G01 X46.4558 Y48.5174 
G01 X46.4198 Y48.3366 
G01 X46.3493 Y48.1663 
G01 X46.2469 Y48.0131 
G01 X46.1165 Y47.8827 
G01 X45.9633 Y47.7803 
G01 X45.7930 Y47.7098 
G01 X45.6122 Y47.6738 
G01 X45.4278 Y47.6738 
G01 X45.2470 Y47.7098 
G01 X45.0767 Y47.7803 
G01 X44.9235 Y47.8827 
G01 X44.7931 Y48.0131 
G01 X44.6907 Y48.1663 
G01 X44.6202 Y48.3366 
G01 X44.5842 Y48.5174 
G01 X44.5842 Y50.0226 
G01 X44.6202 Y50.2034 
G01 X44.6907 Y50.3737 
G01 X44.7931 Y50.5269 
G01 X44.9235 Y50.6573 
G01 X45.0767 Y50.7597 
G01 X45.2470 Y50.8302 
G01 X45.4278 Y50.8662 
G01 X45.6122 Y50.8662 
G01 X45.7930 Y50.8302 
G01 X45.9633 Y50.7597 
G01 X46.1165 Y50.6573 
G01 X46.2469 Y50.5269 
G01 X46.3493 Y50.3737 
G01 X46.4198 Y50.2034 
G00 Z2.5400  
G00 X43.8798 Y50.2034 
G01 Z-0.1778 F254   
G01 X43.9158 Y50.0226 F508   
G01 X43.9158 Y48.5174 
G01 X43.8798 Y48.3366 
G01 X43.8093 Y48.1663 
G01 X43.7069 Y48.0131 
G01 X43.5765 Y47.8827 
G01 X43.4233 Y47.7803 
G01 X43.2530 Y47.7098 
G01 X43.0722 Y47.6738 
G01 X42.8878 Y47.6738 
G01 X42.7070 Y47.7098 
G01 X42.5367 Y47.7803 
G01 X42.3835 Y47.8827 
G01 X42.2531 Y48.0131 
G01 X42.1507 Y48.1663 
G01 X42.0802 Y48.3366 
G01 X42.0442 Y48.5174 
G01 X42.0442 Y50.0226 
G01 X42.0802 Y50.2034 
G01 X42.1507 Y50.3737 
G01 X42.2531 Y50.5269 
G01 X42.3835 Y50.6573 
G01 X42.5367 Y50.7597 
G01 X42.7070 Y50.8302 
G01 X42.8878 Y50.8662 
G01 X43.0722 Y50.8662 
G01 X43.2530 Y50.8302 
G01 X43.4233 Y50.7597 
G01 X43.5765 Y50.6573 
G01 X43.7069 Y50.5269 
G01 X43.8093 Y50.3737 
G01 X43.8798 Y50.2034 
G00 Z2.5400  
G00 X41.3398 Y50.2034 
G01 Z-0.1778 F254   
G01 X41.3758 Y50.0226 F508   
G01 X41.3758 Y48.5174 
G01 X41.3398 Y48.3366 
G01 X41.2693 Y48.1663 
G01 X41.1669 Y48.0131 
G01 X41.0365 Y47.8827 
G01 X40.8833 Y47.7803 
G01 X40.7130 Y47.7098 
G01 X40.5322 Y47.6738 
G01 X40.3478 Y47.6738 
G01 X40.1670 Y47.7098 
G01 X39.9967 Y47.7803 
G01 X39.8435 Y47.8827 
G01 X39.7131 Y48.0131 
G01 X39.6107 Y48.1663 
G01 X39.5402 Y48.3366 
G01 X39.5042 Y48.5174 
G01 X39.5042 Y50.0226 
G01 X39.5402 Y50.2034 
G01 X39.6107 Y50.3737 
G01 X39.7131 Y50.5269 
G01 X39.8435 Y50.6573 
G01 X39.9967 Y50.7597 
G01 X40.1670 Y50.8302 
G01 X40.3478 Y50.8662 
G01 X40.5322 Y50.8662 
G01 X40.7130 Y50.8302 
G01 X40.8833 Y50.7597 
G01 X41.0365 Y50.6573 
G01 X41.1669 Y50.5269 
G01 X41.2693 Y50.3737 
G01 X41.3398 Y50.2034 
G00 Z2.5400  
G00 X38.7998 Y50.2034 
G01 Z-0.1778 F254   
G01 X38.8358 Y50.0226 F508   
G01 X38.8358 Y48.5174 
G01 X38.7998 Y48.3366 
G01 X38.7293 Y48.1663 
G01 X38.6269 Y48.0131 
G01 X38.4965 Y47.8827 
G01 X38.3433 Y47.7803 
G01 X38.1730 Y47.7098 
G01 X37.9922 Y47.6738 
G01 X37.8078 Y47.6738 
G01 X37.6270 Y47.7098 
G01 X37.4567 Y47.7803 
G01 X37.3035 Y47.8827 
G01 X37.1731 Y48.0131 
G01 X37.0707 Y48.1663 
G01 X37.0002 Y48.3366 
G01 X36.9642 Y48.5174 
G01 X36.9642 Y50.0226 
G01 X37.0002 Y50.2034 
G01 X37.0707 Y50.3737 
G01 X37.1731 Y50.5269 
G01 X37.3035 Y50.6573 
G01 X37.4567 Y50.7597 
G01 X37.6270 Y50.8302 
G01 X37.8078 Y50.8662 
G01 X37.9922 Y50.8662 
G01 X38.1730 Y50.8302 
G01 X38.3433 Y50.7597 
G01 X38.4965 Y50.6573 
G01 X38.6269 Y50.5269 
G01 X38.7293 Y50.3737 
G01 X38.7998 Y50.2034 
G00 Z2.5400  
G00 X36.2598 Y50.2034 
G01 Z-0.1778 F254   
G01 X36.2958 Y50.0226 F508   
G01 X36.2958 Y48.5174 
G01 X36.2598 Y48.3366 
G01 X36.1893 Y48.1663 
G01 X36.0869 Y48.0131 
G01 X35.9565 Y47.8827 
G01 X35.8033 Y47.7803 
G01 X35.6330 Y47.7098 
G01 X35.4522 Y47.6738 
G01 X35.2678 Y47.6738 
G01 X35.0870 Y47.7098 
G01 X34.9167 Y47.7803 
G01 X34.7635 Y47.8827 
G01 X34.6331 Y48.0131 
G01 X34.5307 Y48.1663 
G01 X34.4602 Y48.3366 
G01 X34.4242 Y48.5174 
G01 X34.4242 Y50.0226 
G01 X34.4602 Y50.2034 
G01 X34.5307 Y50.3737 
G01 X34.6331 Y50.5269 
G01 X34.7635 Y50.6573 
G01 X34.9167 Y50.7597 
G01 X35.0870 Y50.8302 
G01 X35.2678 Y50.8662 
G01 X35.4522 Y50.8662 
G01 X35.6330 Y50.8302 
G01 X35.8033 Y50.7597 
G01 X35.9565 Y50.6573 
G01 X36.0869 Y50.5269 
G01 X36.1893 Y50.3737 
G01 X36.2598 Y50.2034 
G00 Z2.5400  
G00 X33.7198 Y50.2034 
G01 Z-0.1778 F254   
G01 X33.7558 Y50.0226 F508   
G01 X33.7558 Y48.5174 
G01 X33.7198 Y48.3366 
G01 X33.6493 Y48.1663 
G01 X33.5469 Y48.0131 
G01 X33.4165 Y47.8827 
G01 X33.2633 Y47.7803 
G01 X33.0930 Y47.7098 
G01 X32.9122 Y47.6738 
G01 X32.7278 Y47.6738 
G01 X32.5470 Y47.7098 
G01 X32.3767 Y47.7803 
G01 X32.2235 Y47.8827 
G01 X32.0931 Y48.0131 
G01 X31.9907 Y48.1663 
G01 X31.9202 Y48.3366 
G01 X31.8842 Y48.5174 
G01 X31.8842 Y50.0226 
G01 X31.9202 Y50.2034 
G01 X31.9907 Y50.3737 
G01 X32.0931 Y50.5269 
G01 X32.2235 Y50.6573 
G01 X32.3767 Y50.7597 
G01 X32.5470 Y50.8302 
G01 X32.7278 Y50.8662 
G01 X32.9122 Y50.8662 
G01 X33.0930 Y50.8302 
G01 X33.2633 Y50.7597 
G01 X33.4165 Y50.6573 
G01 X33.5469 Y50.5269 
G01 X33.6493 Y50.3737 
G01 X33.7198 Y50.2034 
G00 Z2.5400  
G00 X34.2793 Y61.0876 
G01 Z-0.1778 F254   
G01 X34.1810 Y61.2230 F508   
G01 X34.1051 Y61.3720 
G01 X34.0534 Y61.5311 
G01 X34.0272 Y61.6964 
G01 X34.0272 Y61.8636 
G01 X34.0534 Y62.0289 
G01 X34.1051 Y62.1880 
G01 X34.1810 Y62.3370 
G01 X34.2793 Y62.4724 
G01 X34.3976 Y62.5907 
G01 X34.5330 Y62.6890 
G01 X34.6820 Y62.7649 
G01 X34.8411 Y62.8166 
G01 X35.0064 Y62.8428 
G01 X35.1736 Y62.8428 
G01 X35.3389 Y62.8166 
G01 X35.4980 Y62.7649 
G01 X35.6470 Y62.6890 
G01 X35.7824 Y62.5907 
G01 X35.9007 Y62.4724 
G01 X35.9990 Y62.3370 
G01 X36.0749 Y62.1880 
G01 X36.1266 Y62.0289 
G01 X36.1528 Y61.8636 
G01 X36.1528 Y61.6964 
G01 X36.1266 Y61.5311 
G01 X36.0749 Y61.3720 
G01 X35.9990 Y61.2230 
G01 X35.9007 Y61.0876 
G01 X35.7824 Y60.9693 
G01 X35.6470 Y60.8710 
G01 X35.4980 Y60.7951 
G01 X35.3389 Y60.7434 
G01 X35.1736 Y60.7172 
G01 X35.0064 Y60.7172 
G01 X34.8411 Y60.7434 
G01 X34.6820 Y60.7951 
G01 X34.5330 Y60.8710 
G01 X34.3976 Y60.9693 
G01 X34.2793 Y61.0876 
G00 Z2.5400  
G00 X36.5672 Y61.3398 
G01 Z-0.1778 F254   
G01 X36.5672 Y62.2202 F508   
G01 X37.1898 Y62.8428 
G01 X38.0702 Y62.8428 
G01 X38.6928 Y62.2202 
G01 X38.6928 Y61.3398 
G01 X38.0702 Y60.7172 
G01 X37.1898 Y60.7172 
G01 X36.5672 Y61.3398 
G00 Z2.5400  
G00 X42.5542 Y66.3124 
G01 Z-0.1778 F254   
G01 X42.5542 Y67.0876 F508   
G01 X43.1024 Y67.6358 
G01 X43.8776 Y67.6358 
G01 X44.4258 Y67.0876 
G01 X44.4258 Y66.3124 
G01 X43.8776 Y65.7642 
G01 X43.1024 Y65.7642 
G01 X42.5542 Y66.3124 
G00 Z2.5400  
G00 X42.5542 Y68.6124 
G01 Z-0.1778 F254   
G01 X42.5542 Y69.3876 F508   
G01 X43.1024 Y69.9358 
G01 X43.8776 Y69.9358 
G01 X44.4258 Y69.3876 
G01 X44.4258 Y68.6124 
G01 X43.8776 Y68.0642 
G01 X43.1024 Y68.0642 
G01 X42.5542 Y68.6124 
G00 Z2.5400  
G00 X42.5542 Y70.9124 
G01 Z-0.1778 F254   
G01 X42.5542 Y71.6876 F508   
G01 X43.1024 Y72.2358 
G01 X43.8776 Y72.2358 
G01 X44.4258 Y71.6876 
G01 X44.4258 Y70.9124 
G01 X43.8776 Y70.3642 
G01 X43.1024 Y70.3642 
G01 X42.5542 Y70.9124 
G00 Z2.5400  
G00 X42.5542 Y73.2124 
G01 Z-0.1778 F254   
G01 X42.5542 Y73.9876 F508   
G01 X43.1024 Y74.5358 
G01 X43.8776 Y74.5358 
G01 X44.4258 Y73.9876 
G01 X44.4258 Y73.2124 
G01 X43.8776 Y72.6642 
G01 X43.1024 Y72.6642 
G01 X42.5542 Y73.2124 
G00 Z2.5400  
G00 X46.2506 Y73.1871 
G01 Z-0.1778 F254   
G01 X46.3122 Y73.3766 F508   
G01 X46.4026 Y73.5541 
G01 X46.5198 Y73.7153 
G01 X46.6607 Y73.8562 
G01 X46.8219 Y73.9734 
G01 X46.9994 Y74.0638 
G01 X47.1889 Y74.1254 
G01 X47.3858 Y74.1566 
G01 X47.5850 Y74.1566 
G01 X47.7819 Y74.1254 
G01 X47.9714 Y74.0638 
G01 X48.1489 Y73.9734 
G01 X48.3101 Y73.8562 
G01 X48.4510 Y73.7153 
G01 X48.5682 Y73.5541 
G01 X48.6586 Y73.3766 
G01 X48.7202 Y73.1871 
G01 X48.7514 Y72.9902 
G01 X48.7514 Y70.8098 
G01 X48.7202 Y70.6129 
G01 X48.6586 Y70.4234 
G01 X48.5682 Y70.2459 
G01 X48.4510 Y70.0847 
G01 X48.3101 Y69.9437 
G01 X48.1489 Y69.8266 
G01 X47.9714 Y69.7361 
G01 X47.7819 Y69.6746 
G01 X47.5850 Y69.6434 
G01 X47.3858 Y69.6434 
G01 X47.1889 Y69.6746 
G01 X46.9994 Y69.7361 
G01 X46.8219 Y69.8266 
G01 X46.6607 Y69.9437 
G01 X46.5198 Y70.0847 
G01 X46.4026 Y70.2459 
G01 X46.3122 Y70.4234 
G01 X46.2506 Y70.6129 
G01 X46.2194 Y70.8098 
G01 X46.2194 Y72.9902 
G01 X46.2506 Y73.1871 
G00 Z2.5400  
G00 X51.2544 Y73.1871 
G01 Z-0.1778 F254   
G01 X51.3160 Y73.3766 F508   
G01 X51.4064 Y73.5541 
G01 X51.5236 Y73.7153 
G01 X51.6645 Y73.8562 
G01 X51.8257 Y73.9734 
G01 X52.0032 Y74.0638 
G01 X52.1927 Y74.1254 
G01 X52.3896 Y74.1566 
G01 X52.5888 Y74.1566 
G01 X52.7857 Y74.1254 
G01 X52.9752 Y74.0638 
G01 X53.1527 Y73.9734 
G01 X53.3139 Y73.8562 
G01 X53.4548 Y73.7153 
G01 X53.5720 Y73.5541 
G01 X53.6624 Y73.3766 
G01 X53.7240 Y73.1871 
G01 X53.7552 Y72.9902 
G01 X53.7552 Y70.8098 
G01 X53.7240 Y70.6129 
G01 X53.6624 Y70.4234 
G01 X53.5720 Y70.2459 
G01 X53.4548 Y70.0847 
G01 X53.3139 Y69.9437 
G01 X53.1527 Y69.8266 
G01 X52.9752 Y69.7361 
G01 X52.7857 Y69.6746 
G01 X52.5888 Y69.6434 
G01 X52.3896 Y69.6434 
G01 X52.1927 Y69.6746 
G01 X52.0032 Y69.7361 
G01 X51.8257 Y69.8266 
G01 X51.6645 Y69.9437 
G01 X51.5236 Y70.0847 
G01 X51.4064 Y70.2459 
G01 X51.3160 Y70.4234 
G01 X51.2544 Y70.6129 
G01 X51.2232 Y70.8098 
G01 X51.2232 Y72.9902 
G01 X51.2544 Y73.1871 
G00 Z2.5400  
G00 X64.5777 Y71.5236 
G01 Z-0.1778 F254   
G01 X64.6405 Y71.5598 F508   
G01 X64.7105 Y71.5786 
G01 X65.8895 Y71.5786 
G01 X65.9595 Y71.5598 
G01 X66.0223 Y71.5236 
G01 X66.0736 Y71.4723 
G01 X66.1098 Y71.4095 
G01 X66.1286 Y71.3395 
G01 X66.1286 Y70.1605 
G01 X66.1098 Y70.0905 
G01 X66.0736 Y70.0277 
G01 X66.0223 Y69.9764 
G01 X65.9595 Y69.9402 
G01 X65.8895 Y69.9214 
G01 X65.7786 Y69.9214 
G01 X65.7786 Y66.5786 
G01 X65.8895 Y66.5786 
G01 X65.9595 Y66.5598 
G01 X66.0223 Y66.5236 
G01 X66.0736 Y66.4723 
G01 X66.1098 Y66.4095 
G01 X66.1286 Y66.3395 
G01 X66.1286 Y65.1605 
G01 X66.1098 Y65.0905 
G01 X66.0736 Y65.0277 
G01 X66.0223 Y64.9764 
G01 X65.9595 Y64.9402 
G01 X65.8895 Y64.9214 
G01 X64.7105 Y64.9214 
G01 X64.6405 Y64.9402 
G01 X64.5777 Y64.9764 
G01 X64.5264 Y65.0277 
G01 X64.4902 Y65.0905 
G01 X64.4714 Y65.1605 
G01 X64.4714 Y66.3395 
G01 X64.4902 Y66.4095 
G01 X64.5264 Y66.4723 
G01 X64.5777 Y66.5236 
G01 X64.6405 Y66.5598 
G01 X64.7105 Y66.5786 
G01 X64.8214 Y66.5786 
G01 X64.8214 Y69.9214 
G01 X64.7105 Y69.9214 
G01 X64.6405 Y69.9402 
G01 X64.5777 Y69.9764 
G01 X64.5264 Y70.0277 
G01 X64.4902 Y70.0905 
G01 X64.4714 Y70.1605 
G01 X64.4714 Y71.3395 
G01 X64.4902 Y71.4095 
G01 X64.5264 Y71.4723 
G01 X64.5777 Y71.5236 
G00 Z2.5400  
G00 X64.9724 Y58.0758 
G01 Z-0.1778 F254   
G01 X65.7476 Y58.0758 F508   
G01 X66.2958 Y57.5276 
G01 X66.2958 Y56.7524 
G01 X65.7476 Y56.2042 
G01 X64.9724 Y56.2042 
G01 X64.4242 Y56.7524 
G01 X64.4242 Y57.5276 
G01 X64.9724 Y58.0758 
G00 Z2.5400  
G00 X63.7958 Y54.9276 
G01 Z-0.1778 F254   
G01 X63.7958 Y54.1524 F508   
G01 X63.2476 Y53.6042 
G01 X62.4724 Y53.6042 
G01 X61.9242 Y54.1524 
G01 X61.9242 Y54.9276 
G01 X62.4724 Y55.4758 
G01 X63.2476 Y55.4758 
G01 X63.7958 Y54.9276 
G00 Z2.5400  
G00 X61.0502 Y54.8730 
G01 Z-0.1778 F254   
G01 X61.0862 Y54.6922 F508   
G01 X61.0862 Y54.5078 
G01 X61.0502 Y54.3270 
G01 X60.9797 Y54.1567 
G01 X60.8773 Y54.0035 
G01 X60.7469 Y53.8731 
G01 X60.5937 Y53.7707 
G01 X60.4234 Y53.7002 
G01 X60.2426 Y53.6642 
G01 X58.7374 Y53.6642 
G01 X58.5566 Y53.7002 
G01 X58.3863 Y53.7707 
G01 X58.2331 Y53.8731 
G01 X58.1027 Y54.0035 
G01 X58.0003 Y54.1567 
G01 X57.9298 Y54.3270 
G01 X57.8938 Y54.5078 
G01 X57.8938 Y54.6922 
G01 X57.9298 Y54.8730 
G01 X58.0003 Y55.0433 
G01 X58.1027 Y55.1965 
G01 X58.2331 Y55.3269 
G01 X58.3863 Y55.4293 
G01 X58.5566 Y55.4998 
G01 X58.7374 Y55.5358 
G01 X60.2426 Y55.5358 
G01 X60.4234 Y55.4998 
G01 X60.5937 Y55.4293 
G01 X60.7469 Y55.3269 
G01 X60.8773 Y55.1965 
G01 X60.9797 Y55.0433 
G01 X61.0502 Y54.8730 
G00 Z2.5400  
G00 X60.7469 Y56.4131 
G01 Z-0.1778 F254   
G01 X60.5937 Y56.3107 F508   
G01 X60.4234 Y56.2402 
G01 X60.2426 Y56.2042 
G01 X58.7374 Y56.2042 
G01 X58.5566 Y56.2402 
G01 X58.3863 Y56.3107 
G01 X58.2331 Y56.4131 
G01 X58.1027 Y56.5435 
G01 X58.0003 Y56.6967 
G01 X57.9298 Y56.8670 
G01 X57.8938 Y57.0478 
G01 X57.8938 Y57.2322 
G01 X57.9298 Y57.4130 
G01 X58.0003 Y57.5833 
G01 X58.1027 Y57.7365 
G01 X58.2331 Y57.8669 
G01 X58.3863 Y57.9693 
G01 X58.5566 Y58.0398 
G01 X58.7374 Y58.0758 
G01 X60.2426 Y58.0758 
G01 X60.4234 Y58.0398 
G01 X60.5937 Y57.9693 
G01 X60.7469 Y57.8669 
G01 X60.8773 Y57.7365 
G01 X60.9797 Y57.5833 
G01 X61.0502 Y57.4130 
G01 X61.0862 Y57.2322 
G01 X61.0862 Y57.0478 
G01 X61.0502 Y56.8670 
G01 X60.9797 Y56.6967 
G01 X60.8773 Y56.5435 
G01 X60.7469 Y56.4131 
G00 Z2.5400  
G00 X60.7469 Y52.7869 
G01 Z-0.1778 F254   
G01 X60.8773 Y52.6565 F508   
G01 X60.9797 Y52.5033 
G01 X61.0502 Y52.3330 
G01 X61.0862 Y52.1522 
G01 X61.0862 Y51.9678 
G01 X61.0502 Y51.7870 
G01 X60.9797 Y51.6167 
G01 X60.8773 Y51.4635 
G01 X60.7469 Y51.3331 
G01 X60.5937 Y51.2307 
G01 X60.4234 Y51.1602 
G01 X60.2426 Y51.1242 
G01 X58.7374 Y51.1242 
G01 X58.5566 Y51.1602 
G01 X58.3863 Y51.2307 
G01 X58.2331 Y51.3331 
G01 X58.1027 Y51.4635 
G01 X58.0003 Y51.6167 
G01 X57.9298 Y51.7870 
G01 X57.8938 Y51.9678 
G01 X57.8938 Y52.1522 
G01 X57.9298 Y52.3330 
G01 X58.0003 Y52.5033 
G01 X58.1027 Y52.6565 
G01 X58.2331 Y52.7869 
G01 X58.3863 Y52.8893 
G01 X58.5566 Y52.9598 
G01 X58.7374 Y52.9958 
G01 X60.2426 Y52.9958 
G01 X60.4234 Y52.9598 
G01 X60.5937 Y52.8893 
G01 X60.7469 Y52.7869 
G00 Z2.5400  
G00 X60.7469 Y50.2469 
G01 Z-0.1778 F254   
G01 X60.8773 Y50.1165 F508   
G01 X60.9797 Y49.9633 
G01 X61.0502 Y49.7930 
G01 X61.0862 Y49.6122 
G01 X61.0862 Y49.4278 
G01 X61.0502 Y49.2470 
G01 X60.9797 Y49.0767 
G01 X60.8773 Y48.9235 
G01 X60.7469 Y48.7931 
G01 X60.5937 Y48.6907 
G01 X60.4234 Y48.6202 
G01 X60.2426 Y48.5842 
G01 X58.7374 Y48.5842 
G01 X58.5566 Y48.6202 
G01 X58.3863 Y48.6907 
G01 X58.2331 Y48.7931 
G01 X58.1027 Y48.9235 
G01 X58.0003 Y49.0767 
G01 X57.9298 Y49.2470 
G01 X57.8938 Y49.4278 
G01 X57.8938 Y49.6122 
G01 X57.9298 Y49.7930 
G01 X58.0003 Y49.9633 
G01 X58.1027 Y50.1165 
G01 X58.2331 Y50.2469 
G01 X58.3863 Y50.3493 
G01 X58.5566 Y50.4198 
G01 X58.7374 Y50.4558 
G01 X60.2426 Y50.4558 
G01 X60.4234 Y50.4198 
G01 X60.5937 Y50.3493 
G01 X60.7469 Y50.2469 
G00 Z2.5400  
G00 X61.9242 Y49.8476 
G01 Z-0.1778 F254   
G01 X62.4724 Y50.3958 F508   
G01 X63.2476 Y50.3958 
G01 X63.7958 Y49.8476 
G01 X63.7958 Y49.0724 
G01 X63.2476 Y48.5242 
G01 X62.4724 Y48.5242 
G01 X61.9242 Y49.0724 
G01 X61.9242 Y49.8476 
G00 Z2.5400  
G00 X64.4242 Y51.6724 
G01 Z-0.1778 F254   
G01 X64.4242 Y52.4476 F508   
G01 X64.9724 Y52.9958 
G01 X65.7476 Y52.9958 
G01 X66.2958 Y52.4476 
G01 X66.2958 Y51.6724 
G01 X65.7476 Y51.1242 
G01 X64.9724 Y51.1242 
G01 X64.4242 Y51.6724 
G00 Z2.5400  
G00 X80.2207 Y51.7363 
G01 Z-0.1778 F254   
G01 X80.1502 Y51.9066 F508   
G01 X80.1142 Y52.0874 
G01 X80.1142 Y53.5926 
G01 X80.1502 Y53.7734 
G01 X80.2207 Y53.9437 
G01 X80.3231 Y54.0969 
G01 X80.4535 Y54.2273 
G01 X80.6067 Y54.3297 
G01 X80.7770 Y54.4002 
G01 X80.9578 Y54.4362 
G01 X81.1422 Y54.4362 
G01 X81.3230 Y54.4002 
G01 X81.4933 Y54.3297 
G01 X81.6465 Y54.2273 
G01 X81.7769 Y54.0969 
G01 X81.8793 Y53.9437 
G01 X81.9498 Y53.7734 
G01 X81.9858 Y53.5926 
G01 X81.9858 Y52.0874 
G01 X81.9498 Y51.9066 
G01 X81.8793 Y51.7363 
G01 X81.7769 Y51.5831 
G01 X81.6465 Y51.4527 
G01 X81.4933 Y51.3503 
G01 X81.3230 Y51.2798 
G01 X81.1422 Y51.2438 
G01 X80.9578 Y51.2438 
G01 X80.7770 Y51.2798 
G01 X80.6067 Y51.3503 
G01 X80.4535 Y51.4527 
G01 X80.3231 Y51.5831 
G01 X80.2207 Y51.7363 
G00 Z2.5400  
G00 X82.7607 Y51.7363 
G01 Z-0.1778 F254   
G01 X82.6902 Y51.9066 F508   
G01 X82.6542 Y52.0874 
G01 X82.6542 Y53.5926 
G01 X82.6902 Y53.7734 
G01 X82.7607 Y53.9437 
G01 X82.8631 Y54.0969 
G01 X82.9935 Y54.2273 
G01 X83.1467 Y54.3297 
G01 X83.3170 Y54.4002 
G01 X83.4978 Y54.4362 
G01 X83.6822 Y54.4362 
G01 X83.8630 Y54.4002 
G01 X84.0333 Y54.3297 
G01 X84.1865 Y54.2273 
G01 X84.3169 Y54.0969 
G01 X84.4193 Y53.9437 
G01 X84.4898 Y53.7734 
G01 X84.5258 Y53.5926 
G01 X84.5258 Y52.0874 
G01 X84.4898 Y51.9066 
G01 X84.4193 Y51.7363 
G01 X84.3169 Y51.5831 
G01 X84.1865 Y51.4527 
G01 X84.0333 Y51.3503 
G01 X83.8630 Y51.2798 
G01 X83.6822 Y51.2438 
G01 X83.4978 Y51.2438 
G01 X83.3170 Y51.2798 
G01 X83.1467 Y51.3503 
G01 X82.9935 Y51.4527 
G01 X82.8631 Y51.5831 
G01 X82.7607 Y51.7363 
G00 Z2.5400  
G00 X85.3007 Y51.7363 
G01 Z-0.1778 F254   
G01 X85.2302 Y51.9066 F508   
G01 X85.1942 Y52.0874 
G01 X85.1942 Y53.5926 
G01 X85.2302 Y53.7734 
G01 X85.3007 Y53.9437 
G01 X85.4031 Y54.0969 
G01 X85.5335 Y54.2273 
G01 X85.6867 Y54.3297 
G01 X85.8570 Y54.4002 
G01 X86.0378 Y54.4362 
G01 X86.2222 Y54.4362 
G01 X86.4030 Y54.4002 
G01 X86.5733 Y54.3297 
G01 X86.7265 Y54.2273 
G01 X86.8569 Y54.0969 
G01 X86.9593 Y53.9437 
G01 X87.0298 Y53.7734 
G01 X87.0658 Y53.5926 
G01 X87.0658 Y52.0874 
G01 X87.0298 Y51.9066 
G01 X86.9593 Y51.7363 
G01 X86.8569 Y51.5831 
G01 X86.7265 Y51.4527 
G01 X86.5733 Y51.3503 
G01 X86.4030 Y51.2798 
G01 X86.2222 Y51.2438 
G01 X86.0378 Y51.2438 
G01 X85.8570 Y51.2798 
G01 X85.6867 Y51.3503 
G01 X85.5335 Y51.4527 
G01 X85.4031 Y51.5831 
G01 X85.3007 Y51.7363 
G00 Z2.5400  
G00 X87.8407 Y51.7363 
G01 Z-0.1778 F254   
G01 X87.7702 Y51.9066 F508   
G01 X87.7342 Y52.0874 
G01 X87.7342 Y53.5926 
G01 X87.7702 Y53.7734 
G01 X87.8407 Y53.9437 
G01 X87.9431 Y54.0969 
G01 X88.0735 Y54.2273 
G01 X88.2267 Y54.3297 
G01 X88.3970 Y54.4002 
G01 X88.5778 Y54.4362 
G01 X88.7622 Y54.4362 
G01 X88.9430 Y54.4002 
G01 X89.1133 Y54.3297 
G01 X89.2665 Y54.2273 
G01 X89.3969 Y54.0969 
G01 X89.4993 Y53.9437 
G01 X89.5698 Y53.7734 
G01 X89.6058 Y53.5926 
G01 X89.6058 Y52.0874 
G01 X89.5698 Y51.9066 
G01 X89.4993 Y51.7363 
G01 X89.3969 Y51.5831 
G01 X89.2665 Y51.4527 
G01 X89.1133 Y51.3503 
G01 X88.9430 Y51.2798 
G01 X88.7622 Y51.2438 
G01 X88.5778 Y51.2438 
G01 X88.3970 Y51.2798 
G01 X88.2267 Y51.3503 
G01 X88.0735 Y51.4527 
G01 X87.9431 Y51.5831 
G01 X87.8407 Y51.7363 
G00 Z2.5400  
G00 X87.2933 Y46.6158 
G01 Z-0.1778 F254   
G01 X87.3893 Y46.4837 F508   
G01 X87.4634 Y46.3382 
G01 X87.5139 Y46.1829 
G01 X87.5394 Y46.0216 
G01 X87.5394 Y45.8584 
G01 X87.5139 Y45.6971 
G01 X87.4634 Y45.5418 
G01 X87.3893 Y45.3963 
G01 X87.2933 Y45.2642 
G01 X87.1778 Y45.1487 
G01 X87.0457 Y45.0527 
G01 X86.9002 Y44.9786 
G01 X86.7449 Y44.9281 
G01 X86.5836 Y44.9026 
G01 X84.8964 Y44.9026 
G01 X84.7351 Y44.9281 
G01 X84.5798 Y44.9786 
G01 X84.4343 Y45.0527 
G01 X84.3022 Y45.1487 
G01 X84.1867 Y45.2642 
G01 X84.0907 Y45.3963 
G01 X84.0166 Y45.5418 
G01 X83.9661 Y45.6971 
G01 X83.9406 Y45.8584 
G01 X83.9406 Y46.0216 
G01 X83.9661 Y46.1829 
G01 X84.0166 Y46.3382 
G01 X84.0907 Y46.4837 
G01 X84.1867 Y46.6158 
G01 X84.3022 Y46.7313 
G01 X84.4343 Y46.8273 
G01 X84.5798 Y46.9014 
G01 X84.7351 Y46.9519 
G01 X84.8964 Y46.9774 
G01 X86.5836 Y46.9774 
G01 X86.7449 Y46.9519 
G01 X86.9002 Y46.9014 
G01 X87.0457 Y46.8273 
G01 X87.1778 Y46.7313 
G01 X87.2933 Y46.6158 
G00 Z2.5400  
G00 X87.2933 Y44.0758 
G01 Z-0.1778 F254   
G01 X87.3893 Y43.9437 F508   
G01 X87.4634 Y43.7982 
G01 X87.5139 Y43.6429 
G01 X87.5394 Y43.4816 
G01 X87.5394 Y43.3184 
G01 X87.5139 Y43.1571 
G01 X87.4634 Y43.0018 
G01 X87.3893 Y42.8563 
G01 X87.2933 Y42.7242 
G01 X87.1778 Y42.6087 
G01 X87.0457 Y42.5127 
G01 X86.9002 Y42.4386 
G01 X86.7449 Y42.3881 
G01 X86.5836 Y42.3626 
G01 X84.8964 Y42.3626 
G01 X84.7351 Y42.3881 
G01 X84.5798 Y42.4386 
G01 X84.4343 Y42.5127 
G01 X84.3022 Y42.6087 
G01 X84.1867 Y42.7242 
G01 X84.0907 Y42.8563 
G01 X84.0166 Y43.0018 
G01 X83.9661 Y43.1571 
G01 X83.9406 Y43.3184 
G01 X83.9406 Y43.4816 
G01 X83.9661 Y43.6429 
G01 X84.0166 Y43.7982 
G01 X84.0907 Y43.9437 
G01 X84.1867 Y44.0758 
G01 X84.3022 Y44.1913 
G01 X84.4343 Y44.2873 
G01 X84.5798 Y44.3614 
G01 X84.7351 Y44.4119 
G01 X84.8964 Y44.4374 
G01 X86.5836 Y44.4374 
G01 X86.7449 Y44.4119 
G01 X86.9002 Y44.3614 
G01 X87.0457 Y44.2873 
G01 X87.1778 Y44.1913 
G01 X87.2933 Y44.0758 
G00 Z2.5400  
G00 X87.2933 Y41.5358 
G01 Z-0.1778 F254   
G01 X87.3893 Y41.4037 F508   
G01 X87.4634 Y41.2582 
G01 X87.5139 Y41.1029 
G01 X87.5394 Y40.9416 
G01 X87.5394 Y40.7784 
G01 X87.5139 Y40.6171 
G01 X87.4634 Y40.4618 
G01 X87.3893 Y40.3163 
G01 X87.2933 Y40.1842 
G01 X87.1778 Y40.0687 
G01 X87.0457 Y39.9727 
G01 X86.9002 Y39.8986 
G01 X86.7449 Y39.8481 
G01 X86.5836 Y39.8226 
G01 X84.8964 Y39.8226 
G01 X84.7351 Y39.8481 
G01 X84.5798 Y39.8986 
G01 X84.4343 Y39.9727 
G01 X84.3022 Y40.0687 
G01 X84.1867 Y40.1842 
G01 X84.0907 Y40.3163 
G01 X84.0166 Y40.4618 
G01 X83.9661 Y40.6171 
G01 X83.9406 Y40.7784 
G01 X83.9406 Y40.9416 
G01 X83.9661 Y41.1029 
G01 X84.0166 Y41.2582 
G01 X84.0907 Y41.4037 
G01 X84.1867 Y41.5358 
G01 X84.3022 Y41.6513 
G01 X84.4343 Y41.7473 
G01 X84.5798 Y41.8214 
G01 X84.7351 Y41.8719 
G01 X84.8964 Y41.8974 
G01 X86.5836 Y41.8974 
G01 X86.7449 Y41.8719 
G01 X86.9002 Y41.8214 
G01 X87.0457 Y41.7473 
G01 X87.1778 Y41.6513 
G01 X87.2933 Y41.5358 
G00 Z2.5400  
G00 X81.3358 Y41.6082 
G01 Z-0.1778 F254   
G01 X81.3358 Y41.4238 F508   
G01 X81.2998 Y41.2430 
G01 X81.2293 Y41.0727 
G01 X81.1269 Y40.9195 
G01 X80.9965 Y40.7891 
G01 X80.8433 Y40.6867 
G01 X80.6730 Y40.6162 
G01 X80.4922 Y40.5802 
G01 X80.3078 Y40.5802 
G01 X80.1270 Y40.6162 
G01 X79.9567 Y40.6867 
G01 X79.8035 Y40.7891 
G01 X79.6731 Y40.9195 
G01 X79.5707 Y41.0727 
G01 X79.5002 Y41.2430 
G01 X79.4642 Y41.4238 
G01 X79.4642 Y41.6082 
G01 X79.5002 Y41.7890 
G01 X79.5707 Y41.9593 
G01 X79.6731 Y42.1125 
G01 X79.8035 Y42.2429 
G01 X79.9567 Y42.3453 
G01 X80.1270 Y42.4158 
G01 X80.3078 Y42.4518 
G01 X80.4922 Y42.4518 
G01 X80.6730 Y42.4158 
G01 X80.8433 Y42.3453 
G01 X80.9965 Y42.2429 
G01 X81.1269 Y42.1125 
G01 X81.2293 Y41.9593 
G01 X81.2998 Y41.7890 
G01 X81.3358 Y41.6082 
G00 Z2.5400  
G00 X81.3358 Y39.8716 
G01 Z-0.1778 F254   
G01 X81.3358 Y39.0964 F508   
G01 X80.7876 Y38.5482 
G01 X80.0124 Y38.5482 
G01 X79.4642 Y39.0964 
G01 X79.4642 Y39.8716 
G01 X80.0124 Y40.4198 
G01 X80.7876 Y40.4198 
G01 X81.3358 Y39.8716 
G00 Z2.5400  
G00 X81.3358 Y44.6964 
G01 Z-0.1778 F254   
G01 X80.7876 Y44.1482 F508   
G01 X80.0124 Y44.1482 
G01 X79.4642 Y44.6964 
G01 X79.4642 Y45.4716 
G01 X80.0124 Y46.0198 
G01 X80.7876 Y46.0198 
G01 X81.3358 Y45.4716 
G01 X81.3358 Y44.6964 
G00 Z2.5400  
G00 X80.9965 Y46.3891 
G01 Z-0.1778 F254   
G01 X80.8433 Y46.2867 F508   
G01 X80.6730 Y46.2162 
G01 X80.4922 Y46.1802 
G01 X80.3078 Y46.1802 
G01 X80.1270 Y46.2162 
G01 X79.9567 Y46.2867 
G01 X79.8035 Y46.3891 
G01 X79.6731 Y46.5195 
G01 X79.5707 Y46.6727 
G01 X79.5002 Y46.8430 
G01 X79.4642 Y47.0238 
G01 X79.4642 Y47.2082 
G01 X79.5002 Y47.3890 
G01 X79.5707 Y47.5593 
G01 X79.6731 Y47.7125 
G01 X79.8035 Y47.8429 
G01 X79.9567 Y47.9453 
G01 X80.1270 Y48.0158 
G01 X80.3078 Y48.0518 
G01 X80.4922 Y48.0518 
G01 X80.6730 Y48.0158 
G01 X80.8433 Y47.9453 
G01 X80.9965 Y47.8429 
G01 X81.1269 Y47.7125 
G01 X81.2293 Y47.5593 
G01 X81.2998 Y47.3890 
G01 X81.3358 Y47.2082 
G01 X81.3358 Y47.0238 
G01 X81.2998 Y46.8430 
G01 X81.2293 Y46.6727 
G01 X81.1269 Y46.5195 
G01 X80.9965 Y46.3891 
G00 Z2.5400  
G00 X80.9578 Y58.8638 
G01 Z-0.1778 F254   
G01 X80.7770 Y58.8998 F508   
G01 X80.6067 Y58.9703 
G01 X80.4535 Y59.0727 
G01 X80.3231 Y59.2031 
G01 X80.2207 Y59.3563 
G01 X80.1502 Y59.5266 
G01 X80.1142 Y59.7074 
G01 X80.1142 Y61.2126 
G01 X80.1502 Y61.3934 
G01 X80.2207 Y61.5637 
G01 X80.3231 Y61.7169 
G01 X80.4535 Y61.8473 
G01 X80.6067 Y61.9497 
G01 X80.7770 Y62.0202 
G01 X80.9578 Y62.0562 
G01 X81.1422 Y62.0562 
G01 X81.3230 Y62.0202 
G01 X81.4933 Y61.9497 
G01 X81.6465 Y61.8473 
G01 X81.7769 Y61.7169 
G01 X81.8793 Y61.5637 
G01 X81.9498 Y61.3934 
G01 X81.9858 Y61.2126 
G01 X81.9858 Y59.7074 
G01 X81.9498 Y59.5266 
G01 X81.8793 Y59.3563 
G01 X81.7769 Y59.2031 
G01 X81.6465 Y59.0727 
G01 X81.4933 Y58.9703 
G01 X81.3230 Y58.8998 
G01 X81.1422 Y58.8638 
G01 X80.9578 Y58.8638 
G00 Z2.5400  
G00 X82.8631 Y59.2031 
G01 Z-0.1778 F254   
G01 X82.7607 Y59.3563 F508   
G01 X82.6902 Y59.5266 
G01 X82.6542 Y59.7074 
G01 X82.6542 Y61.2126 
G01 X82.6902 Y61.3934 
G01 X82.7607 Y61.5637 
G01 X82.8631 Y61.7169 
G01 X82.9935 Y61.8473 
G01 X83.1467 Y61.9497 
G01 X83.3170 Y62.0202 
G01 X83.4978 Y62.0562 
G01 X83.6822 Y62.0562 
G01 X83.8630 Y62.0202 
G01 X84.0333 Y61.9497 
G01 X84.1865 Y61.8473 
G01 X84.3169 Y61.7169 
G01 X84.4193 Y61.5637 
G01 X84.4898 Y61.3934 
G01 X84.5258 Y61.2126 
G01 X84.5258 Y59.7074 
G01 X84.4898 Y59.5266 
G01 X84.4193 Y59.3563 
G01 X84.3169 Y59.2031 
G01 X84.1865 Y59.0727 
G01 X84.0333 Y58.9703 
G01 X83.8630 Y58.8998 
G01 X83.6822 Y58.8638 
G01 X83.4978 Y58.8638 
G01 X83.3170 Y58.8998 
G01 X83.1467 Y58.9703 
G01 X82.9935 Y59.0727 
G01 X82.8631 Y59.2031 
G00 Z2.5400  
G00 X85.4031 Y59.2031 
G01 Z-0.1778 F254   
G01 X85.3007 Y59.3563 F508   
G01 X85.2302 Y59.5266 
G01 X85.1942 Y59.7074 
G01 X85.1942 Y61.2126 
G01 X85.2302 Y61.3934 
G01 X85.3007 Y61.5637 
G01 X85.4031 Y61.7169 
G01 X85.5335 Y61.8473 
G01 X85.6867 Y61.9497 
G01 X85.8570 Y62.0202 
G01 X86.0378 Y62.0562 
G01 X86.2222 Y62.0562 
G01 X86.4030 Y62.0202 
G01 X86.5733 Y61.9497 
G01 X86.7265 Y61.8473 
G01 X86.8569 Y61.7169 
G01 X86.9593 Y61.5637 
G01 X87.0298 Y61.3934 
G01 X87.0658 Y61.2126 
G01 X87.0658 Y59.7074 
G01 X87.0298 Y59.5266 
G01 X86.9593 Y59.3563 
G01 X86.8569 Y59.2031 
G01 X86.7265 Y59.0727 
G01 X86.5733 Y58.9703 
