(.../EAGLE-7.6.0/ulp/pcb-gcode.ulp)
(Copyright 2005 - 2012 by John Johnson)
(See readme.txt for licensing terms.)
(This file generated from the board:)
(.../PCB/placas/Sensor/sensor_dsp.brd)
(Current profile is .../EAGLE-7.6.0/ulp/profiles/mach.pp  )
(This file generated 08/03/2017 10:03)
(Settings from pcb-machine.h)
(spindle on time = 3.0000)
(spindle speed = 20000.0000)
(tool change at 0.0000  0.0000  25.4000 )
(feed rate xy = F0     )
(feed rate z  = F508   )
(Z Axis Settings)
(  High     Up        Down     Drill)
(12.7000 	2.5400  	-0.1778 	-0.8128 )
(Settings from pcb-defaults.h)
(isolate min = 0.0254)
(isolate max = 0.5080)
(isolate step = 0.1270)
(Generated top outlines, top drill, bottom outlines, bottom drill, )
(Unit of measure: mm)
( Tool|       Size       |  Min Sub |  Max Sub |   Count )
( T01 | 0.610mm 0.0240in | 0.0000in | 0.0000in |       0 )
( T02 | 0.700mm 0.0276in | 0.0000in | 0.0000in |       0 )
( T03 | 0.813mm 0.0320in | 0.0000in | 0.0000in |       0 )
( T04 | 0.900mm 0.0354in | 0.0000in | 0.0000in |       0 )
( T05 | 1.000mm 0.0394in | 0.0000in | 0.0000in |       0 )
( T06 | 1.016mm 0.0400in | 0.0000in | 0.0000in |       0 )
( T07 | 1.321mm 0.0520in | 0.0000in | 0.0000in |       0 )
( T08 | 2.200mm 0.0866in | 0.0000in | 0.0000in |       0 )
(Metric Mode)
G21
(Absolute Coordinates)
G90
S20000
G00 Z12.7000 
G00 X0.0000  Y0.0000  
M03
G04 P3.000000
M05
G00 Z25.4000 
M06 T01  ; 0.6096  
G01 Z0.0000  F508   
M06 
G00 Z2.5400  
M03
G04 P3.000000
G82 X41.6600 Y43.9000 Z-0.8128 F508   R2.5400  P1.000000
G82 X46.7400 Y43.9000 
M05
G00 Z25.4000 
G00 X0.0000  Y0.0000  
M06 T02  ; 0.7000  
G01 Z0.0000  F508   
M06 
G00 Z2.5400  
M03
G04 P3.000000
G82 X3.0000  Y3.0000  Z-0.8128 F508   R2.5400  P1.000000
G82 X11.1000 Y34.2000 
G82 X12.5000 Y37.3000 
G82 X17.2000 Y37.4000 
G82 X17.2000 Y34.2000 
G82 X27.1000 Y38.9000 
G82 X32.6000 Y38.9000 
G82 X12.0000 Y46.5000 
G82 X12.0000 Y50.6000 
G82 X9.9000  Y57.3000 
G82 X9.9000  Y62.7000 
G82 X3.0000  Y77.0000 
G82 X65.3000 Y70.7500 
G82 X65.3000 Y65.7500 
G82 X97.0000 Y77.0000 
G82 X97.0000 Y3.0000  
G82 X43.9000 Y3.2000  
G82 X43.9000 Y6.2000  
M05
G00 Z25.4000 
G00 X0.0000  Y0.0000  
M06 T03  ; 0.8128  
G01 Z0.0000  F508   
M06 
G00 Z2.5400  
M03
G04 P3.000000
G82 X7.1100  Y66.7000 Z-0.8128 F508   R2.5400  P1.000000
G82 X7.1100  Y69.0000 
G82 X7.1100  Y71.3000 
G82 X7.1100  Y73.6000 
G82 X12.1900 Y73.6000 
G82 X12.1900 Y71.3000 
G82 X12.1900 Y69.0000 
G82 X12.1900 Y66.7000 
G82 X15.1900 Y66.6900 
G82 X17.7300 Y66.6900 
G82 X20.2700 Y66.6900 
G82 X22.8100 Y66.6900 
G82 X27.7900 Y66.6900 
G82 X30.3300 Y66.6900 
G82 X32.8700 Y66.6900 
G82 X35.4100 Y66.6900 
G82 X38.4100 Y66.7000 
G82 X38.4100 Y69.0000 
G82 X38.4100 Y71.3000 
G82 X38.4100 Y73.6000 
G82 X35.4100 Y74.3100 
G82 X32.8700 Y74.3100 
G82 X30.3300 Y74.3100 
G82 X27.7900 Y74.3100 
G82 X22.8100 Y74.3100 
G82 X20.2700 Y74.3100 
G82 X17.7300 Y74.3100 
G82 X15.1900 Y74.3100 
G82 X15.0900 Y61.9200 
G82 X17.6300 Y61.9200 
G82 X17.5800 Y56.8900 
G82 X15.0400 Y56.8900 
G82 X20.1200 Y56.8900 
G82 X22.6600 Y56.8900 
G82 X25.2000 Y56.8900 
G82 X27.7400 Y56.8900 
G82 X30.2800 Y56.8900 
G82 X32.8200 Y56.8900 
G82 X35.3600 Y56.8900 
G82 X37.9000 Y56.8900 
G82 X40.4400 Y56.8900 
G82 X42.9800 Y56.8900 
G82 X45.5200 Y56.8900 
G82 X48.0600 Y56.8900 
G82 X51.8700 Y57.1400 
G82 X51.8700 Y54.6000 
G82 X51.8700 Y52.0600 
G82 X51.8700 Y49.5200 
G82 X48.0600 Y49.2700 
G82 X45.5200 Y49.2700 
G82 X42.9800 Y49.2700 
G82 X40.4400 Y49.2700 
G82 X37.9000 Y49.2700 
G82 X35.3600 Y49.2700 
G82 X32.8200 Y49.2700 
G82 X30.2800 Y49.2700 
G82 X27.7400 Y49.2700 
G82 X25.2000 Y49.2700 
G82 X22.6600 Y49.2700 
G82 X20.1200 Y49.2700 
G82 X17.5800 Y49.2700 
G82 X15.0400 Y49.2700 
G82 X9.0200  Y49.1300 
G82 X9.0200  Y51.6700 
G82 X9.0200  Y45.0500 
G82 X9.0200  Y42.5100 
G82 X12.1600 Y40.0800 
G82 X17.2400 Y40.0800 
G82 X19.3500 Y42.5100 
G82 X21.8900 Y42.5100 
G82 X24.4300 Y42.5100 
G82 X26.9700 Y42.5100 
G82 X29.5100 Y42.5100 
G82 X32.0500 Y42.5100 
G82 X34.5900 Y42.5100 
G82 X34.5900 Y34.8900 
G82 X32.0500 Y34.8900 
G82 X29.5100 Y34.8900 
G82 X26.9700 Y34.8900 
G82 X24.4300 Y34.8900 
G82 X21.8900 Y34.8900 
G82 X19.3500 Y34.8900 
G82 X19.5800 Y28.9800 
G82 X22.1200 Y28.9800 
G82 X24.5400 Y29.6600 
G82 X22.1200 Y25.3800 
G82 X19.5800 Y25.3800 
G82 X19.4100 Y21.9800 
G82 X19.4200 Y18.8900 
G82 X21.9600 Y18.8900 
G82 X24.5000 Y18.8900 
G82 X27.0400 Y18.8900 
G82 X29.5800 Y18.8900 
G82 X32.1200 Y18.8900 
G82 X34.6600 Y18.8900 
G82 X34.4500 Y22.0600 
G82 X31.9100 Y22.0600 
G82 X34.4600 Y24.7000 
G82 X37.9600 Y18.8900 
G82 X41.1500 Y18.8900 
G82 X41.1500 Y11.2700 
G82 X37.9600 Y11.2700 
G82 X34.6600 Y11.2700 
G82 X32.1200 Y11.2700 
G82 X29.5800 Y11.2700 
G82 X27.0400 Y11.2700 
G82 X24.5000 Y11.2700 
G82 X21.9600 Y11.2700 
G82 X19.4200 Y11.2700 
G82 X21.9200 Y7.3400  
G82 X24.5100 Y7.3400  
G82 X29.5900 Y7.3400  
G82 X32.0900 Y7.3600  
G82 X34.6300 Y7.3600  
G82 X32.0200 Y15.0800 
G82 X24.4000 Y15.0800 
G82 X24.4900 Y21.9800 
G82 X24.5400 Y24.5800 
G82 X26.8400 Y24.7000 
G82 X41.6500 Y36.7300 
G82 X41.6500 Y39.2700 
G82 X46.7500 Y39.2700 
G82 X46.7500 Y36.7300 
G82 X52.2800 Y42.8500 
G82 X52.2800 Y45.3900 
G82 X59.4900 Y49.5200 
G82 X59.4900 Y52.0600 
G82 X59.4900 Y54.6000 
G82 X59.4900 Y57.1400 
G82 X62.8600 Y54.5400 
G82 X65.3600 Y52.0600 
G82 X62.8600 Y49.4600 
G82 X65.3600 Y57.1400 
G82 X81.0500 Y60.4600 
G82 X83.5900 Y60.4600 
G82 X86.1300 Y60.4600 
G82 X88.6700 Y60.4600 
G82 X92.8000 Y57.6660 
G82 X92.8000 Y55.6340 
G82 X88.6700 Y52.8400 
G82 X86.1300 Y52.8400 
G82 X83.5900 Y52.8400 
G82 X81.0500 Y52.8400 
G82 X80.4000 Y47.1160 
G82 X80.4000 Y45.0840 
G82 X80.4000 Y41.5160 
G82 X80.4000 Y39.4840 
G82 X80.4000 Y30.0160 
G82 X80.4000 Y27.9840 
G82 X80.4000 Y24.4960 
G82 X80.4000 Y22.4640 
G82 X82.2800 Y18.8300 
G82 X82.2800 Y16.2900 
G82 X85.5000 Y14.7700 
G82 X85.5000 Y12.2300 
G82 X80.5000 Y12.0160 
G82 X80.5000 Y9.9840  
G82 X71.6350 Y15.1300 
G82 X71.6350 Y17.6700 
G82 X68.1400 Y18.8900 
G82 X65.2600 Y18.8900 
G82 X62.7200 Y18.8900 
G82 X60.1800 Y18.8900 
G82 X57.6400 Y18.8900 
G82 X55.1000 Y18.8900 
G82 X52.5600 Y18.8900 
G82 X50.0200 Y18.8900 
G82 X50.0000 Y22.5800 
G82 X52.5400 Y25.1200 
G82 X55.1100 Y24.6100 
G82 X55.1100 Y27.1600 
G82 X55.0100 Y29.7100 
G82 X55.0100 Y32.2600 
G82 X60.0900 Y32.2600 
G82 X60.0900 Y29.7100 
G82 X60.1900 Y27.1600 
G82 X60.1900 Y24.6100 
G82 X60.1900 Y22.0600 
G82 X63.1500 Y22.0600 
G82 X65.7000 Y22.0600 
G82 X68.2500 Y22.0600 
G82 X68.2500 Y27.1400 
G82 X65.7000 Y27.1400 
G82 X63.1500 Y27.1400 
G82 X55.1100 Y22.0600 
G82 X53.8400 Y15.0800 
G82 X55.1000 Y11.2700 
G82 X57.6400 Y11.2700 
G82 X60.1800 Y11.2700 
G82 X62.7200 Y11.2700 
G82 X65.2600 Y11.2700 
G82 X68.1400 Y11.2700 
G82 X65.2700 Y7.4800  
G82 X62.7300 Y7.4800  
G82 X60.4000 Y7.5600  
G82 X55.3200 Y7.5600  
G82 X52.3400 Y7.5000  
G82 X49.8000 Y7.5000  
G82 X50.0200 Y11.2700 
G82 X52.5600 Y11.2700 
G82 X61.4600 Y15.0800 
G82 X50.0000 Y27.6600 
G82 X37.6300 Y61.7800 
G82 X35.0900 Y61.7800 
G82 X43.4900 Y66.7000 
G82 X43.4900 Y69.0000 
G82 X43.4900 Y71.3000 
G82 X43.4900 Y73.6000 
G82 X80.4000 Y73.7360 
G82 X80.4000 Y71.7040 
G82 X80.4000 Y68.2160 
G82 X80.4000 Y66.1840 
G82 X16.8400 Y7.3400  
M05
G00 Z25.4000 
G00 X0.0000  Y0.0000  
M06 T04  ; 0.9000  
G01 Z0.0000  F508   
M06 
G00 Z2.5400  
M03
G04 P3.000000
G82 X4.8500  Y18.0250 Z-0.8128 F508   R2.5400  P1.000000
G82 X4.8500  Y20.5650 
G82 X4.8500  Y23.1050 
G82 X7.3900  Y21.8350 
G82 X7.3900  Y19.2950 
G82 X7.3900  Y24.3750 
M05
G00 Z25.4000 
G00 X0.0000  Y0.0000  
M06 T05  ; 1.0000  
G01 Z0.0000  F508   
M06 
G00 Z2.5400  
M03
G04 P3.000000
G82 X89.9000 Y10.0000 Z-0.8128 F508   R2.5400  P1.000000
G82 X93.0000 Y14.8000 
G82 X96.0000 Y10.0000 
M05
G00 Z25.4000 
G00 X0.0000  Y0.0000  
M06 T06  ; 1.0160  
G01 Z0.0000  F508   
M06 
G00 Z2.5400  
M03
G04 P3.000000
G82 X6.2800  Y49.0900 Z-0.8128 F508   R2.5400  P1.000000
G82 X6.2800  Y51.6300 
G82 X6.2800  Y54.1700 
G82 X6.2800  Y56.7100 
G82 X6.2800  Y59.2500 
G82 X6.2800  Y61.7900 
G82 X6.4300  Y44.8600 
G82 X6.4300  Y42.3200 
G82 X6.4300  Y39.7800 
G82 X14.7000 Y45.1000 
G82 X41.1500 Y22.0600 
G82 X85.7400 Y23.6800 
G82 X85.7400 Y26.2200 
G82 X85.7400 Y28.7600 
G82 X85.7400 Y40.8600 
G82 X85.7400 Y43.4000 
G82 X85.7400 Y45.9400 
G82 X85.7400 Y67.4600 
G82 X85.7400 Y70.0000 
G82 X85.7400 Y72.5400 
M05
G00 Z25.4000 
G00 X0.0000  Y0.0000  
M06 T07  ; 1.3208  
G01 Z0.0000  F508   
M06 
G00 Z2.5400  
M03
G04 P3.000000
G82 X47.4854 Y71.9000 Z-0.8128 F508   R2.5400  P1.000000
G82 X52.4892 Y71.9000 
M05
G00 Z25.4000 
G00 X0.0000  Y0.0000  
M06 T08  ; 2.2000  
G01 Z0.0000  F508   
M06 
G00 Z2.5400  
M03
G04 P3.000000
G82 X2.9000  Y15.2000 Z-0.8128 F508   R2.5400  P1.000000
G82 X2.9000  Y27.2000 
T01 
G00 Z12.7000 
M05
M02
