(.../EAGLE-7.6.0/ulp/pcb-gcode.ulp)
(Copyright 2005 - 2012 by John Johnson)
(See readme.txt for licensing terms.)
(This file generated from the board:)
(.../Documentos/eagle/Sensor/sensor_dsp.brd)
(Current profile is .../EAGLE-7.6.0/ulp/profiles/mach.pp  )
(This file generated 06/03/2017 13:05)
(Settings from pcb-machine.h)
(spindle on time = 3.0000)
(spindle speed = 15000.0000)
(milling depth = 1.5000)
(tool change at 0.0000  0.0000  25.4000 )
(feed rate xy = F254   )
(feed rate z  = F127   )
(Z Axis Settings)
(  High     Up        Down     Drill)
(10.0000 	2.9900  	-0.2000 	-2.0000 )
(Settings from pcb-defaults.h)
(isolate min = 0.0508)
(isolate max = 0.5080)
(isolate step = 0.1270)
(Generated bottom outlines, bottom drill, )
(Unit of measure: mm)
(Metric Mode)
G21
(Absolute Coordinates)
G90
S15000
G00 Z10.0000 
G00 X0.0000  Y0.0000  
M03
G04 P3.000000
G00 Z2.9900  
G00 X1.0000  Y0.0000  
G01 Z1.5000  F127   
G01 X99.0000 Y0.0000  F254   
G00 Z2.9900  
G00 X100.0000 Y1.0000  
G01 Z1.5000  F127   
G01 X100.0000 Y79.0000 F254   
G00 Z2.9900  
G00 X99.0000 Y80.0000 
G01 Z1.5000  F127   
G01 X1.0000  Y80.0000 F254   
G00 Z2.9900  
G00 X0.0000  Y79.0000 
G01 Z1.5000  F127   
G01 X0.0000  Y1.0000  F254   
G00 Z10.0000 
M05
M02
