(.../EAGLE-7.6.0/ulp/pcb-gcode.ulp)
(Copyright 2005 - 2012 by John Johnson)
(See readme.txt for licensing terms.)
(This file generated from the board:)
(.../Documentos/eagle/Sensor/sensor_dsp.brd)
(Current profile is .../EAGLE-7.6.0/ulp/profiles/mach.pp  )
(This file generated 08/03/2017 16:45)
(Settings from pcb-machine.h)
(spindle on time = 3.0000)
(  Tool Size)
(0.5000  )
(spindle speed = 30000.0000)
(tool change at 0.0000  0.0000  25.4000 )
(feed rate xy = F508   )
(feed rate z  = F254   )
(Z Axis Settings)
(  High     Up        Down     Drill)
(10.0000 	2.9900  	-0.2000 	-2.0000 )
(Settings from pcb-defaults.h)
(isolate min = 0.0508)
(isolate max = 0.5080)
(isolate step = 0.1270)
(Generated bottom outlines, bottom drill, )
(Unit of measure: mm)
(Metric Mode)
G21
(Absolute Coordinates)
G90
S30000
G00 Z10.0000 
G00 X0.0000  Y0.0000  
M03
G04 P3.000000
G00 Z2.9900  
G00 X1.5584  Y1.6079  
G01 Z-0.2000 F254   
G01 X1.5584  Y1.6079  F508   
G01 X1.7662  Y1.4208  
G01 X1.9980  Y1.2645  
G01 X2.2493  Y1.1419  
G01 X2.5152  Y1.0555  
G01 X2.7905  Y1.0070  
G01 X3.0699  Y0.9972  
G01 X3.3480  Y1.0264  
G01 X3.6193  Y1.0941  
G01 X3.8785  Y1.1988  
G01 X4.1206  Y1.3386  
G01 X4.3409  Y1.5107  
G01 X4.5351  Y1.7119  
G01 X4.6995  Y1.9380  
G01 X4.8307  Y2.1849  
G01 X4.9264  Y2.4476  
G01 X4.9845  Y2.7211  
G01 X5.0040  Y3.0000  
G01 X4.9845  Y3.2789  
G01 X4.9264  Y3.5524  
G01 X4.8307  Y3.8151  
G01 X4.6995  Y4.0620  
G01 X4.5351  Y4.2881  
G01 X4.3409  Y4.4893  
G01 X4.1206  Y4.6614  
G01 X3.8785  Y4.8012  
G01 X3.6193  Y4.9059  
G01 X3.3480  Y4.9736  
G01 X3.0699  Y5.0028  
G01 X2.7905  Y4.9930  
G01 X2.5152  Y4.9445  
G01 X2.2493  Y4.8581  
G01 X1.9980  Y4.7355  
G01 X1.7662  Y4.5792  
G01 X1.5584  Y4.3921  
G01 X1.3787  Y4.1779  
G01 X1.2306  Y3.9408  
G01 X1.1169  Y3.6854  
G01 X1.0398  Y3.4167  
G01 X1.0009  Y3.1398  
G01 X1.0009  Y2.8602  
G01 X1.0398  Y2.5833  
G01 X1.1169  Y2.3146  
G01 X1.2306  Y2.0592  
G01 X1.3787  Y1.8221  
G01 X1.5584  Y1.6079  
G00 Z2.9900  
G00 X2.2835  Y2.3081  
G01 Z-0.2000 F254   
G01 X2.1942  Y2.4146  F508   
G01 X2.1206  Y2.5324  
G01 X2.0641  Y2.6593  
G01 X2.0258  Y2.7929  
G01 X2.0064  Y2.9305  
G01 X2.0064  Y3.0695  
G01 X2.0258  Y3.2071  
G01 X2.0641  Y3.3407  
G01 X2.1206  Y3.4676  
G01 X2.1942  Y3.5854  
G01 X2.2835  Y3.6919  
G01 X2.3868  Y3.7849  
G01 X2.5020  Y3.8626  
G01 X2.6269  Y3.9235  
G01 X2.7590  Y3.9664  
G01 X2.8959  Y3.9905  
G01 X3.0348  Y3.9954  
G01 X3.1730  Y3.9809  
G01 X3.3078  Y3.9473  
G01 X3.4366  Y3.8952  
G01 X3.5570  Y3.8257  
G01 X3.6665  Y3.7402  
G01 X3.7630  Y3.6402  
G01 X3.8447  Y3.5278  
G01 X3.9099  Y3.4051  
G01 X3.9574  Y3.2745  
G01 X3.9863  Y3.1386  
G01 X3.9960  Y3.0000  
G01 X3.9863  Y2.8614  
G01 X3.9574  Y2.7255  
G01 X3.9099  Y2.5949  
G01 X3.8447  Y2.4722  
G01 X3.7630  Y2.3598  
G01 X3.6665  Y2.2598  
G01 X3.5570  Y2.1743  
G01 X3.4366  Y2.1048  
G01 X3.3078  Y2.0527  
G01 X3.1730  Y2.0191  
G01 X3.0348  Y2.0046  
G01 X2.8959  Y2.0095  
G01 X2.7590  Y2.0336  
G01 X2.6269  Y2.0765  
G01 X2.5020  Y2.1374  
G01 X2.3868  Y2.2151  
G01 X2.2835  Y2.3081  
G00 Z2.9900  
G00 X13.5967 Y4.9905  
G01 Z-0.2000 F254   
G01 X15.4905 Y3.0967  F508   
G01 X15.6055 Y3.0303  
G01 X15.7336 Y2.9960  
G01 X43.3102 Y2.9960  
G01 X43.3102 Y1.8714  
G01 X43.3307 Y1.7949  
G01 X43.3703 Y1.7263  
G01 X43.4263 Y1.6703  
G01 X43.4949 Y1.6307  
G01 X43.5714 Y1.6102  
G01 X45.4286 Y1.6102  
G01 X45.5051 Y1.6307  
G01 X45.5737 Y1.6703  
G01 X45.6297 Y1.7263  
G01 X45.6693 Y1.7949  
G01 X45.6898 Y1.8714  
G01 X45.6898 Y3.7286  
G01 X45.6693 Y3.8051  
G01 X45.6297 Y3.8737  
G01 X45.5737 Y3.9297  
G01 X45.5051 Y3.9693  
G01 X45.4286 Y3.9898  
G01 X43.6279 Y3.9898  
G01 X43.6100 Y3.9963  
G01 X43.5878 Y3.9982  
G01 X43.5664 Y4.0040  
G01 X43.5220 Y4.0040  
G01 X43.4778 Y4.0079  
G01 X43.4559 Y4.0040  
G01 X16.0088 Y4.0040  
G01 X14.5040 Y5.5088  
G01 X14.5040 Y15.0664 
G01 X14.4696 Y15.1945 
G01 X14.4033 Y15.3095 
G01 X14.3095 Y15.4033 
G01 X8.3019  Y21.4109 
G01 X8.3562  Y21.5419 
G01 X8.3948  Y21.7360 
G01 X8.3948  Y21.9340 
G01 X8.3562  Y22.1281 
G01 X8.2804  Y22.3109 
G01 X8.1705  Y22.4755 
G01 X8.0305  Y22.6155 
G01 X7.8659  Y22.7254 
G01 X7.6831  Y22.8012 
G01 X7.4890  Y22.8398 
G01 X7.2910  Y22.8398 
G01 X7.0969  Y22.8012 
G01 X6.9140  Y22.7254 
G01 X6.7495  Y22.6155 
G01 X6.6095  Y22.4755 
G01 X6.4996  Y22.3109 
G01 X6.4238  Y22.1281 
G01 X6.3852  Y21.9340 
G01 X6.3852  Y21.7360 
G01 X6.4238  Y21.5419 
G01 X6.4996  Y21.3590 
G01 X6.6095  Y21.1945 
G01 X6.7495  Y21.0545 
G01 X6.9140  Y20.9446 
G01 X7.0969  Y20.8688 
G01 X7.2910  Y20.8302 
G01 X7.4570  Y20.8302 
G01 X13.4960 Y14.7912 
G01 X13.4960 Y5.2336  
G01 X13.5303 Y5.1055  
G01 X13.5967 Y4.9905  
G00 Z2.9900  
G00 X14.8967 Y5.5905  
G01 Z-0.2000 F254   
G01 X16.1440 Y4.3433  F508   
G01 X16.1901 Y4.2970  
G01 X16.2475 Y4.2638  
G01 X16.3050 Y4.2306  
G01 X16.3693 Y4.2133  
G01 X16.4331 Y4.1961  
G01 X16.4992 Y4.1960  
G01 X29.6133 Y4.1824  
G01 X29.6792 Y4.1823  
G01 X29.7457 Y4.1822  
G01 X55.2527 Y4.1823  
G01 X55.3808 Y4.2166  
G01 X55.4958 Y4.2830  
G01 X57.7088 Y6.4960  
G01 X58.2912 Y6.4960  
G01 X59.3467 Y5.4405  
G01 X59.4405 Y5.3467  
G01 X59.5555 Y5.2803  
G01 X59.6836 Y5.2460  
G01 X66.3164 Y5.2460  
G01 X66.4445 Y5.2803  
G01 X66.5595 Y5.3467  
G01 X66.6533 Y5.4405  
G01 X73.0000 Y11.7872 
G01 X79.5967 Y5.1905  
G01 X79.6905 Y5.0967  
G01 X79.8055 Y5.0303  
G01 X79.9336 Y4.9960  
G01 X95.5664 Y4.9960  
G01 X95.6945 Y5.0303  
G01 X95.8095 Y5.0967  
G01 X98.4033 Y7.6905  
G01 X98.4697 Y7.8055  
G01 X98.5040 Y7.9336  
G01 X98.5040 Y11.8164 
G01 X98.4697 Y11.9445 
G01 X98.4033 Y12.0595 
G01 X98.3095 Y12.1533 
G01 X98.2540 Y12.2088 
G01 X98.2540 Y56.0664 
G01 X98.2197 Y56.1945 
G01 X98.1533 Y56.3095 
G01 X87.4612 Y67.0015 
G01 X87.4869 Y67.0520 
G01 X87.5386 Y67.2111 
G01 X87.5648 Y67.3764 
G01 X87.5648 Y67.5436 
G01 X87.5386 Y67.7089 
G01 X87.4869 Y67.8680 
G01 X87.4110 Y68.0170 
G01 X87.3127 Y68.1524 
G01 X87.1944 Y68.2707 
G01 X87.0590 Y68.3690 
G01 X86.9100 Y68.4449 
G01 X86.7509 Y68.4966 
G01 X86.5856 Y68.5228 
G01 X84.8944 Y68.5228 
G01 X84.7291 Y68.4966 
G01 X84.5700 Y68.4449 
G01 X84.4210 Y68.3690 
G01 X84.2856 Y68.2707 
G01 X84.1673 Y68.1524 
G01 X84.0690 Y68.0170 
G01 X83.9931 Y67.8680 
G01 X83.9414 Y67.7089 
G01 X83.9152 Y67.5436 
G01 X83.9152 Y67.3764 
G01 X83.9414 Y67.2111 
G01 X83.9931 Y67.0520 
G01 X84.0690 Y66.9030 
G01 X84.1673 Y66.7676 
G01 X84.1810 Y66.7540 
G01 X81.5085 Y66.7540 
G01 X81.4507 Y66.7560 
G01 X81.4423 Y66.7540 
G01 X70.9588 Y66.7540 
G01 X67.1533 Y70.5595 
G01 X67.0595 Y70.6533 
G01 X66.9445 Y70.7197 
G01 X66.8164 Y70.7540 
G01 X66.4898 Y70.7540 
G01 X66.4898 Y71.6786 
G01 X66.4693 Y71.7551 
G01 X66.4297 Y71.8237 
G01 X66.3737 Y71.8797 
G01 X66.3051 Y71.9193 
G01 X66.2286 Y71.9398 
G01 X64.3714 Y71.9398 
G01 X64.2949 Y71.9193 
G01 X64.2263 Y71.8797 
G01 X64.1703 Y71.8237 
G01 X64.1307 Y71.7551 
G01 X64.1102 Y71.6786 
G01 X64.1102 Y69.8214 
G01 X64.1307 Y69.7449 
G01 X64.1703 Y69.6763 
G01 X64.2263 Y69.6203 
G01 X64.2949 Y69.5807 
G01 X64.3714 Y69.5602 
G01 X64.8565 Y69.5602 
G01 X64.8967 Y69.4905 
G01 X64.9905 Y69.3967 
G01 X65.1055 Y69.3303 
G01 X65.2336 Y69.2960 
G01 X65.3664 Y69.2960 
G01 X65.4945 Y69.3303 
G01 X65.6095 Y69.3967 
G01 X65.7033 Y69.4905 
G01 X65.7435 Y69.5602 
G01 X66.2286 Y69.5602 
G01 X66.3051 Y69.5807 
G01 X66.3737 Y69.6203 
G01 X66.4297 Y69.6763 
G01 X66.4693 Y69.7449 
G01 X66.5412 Y69.7460 
G01 X70.4405 Y65.8467 
G01 X70.5555 Y65.7803 
G01 X70.6836 Y65.7460 
G01 X79.3316 Y65.7460 
G01 X79.2974 Y65.6787 
G01 X79.2395 Y65.5006 
G01 X79.2102 Y65.3156 
G01 X79.2102 Y65.1284 
G01 X79.2395 Y64.9434 
G01 X79.2974 Y64.7653 
G01 X79.3824 Y64.5984 
G01 X79.4925 Y64.4469 
G01 X79.6249 Y64.3145 
G01 X79.7764 Y64.2044 
G01 X79.9433 Y64.1194 
G01 X80.1214 Y64.0615 
G01 X80.3064 Y64.0322 
G01 X80.4936 Y64.0322 
G01 X80.6786 Y64.0615 
G01 X80.8567 Y64.1194 
G01 X81.0236 Y64.2044 
G01 X81.1751 Y64.3145 
G01 X81.3075 Y64.4469 
G01 X81.4176 Y64.5984 
G01 X81.5026 Y64.7653 
G01 X81.5605 Y64.9434 
G01 X81.5898 Y65.1284 
G01 X81.5898 Y65.3156 
G01 X81.5605 Y65.5006 
G01 X81.5316 Y65.5897 
G01 X81.6988 Y65.7460 
G01 X85.5664 Y65.7460 
G01 X85.6945 Y65.7803 
G01 X85.8095 Y65.8467 
G01 X86.2088 Y66.2460 
G01 X86.2339 Y66.2419 
G01 X86.3660 Y66.2551 
G01 X86.4901 Y66.3019 
G01 X86.5979 Y66.3794 
G01 X86.6165 Y66.4021 
G01 X86.6326 Y66.4046 
G01 X97.2460 Y55.7912 
G01 X97.2460 Y11.9336 
G01 X97.2803 Y11.8055 
G01 X97.3467 Y11.6905 
G01 X97.4960 Y11.5412 
G01 X97.4960 Y8.2088  
G01 X95.2912 Y6.0040  
G01 X80.2088 Y6.0040  
G01 X73.7128 Y12.5000 
G01 X81.1250 Y19.9122 
G01 X81.4023 Y19.6349 
G01 X81.0902 Y19.3228 
G01 X81.0902 Y18.3372 
G01 X81.7872 Y17.6402 
G01 X82.7728 Y17.6402 
G01 X83.4698 Y18.3372 
G01 X83.4698 Y19.3228 
G01 X82.7728 Y20.0198 
G01 X82.7326 Y20.0198 
G01 X85.3300 Y22.6172 
G01 X86.5856 Y22.6172 
G01 X86.7509 Y22.6434 
G01 X86.9100 Y22.6951 
G01 X87.0590 Y22.7710 
G01 X87.1944 Y22.8693 
G01 X87.3127 Y22.9876 
G01 X87.4110 Y23.1230 
G01 X87.4869 Y23.2720 
G01 X87.5386 Y23.4311 
G01 X87.5648 Y23.5964 
G01 X87.5648 Y23.7636 
G01 X87.5386 Y23.9289 
G01 X87.4869 Y24.0880 
G01 X87.4110 Y24.2370 
G01 X87.3127 Y24.3724 
G01 X87.1944 Y24.4907 
G01 X87.0590 Y24.5890 
G01 X86.9100 Y24.6649 
G01 X86.7509 Y24.7166 
G01 X86.5856 Y24.7428 
G01 X84.8944 Y24.7428 
G01 X84.7291 Y24.7166 
G01 X84.5700 Y24.6649 
G01 X84.4210 Y24.5890 
G01 X84.2856 Y24.4907 
G01 X84.1673 Y24.3724 
G01 X84.0690 Y24.2370 
G01 X83.9931 Y24.0880 
G01 X83.9414 Y23.9289 
G01 X83.9152 Y23.7636 
G01 X83.9152 Y23.5964 
G01 X83.9414 Y23.4311 
G01 X83.9931 Y23.2720 
G01 X84.0690 Y23.1230 
G01 X84.1673 Y22.9876 
G01 X84.2211 Y22.9339 
G01 X81.8750 Y20.5878 
G01 X81.5283 Y20.9345 
G01 X81.4941 Y20.9686 
G01 X81.5026 Y20.9853 
G01 X81.5605 Y21.1634 
G01 X81.5898 Y21.3484 
G01 X81.5898 Y21.5356 
G01 X81.5605 Y21.7206 
G01 X81.5026 Y21.8987 
G01 X81.4176 Y22.0656 
G01 X81.3075 Y22.2171 
G01 X81.1751 Y22.3495 
G01 X81.0236 Y22.4596 
G01 X80.9407 Y22.5019 
G01 X80.9383 Y22.5076 
G01 X80.9190 Y22.5323 
G01 X80.9033 Y22.5595 
G01 X80.8783 Y22.5844 
G01 X80.8567 Y22.6122 
G01 X80.8316 Y22.6311 
G01 X80.8095 Y22.6533 
G01 X80.7789 Y22.6709 
G01 X80.7507 Y22.6922 
G01 X80.7217 Y22.7040 
G01 X80.6945 Y22.7197 
G01 X80.6605 Y22.7288 
G01 X80.6278 Y22.7420 
G01 X80.5966 Y22.7459 
G01 X80.5664 Y22.7540 
G01 X80.5311 Y22.7540 
G01 X80.4960 Y22.7583 
G01 X80.4650 Y22.7540 
G01 X80.4336 Y22.7540 
G01 X80.3996 Y22.7449 
G01 X80.3646 Y22.7400 
G01 X80.3357 Y22.7278 
G01 X80.3055 Y22.7197 
G01 X80.2749 Y22.7020 
G01 X80.2424 Y22.6883 
G01 X80.2177 Y22.6690 
G01 X80.1905 Y22.6533 
G01 X80.1656 Y22.6283 
G01 X80.1378 Y22.6067 
G01 X80.1214 Y22.6025 
G01 X79.9433 Y22.5446 
G01 X79.7764 Y22.4596 
G01 X79.6249 Y22.3495 
G01 X79.4925 Y22.2171 
G01 X79.3824 Y22.0656 
G01 X79.2974 Y21.8987 
G01 X79.2395 Y21.7206 
G01 X79.2102 Y21.5356 
G01 X79.2102 Y21.3484 
G01 X79.2395 Y21.1634 
G01 X79.2974 Y20.9853 
G01 X79.3824 Y20.8184 
G01 X79.4925 Y20.6669 
G01 X79.6249 Y20.5345 
G01 X79.7764 Y20.4244 
G01 X79.9433 Y20.3394 
G01 X80.0816 Y20.2944 
G01 X72.6905 Y12.9033 
G01 X72.5967 Y12.8095 
G01 X66.0412 Y6.2540  
G01 X59.9588 Y6.2540  
G01 X58.8095 Y7.4033  
G01 X58.6945 Y7.4696  
G01 X58.5664 Y7.5040  
G01 X58.0040 Y7.5040  
G01 X58.0040 Y9.7200  
G01 X58.0953 Y9.7578  
G01 X58.2527 Y9.8630  
G01 X58.3866 Y9.9969  
G01 X58.4918 Y10.1543 
G01 X58.5643 Y10.3292 
G01 X58.6012 Y10.5149 
G01 X58.6012 Y12.0251 
G01 X58.5643 Y12.2108 
G01 X58.4918 Y12.3857 
G01 X58.3866 Y12.5431 
G01 X58.2527 Y12.6770 
G01 X58.0953 Y12.7822 
G01 X57.9204 Y12.8547 
G01 X57.7347 Y12.8916 
G01 X57.5453 Y12.8916 
G01 X57.3596 Y12.8547 
G01 X57.1847 Y12.7822 
G01 X57.0273 Y12.6770 
G01 X56.8934 Y12.5431 
G01 X56.7882 Y12.3857 
G01 X56.7157 Y12.2108 
G01 X56.6788 Y12.0251 
G01 X56.6788 Y10.5149 
G01 X56.7157 Y10.3292 
G01 X56.7882 Y10.1543 
G01 X56.8934 Y9.9969  
G01 X56.9960 Y9.8943  
G01 X56.9960 Y7.2088  
G01 X54.9775 Y5.1903  
G01 X29.8887 Y5.1903  
G01 X27.5804 Y7.4986  
G01 X27.5804 Y9.8147  
G01 X27.6527 Y9.8630  
G01 X27.7866 Y9.9969  
G01 X27.8918 Y10.1543 
G01 X27.9643 Y10.3292 
G01 X28.0012 Y10.5149 
G01 X28.0012 Y12.0251 
G01 X27.9643 Y12.2108 
G01 X27.8918 Y12.3857 
G01 X27.7866 Y12.5431 
G01 X27.6527 Y12.6770 
G01 X27.4953 Y12.7822 
G01 X27.3204 Y12.8547 
G01 X27.1347 Y12.8916 
G01 X26.9453 Y12.8916 
G01 X26.7596 Y12.8547 
G01 X26.5847 Y12.7822 
G01 X26.4273 Y12.6770 
G01 X26.2934 Y12.5431 
G01 X26.1882 Y12.3857 
G01 X26.1157 Y12.2108 
G01 X26.0788 Y12.0251 
G01 X26.0788 Y10.5149 
G01 X26.1157 Y10.3292 
G01 X26.1882 Y10.1543 
G01 X26.2934 Y9.9969  
G01 X26.4273 Y9.8630  
G01 X26.5724 Y9.7660  
G01 X26.5724 Y7.2234  
G01 X26.6067 Y7.0953  
G01 X26.6731 Y6.9803  
G01 X28.4619 Y5.1916  
G01 X16.7090 Y5.2038  
G01 X15.8040 Y6.1088  
G01 X15.8040 Y29.7721 
G01 X15.8082 Y29.8103 
G01 X15.8040 Y29.8382 
G01 X15.8040 Y29.8664 
G01 X15.7940 Y29.9035 
G01 X15.7883 Y29.9415 
G01 X15.7769 Y29.9673 
G01 X15.7697 Y29.9945 
G01 X15.7504 Y30.0278 
G01 X15.7350 Y30.0630 
G01 X15.7174 Y30.0850 
G01 X15.7033 Y30.1095 
G01 X15.6761 Y30.1366 
G01 X13.0508 Y33.4183 
G01 X13.0508 Y36.2161 
G01 X13.1051 Y36.2307 
G01 X13.1737 Y36.2703 
G01 X13.2297 Y36.3263 
G01 X13.2693 Y36.3949 
G01 X13.2898 Y36.4714 
G01 X13.2898 Y38.3286 
G01 X13.2693 Y38.4051 
G01 X13.2297 Y38.4737 
G01 X13.1737 Y38.5297 
G01 X13.1051 Y38.5693 
G01 X13.0286 Y38.5898 
G01 X11.1714 Y38.5898 
G01 X11.0949 Y38.5693 
G01 X11.0263 Y38.5297 
G01 X10.9703 Y38.4737 
G01 X10.9307 Y38.4051 
G01 X10.9102 Y38.3286 
G01 X10.9102 Y36.4714 
G01 X10.9307 Y36.3949 
G01 X10.9703 Y36.3263 
G01 X11.0263 Y36.2703 
G01 X11.0949 Y36.2307 
G01 X11.1714 Y36.2102 
G01 X11.9492 Y36.2102 
G01 X11.9492 Y33.2275 
G01 X11.9867 Y33.0874 
G01 X12.0593 Y32.9618 
G01 X12.1618 Y32.8593 
G01 X12.2461 Y32.8106 
G01 X14.7960 Y29.6232 
G01 X14.7960 Y5.8336  
G01 X14.8303 Y5.7055  
G01 X14.8967 Y5.5905  
G00 Z2.9900  
G00 X15.8702 Y7.0072  
G01 Z-0.2000 F254   
G01 X16.5672 Y6.3102  F508   
G01 X17.5528 Y6.3102  
G01 X18.2498 Y7.0072  
G01 X18.2498 Y7.9928  
G01 X17.5528 Y8.6898  
G01 X17.0040 Y8.6898  
G01 X17.0040 Y30.1740 
G01 X17.0082 Y30.2141 
G01 X17.0040 Y30.2401 
G01 X17.0040 Y30.2664 
G01 X16.9936 Y30.3053 
G01 X16.9872 Y30.3452 
G01 X16.9764 Y30.3692 
G01 X16.9697 Y30.3945 
G01 X16.9495 Y30.4295 
G01 X16.9330 Y30.4663 
G01 X16.9164 Y30.4867 
G01 X16.9033 Y30.5095 
G01 X16.8748 Y30.5380 
G01 X14.4040 Y33.5789 
G01 X14.4040 Y42.5664 
G01 X14.3697 Y42.6945 
G01 X14.3033 Y42.8095 
G01 X14.2095 Y42.9033 
G01 X14.0945 Y42.9697 
G01 X13.9664 Y43.0040 
G01 X13.1040 Y43.0040 
G01 X13.1040 Y44.4102 
G01 X13.5286 Y44.4102 
G01 X13.6051 Y44.4307 
G01 X13.6737 Y44.4703 
G01 X13.7297 Y44.5263 
G01 X13.7693 Y44.5949 
G01 X13.7898 Y44.6714 
G01 X13.7898 Y46.5286 
G01 X13.7693 Y46.6051 
G01 X13.7297 Y46.6737 
G01 X13.6737 Y46.7297 
G01 X13.6051 Y46.7693 
G01 X13.5286 Y46.7898 
G01 X11.6714 Y46.7898 
G01 X11.5949 Y46.7693 
G01 X11.5263 Y46.7297 
G01 X11.4703 Y46.6737 
G01 X11.4307 Y46.6051 
G01 X11.4102 Y46.5286 
G01 X11.4102 Y44.6714 
G01 X11.4307 Y44.5949 
G01 X11.4703 Y44.5263 
G01 X11.5263 Y44.4703 
G01 X11.5949 Y44.4307 
G01 X11.6714 Y44.4102 
G01 X12.0960 Y44.4102 
G01 X12.0960 Y43.0040 
G01 X11.9336 Y43.0040 
G01 X11.8055 Y42.9697 
G01 X11.6905 Y42.9033 
G01 X11.5967 Y42.8095 
G01 X9.2912  Y40.5040 
G01 X7.9710  Y40.5040 
G01 X7.8844  Y40.5907 
G01 X7.7490  Y40.6890 
G01 X7.6000  Y40.7649 
G01 X7.4409  Y40.8166 
G01 X7.2756  Y40.8428 
G01 X5.5844  Y40.8428 
G01 X5.4191  Y40.8166 
G01 X5.2600  Y40.7649 
G01 X5.1110  Y40.6890 
G01 X4.9756  Y40.5907 
G01 X4.8573  Y40.4724 
G01 X4.7590  Y40.3370 
G01 X4.6831  Y40.1880 
G01 X4.6314  Y40.0289 
G01 X4.6052  Y39.8636 
G01 X4.6052  Y39.6964 
G01 X4.6314  Y39.5311 
G01 X4.6831  Y39.3720 
G01 X4.7590  Y39.2230 
G01 X4.8573  Y39.0876 
G01 X4.9756  Y38.9693 
G01 X5.1110  Y38.8710 
G01 X5.2600  Y38.7951 
G01 X5.4191  Y38.7434 
G01 X5.5844  Y38.7172 
G01 X7.2756  Y38.7172 
G01 X7.4409  Y38.7434 
G01 X7.6000  Y38.7951 
G01 X7.7490  Y38.8710 
G01 X7.8844  Y38.9693 
G01 X8.0027  Y39.0876 
G01 X8.1010  Y39.2230 
G01 X8.1769  Y39.3720 
G01 X8.2172  Y39.4960 
G01 X9.5664  Y39.4960 
G01 X9.6945  Y39.5303 
G01 X9.8095  Y39.5967 
G01 X12.2088 Y41.9960 
G01 X13.3960 Y41.9960 
G01 X13.3960 Y33.4260 
G01 X13.3918 Y33.3859 
G01 X13.3960 Y33.3599 
G01 X13.3960 Y33.3336 
G01 X13.4064 Y33.2947 
G01 X13.4128 Y33.2548 
G01 X13.4235 Y33.2308 
G01 X13.4303 Y33.2055 
G01 X13.4505 Y33.1705 
G01 X13.4670 Y33.1337 
G01 X13.4836 Y33.1133 
G01 X13.4967 Y33.0905 
G01 X13.5252 Y33.0620 
G01 X15.9960 Y30.0211 
G01 X15.9960 Y8.1186  
G01 X15.8702 Y7.9928  
G01 X15.8702 Y7.0072  
G00 Z2.9900  
G00 X20.9502 Y7.0072  
G01 Z-0.2000 F254   
G01 X21.6472 Y6.3102  F508   
G01 X22.6328 Y6.3102  
G01 X23.1084 Y6.7858  
G01 X23.5416 Y6.7858  
G01 X24.0172 Y6.3102  
G01 X25.0028 Y6.3102  
G01 X25.6998 Y7.0072  
G01 X25.6998 Y7.9928  
G01 X25.0028 Y8.6898  
G01 X24.9769 Y8.6898  
G01 X24.9769 Y9.7722  
G01 X25.1127 Y9.8630  
G01 X25.2466 Y9.9969  
G01 X25.3518 Y10.1543 
G01 X25.4243 Y10.3292 
G01 X25.4612 Y10.5149 
G01 X25.4612 Y12.0251 
G01 X25.4243 Y12.2108 
G01 X25.3518 Y12.3857 
G01 X25.2466 Y12.5431 
G01 X25.1127 Y12.6770 
G01 X24.9553 Y12.7822 
G01 X24.7804 Y12.8547 
G01 X24.5947 Y12.8916 
G01 X24.4053 Y12.8916 
G01 X24.2196 Y12.8547 
G01 X24.0447 Y12.7822 
G01 X23.8873 Y12.6770 
G01 X23.7534 Y12.5431 
G01 X23.6482 Y12.3857 
G01 X23.5757 Y12.2108 
G01 X23.5388 Y12.0251 
G01 X23.5388 Y10.5149 
G01 X23.5757 Y10.3292 
G01 X23.6482 Y10.1543 
G01 X23.7534 Y9.9969  
G01 X23.8873 Y9.8630  
G01 X23.9689 Y9.8084  
G01 X23.9689 Y8.6415  
G01 X23.3250 Y7.9976  
G01 X22.6328 Y8.6898  
G01 X21.6472 Y8.6898  
G01 X20.9502 Y7.9928  
G01 X20.9502 Y7.0072  
G00 Z2.9900  
G00 X21.2134 Y9.9969  
G01 Z-0.2000 F254   
G01 X21.3473 Y9.8630  F508   
G01 X21.5047 Y9.7578  
G01 X21.6796 Y9.6853  
G01 X21.8653 Y9.6484  
G01 X22.0547 Y9.6484  
G01 X22.2404 Y9.6853  
G01 X22.4153 Y9.7578  
G01 X22.5727 Y9.8630  
G01 X22.7066 Y9.9969  
G01 X22.8118 Y10.1543 
G01 X22.8843 Y10.3292 
G01 X22.9212 Y10.5149 
G01 X22.9212 Y12.0251 
G01 X22.8843 Y12.2108 
G01 X22.8645 Y12.2584 
G01 X23.9163 Y13.3102 
G01 X24.8928 Y13.3102 
G01 X25.5898 Y14.0072 
G01 X25.5898 Y14.9928 
G01 X24.8928 Y15.6898 
G01 X23.9072 Y15.6898 
G01 X23.2102 Y14.9928 
G01 X23.2102 Y14.0297 
G01 X22.0692 Y12.8887 
G01 X22.0547 Y12.8916 
G01 X21.8653 Y12.8916 
G01 X21.6796 Y12.8547 
G01 X21.5047 Y12.7822 
G01 X21.3473 Y12.6770 
G01 X21.2134 Y12.5431 
G01 X21.1082 Y12.3857 
G01 X21.0357 Y12.2108 
G01 X20.9988 Y12.0251 
G01 X20.9988 Y11.9594 
G01 X20.3812 Y11.9594 
G01 X20.3812 Y12.0251 
G01 X20.3443 Y12.2108 
G01 X20.2718 Y12.3857 
G01 X20.1666 Y12.5431 
G01 X20.0327 Y12.6770 
G01 X19.8753 Y12.7822 
G01 X19.7004 Y12.8547 
G01 X19.5147 Y12.8916 
G01 X19.3253 Y12.8916 
G01 X19.1396 Y12.8547 
G01 X18.9647 Y12.7822 
G01 X18.8073 Y12.6770 
G01 X18.6734 Y12.5431 
G01 X18.5682 Y12.3857 
G01 X18.4957 Y12.2108 
G01 X18.4588 Y12.0251 
G01 X18.4588 Y10.5149 
G01 X18.4957 Y10.3292 
G01 X18.5682 Y10.1543 
G01 X18.6734 Y9.9969  
G01 X18.8073 Y9.8630  
G01 X18.9647 Y9.7578  
G01 X19.1396 Y9.6853  
G01 X19.3253 Y9.6484  
G01 X19.5147 Y9.6484  
G01 X19.7004 Y9.6853  
G01 X19.8753 Y9.7578  
G01 X20.0327 Y9.8630  
G01 X20.1666 Y9.9969  
G01 X20.2718 Y10.1543 
G01 X20.3443 Y10.3292 
G01 X20.3812 Y10.5149 
G01 X20.3812 Y10.9514 
G01 X20.9988 Y10.9514 
G01 X20.9988 Y10.5149 
G01 X21.0357 Y10.3292 
G01 X21.1082 Y10.1543 
G01 X21.2134 Y9.9969  
G00 Z2.9900  
G00 X28.8334 Y9.9969  
G01 Z-0.2000 F254   
G01 X28.9673 Y9.8630  F508   
G01 X29.1247 Y9.7578  
G01 X29.1759 Y9.7366  
G01 X29.1759 Y8.6898  
G01 X29.0972 Y8.6898  
G01 X28.4002 Y7.9928  
G01 X28.4002 Y7.0072  
G01 X29.0972 Y6.3102  
G01 X29.9467 Y6.3102  
G01 X30.8387 Y5.4182  
G01 X30.9325 Y5.3244  
G01 X31.0475 Y5.2580  
G01 X31.1756 Y5.2237  
G01 X41.5928 Y5.2237  
G01 X41.5959 Y5.2229  
G01 X41.6590 Y5.2237  
G01 X41.7224 Y5.2237  
G01 X41.7254 Y5.2245  
G01 X41.7286 Y5.2246  
G01 X41.7894 Y5.2417  
G01 X41.8505 Y5.2580  
G01 X41.8533 Y5.2596  
G01 X41.8563 Y5.2605  
G01 X41.9107 Y5.2928  
G01 X41.9655 Y5.3244  
G01 X41.9704 Y5.3282  
G01 X42.0146 Y5.3735  
G01 X42.0593 Y5.4182  
G01 X42.0609 Y5.4210  
G01 X42.0940 Y5.4784  
G01 X42.1257 Y5.5332  
G01 X42.1265 Y5.5362  
G01 X48.0858 Y16.1584 
G01 X53.6985 Y16.1584 
G01 X53.8266 Y16.1927 
G01 X53.9416 Y16.2591 
G01 X54.9599 Y17.2774 
G01 X55.0053 Y17.2684 
G01 X55.1947 Y17.2684 
G01 X55.2565 Y17.2807 
G01 X58.9405 Y13.5967 
G01 X59.0555 Y13.5303 
G01 X59.1836 Y13.4960 
G01 X59.9960 Y13.4960 
G01 X59.9960 Y12.8738 
G01 X59.8996 Y12.8547 
G01 X59.7247 Y12.7822 
G01 X59.5673 Y12.6770 
G01 X59.4334 Y12.5431 
G01 X59.3282 Y12.3857 
G01 X59.2557 Y12.2108 
G01 X59.2188 Y12.0251 
G01 X59.2188 Y10.5149 
G01 X59.2557 Y10.3292 
G01 X59.3282 Y10.1543 
G01 X59.4334 Y9.9969  
G01 X59.5673 Y9.8630  
G01 X59.7247 Y9.7578  
G01 X59.8996 Y9.6853  
G01 X60.0853 Y9.6484  
G01 X60.2747 Y9.6484  
G01 X60.4604 Y9.6853  
G01 X60.6353 Y9.7578  
G01 X60.7927 Y9.8630  
G01 X60.9266 Y9.9969  
G01 X61.0318 Y10.1543 
G01 X61.1043 Y10.3292 
G01 X61.1412 Y10.5149 
G01 X61.1412 Y12.0251 
G01 X61.1043 Y12.2108 
G01 X61.0318 Y12.3857 
G01 X61.0040 Y12.4273 
G01 X61.0040 Y13.3102 
G01 X61.9528 Y13.3102 
G01 X62.6386 Y13.9960 
G01 X64.7912 Y13.9960 
G01 X66.1905 Y12.5967 
G01 X66.3055 Y12.5303 
G01 X66.4336 Y12.4960 
G01 X71.7250 Y12.4960 
G01 X71.7662 Y12.4919 
G01 X71.7911 Y12.4960 
G01 X71.8164 Y12.4960 
G01 X71.8563 Y12.5067 
G01 X71.8671 Y12.5085 
G01 X71.9038 Y12.5040 
G01 X71.9336 Y12.4960 
G01 X71.9694 Y12.4960 
G01 X72.0048 Y12.4917 
G01 X72.0354 Y12.4960 
G01 X72.0664 Y12.4960 
G01 X72.1009 Y12.5052 
G01 X72.1362 Y12.5102 
G01 X72.1647 Y12.5223 
G01 X72.1945 Y12.5303 
G01 X72.2255 Y12.5482 
G01 X72.2583 Y12.5622 
G01 X72.2827 Y12.5812 
G01 X72.3095 Y12.5967 
G01 X72.3347 Y12.6220 
G01 X72.3628 Y12.6440 
G01 X72.3814 Y12.6687 
G01 X73.9033 Y14.1905 
G01 X73.9697 Y14.3055 
G01 X74.0040 Y14.4336 
G01 X74.0040 Y17.5412 
G01 X80.2073 Y23.7445 
G01 X80.2160 Y23.7428 
G01 X80.2661 Y23.7460 
G01 X80.3164 Y23.7460 
G01 X80.3321 Y23.7502 
G01 X80.3484 Y23.7513 
G01 X80.3960 Y23.7673 
G01 X80.4445 Y23.7803 
G01 X80.4587 Y23.7885 
G01 X80.4741 Y23.7937 
G01 X80.4959 Y23.8082 
G01 X80.8928 Y23.8082 
G01 X81.5898 Y24.5052 
G01 X81.5898 Y25.4908 
G01 X81.3346 Y25.7460 
G01 X84.0267 Y25.7460 
G01 X84.0690 Y25.6630 
G01 X84.1673 Y25.5276 
G01 X84.2856 Y25.4093 
G01 X84.4210 Y25.3110 
G01 X84.5700 Y25.2351 
G01 X84.7291 Y25.1834 
G01 X84.8944 Y25.1572 
G01 X86.5856 Y25.1572 
G01 X86.7509 Y25.1834 
G01 X86.8286 Y25.2086 
G01 X87.7460 Y24.2912 
G01 X87.7460 Y15.2088 
G01 X85.7284 Y13.1912 
G01 X85.1019 Y13.1912 
G01 X84.6647 Y12.7540 
G01 X81.6898 Y12.7540 
G01 X81.6898 Y13.2708 
G01 X80.9928 Y13.9678 
G01 X80.0072 Y13.9678 
G01 X79.3102 Y13.2708 
G01 X79.3102 Y12.2852 
G01 X79.4413 Y12.1541 
G01 X78.0967 Y10.8095 
G01 X78.0303 Y10.6945 
G01 X77.9960 Y10.5664 
G01 X77.9960 Y8.4336  
G01 X78.0303 Y8.3055  
G01 X78.0967 Y8.1905  
G01 X78.1905 Y8.0967  
G01 X79.6905 Y6.5967  
G01 X79.8055 Y6.5303  
G01 X79.9336 Y6.4960  
G01 X90.5664 Y6.4960  
G01 X90.6945 Y6.5303  
G01 X90.8095 Y6.5967  
G01 X90.9033 Y6.6905  
G01 X93.7088 Y9.4960  
G01 X94.6992 Y9.4960  
G01 X94.6992 Y8.8976  
G01 X94.7312 Y8.6954  
G01 X94.7945 Y8.5007  
G01 X94.8875 Y8.3182  
G01 X95.0078 Y8.1526  
G01 X95.1526 Y8.0078  
G01 X95.3182 Y7.8875  
G01 X95.5007 Y7.7945  
G01 X95.6954 Y7.7312  
G01 X95.8976 Y7.6992  
G01 X96.1024 Y7.6992  
G01 X96.3046 Y7.7312  
G01 X96.4993 Y7.7945  
G01 X96.6818 Y7.8875  
G01 X96.8474 Y8.0078  
G01 X96.9922 Y8.1526  
G01 X97.1125 Y8.3182  
G01 X97.2055 Y8.5007  
G01 X97.2688 Y8.6954  
G01 X97.3008 Y8.8976  
G01 X97.3008 Y11.1024 
G01 X97.2688 Y11.3046 
G01 X97.2055 Y11.4993 
G01 X97.1125 Y11.6818 
G01 X96.9922 Y11.8474 
G01 X96.8474 Y11.9922 
G01 X96.6818 Y12.1125 
G01 X96.4993 Y12.2055 
G01 X96.3046 Y12.2688 
G01 X96.1732 Y12.2896 
G01 X94.7359 Y13.7268 
G01 X94.8474 Y13.8078 
G01 X94.9922 Y13.9526 
G01 X95.1125 Y14.1182 
G01 X95.2055 Y14.3007 
G01 X95.2688 Y14.4954 
G01 X95.3008 Y14.6976 
G01 X95.3008 Y14.9024 
G01 X95.2688 Y15.1046 
G01 X95.2055 Y15.2993 
G01 X95.1125 Y15.4818 
G01 X94.9922 Y15.6474 
G01 X94.8474 Y15.7922 
G01 X94.6818 Y15.9125 
G01 X94.4993 Y16.0055 
G01 X94.3046 Y16.0688 
G01 X94.1024 Y16.1008 
G01 X91.8976 Y16.1008 
G01 X91.6954 Y16.0688 
G01 X91.5007 Y16.0055 
G01 X91.3182 Y15.9125 
G01 X91.1526 Y15.7922 
G01 X91.0078 Y15.6474 
G01 X90.8875 Y15.4818 
G01 X90.7945 Y15.2993 
G01 X90.7312 Y15.1046 
G01 X90.6992 Y14.9024 
G01 X90.6992 Y14.6976 
G01 X90.7312 Y14.4954 
G01 X90.7945 Y14.3007 
G01 X90.8875 Y14.1182 
G01 X91.0078 Y13.9526 
G01 X91.1526 Y13.8078 
G01 X91.3182 Y13.6875 
G01 X91.5007 Y13.5945 
G01 X91.6954 Y13.5312 
G01 X91.8976 Y13.4992 
G01 X93.5380 Y13.4992 
G01 X95.0988 Y11.9384 
G01 X95.0078 Y11.8474 
G01 X94.8875 Y11.6818 
G01 X94.7945 Y11.4993 
G01 X94.7312 Y11.3046 
G01 X94.6992 Y11.1024 
G01 X94.6992 Y10.5040 
G01 X93.4336 Y10.5040 
G01 X93.3055 Y10.4696 
G01 X93.1905 Y10.4033 
G01 X90.2912 Y7.5040  
G01 X80.2088 Y7.5040  
G01 X79.0040 Y8.7088  
G01 X79.0040 Y10.2912 
G01 X80.3010 Y11.5882 
G01 X80.9928 Y11.5882 
G01 X81.1506 Y11.7460 
G01 X84.6247 Y11.7460 
G01 X85.1019 Y11.2688 
G01 X85.8981 Y11.2688 
G01 X86.4612 Y11.8319 
G01 X86.4612 Y12.4984 
G01 X88.5595 Y14.5967 
G01 X88.6533 Y14.6905 
G01 X88.7197 Y14.8055 
G01 X88.7540 Y14.9336 
G01 X88.7540 Y24.5664 
G01 X88.7197 Y24.6945 
G01 X88.6533 Y24.8095 
G01 X87.5271 Y25.9357 
G01 X87.5386 Y25.9711 
G01 X87.5648 Y26.1364 
G01 X87.5648 Y26.3036 
G01 X87.5386 Y26.4689 
G01 X87.4869 Y26.6280 
G01 X87.4110 Y26.7770 
G01 X87.3127 Y26.9124 
G01 X87.1944 Y27.0307 
G01 X87.0590 Y27.1290 
G01 X86.9100 Y27.2049 
G01 X86.7509 Y27.2566 
G01 X86.5856 Y27.2828 
G01 X84.8944 Y27.2828 
G01 X84.7291 Y27.2566 
G01 X84.5700 Y27.2049 
G01 X84.4210 Y27.1290 
G01 X84.2856 Y27.0307 
G01 X84.1673 Y26.9124 
G01 X84.0690 Y26.7770 
G01 X84.0573 Y26.7540 
G01 X81.3946 Y26.7540 
G01 X81.5898 Y26.9492 
G01 X81.5898 Y27.9348 
G01 X80.8928 Y28.6318 
G01 X79.9072 Y28.6318 
G01 X79.8691 Y28.5937 
G01 X79.0040 Y29.4588 
G01 X79.0040 Y31.5412 
G01 X86.2088 Y38.7460 
G01 X87.5664 Y38.7460 
G01 X87.6945 Y38.7803 
G01 X87.8095 Y38.8467 
G01 X88.8095 Y39.8467 
G01 X88.9033 Y39.9405 
G01 X88.9697 Y40.0555 
G01 X89.0040 Y40.1836 
G01 X89.0040 Y43.8164 
G01 X88.9697 Y43.9445 
G01 X88.9033 Y44.0595 
G01 X87.4680 Y45.4948 
G01 X87.4869 Y45.5320 
G01 X87.5386 Y45.6911 
G01 X87.5648 Y45.8564 
G01 X87.5648 Y46.0236 
G01 X87.5386 Y46.1889 
G01 X87.4869 Y46.3480 
G01 X87.4110 Y46.4970 
G01 X87.3127 Y46.6324 
G01 X87.1944 Y46.7507 
G01 X87.0590 Y46.8490 
G01 X86.9100 Y46.9249 
G01 X86.7509 Y46.9766 
G01 X86.5856 Y47.0028 
G01 X85.2100 Y47.0028 
G01 X84.9033 Y47.3095 
G01 X84.8095 Y47.4033 
G01 X84.6945 Y47.4697 
G01 X84.5664 Y47.5040 
G01 X84.2540 Y47.5040 
G01 X84.2540 Y51.4843 
G01 X84.3366 Y51.5669 
G01 X84.4418 Y51.7243 
G01 X84.5143 Y51.8992 
G01 X84.5512 Y52.0849 
G01 X84.5512 Y53.5951 
G01 X84.5143 Y53.7808 
G01 X84.4418 Y53.9557 
G01 X84.3366 Y54.1131 
G01 X84.2027 Y54.2470 
G01 X84.0453 Y54.3522 
G01 X83.8704 Y54.4247 
G01 X83.6847 Y54.4616 
G01 X83.4953 Y54.4616 
G01 X83.3096 Y54.4247 
G01 X83.1347 Y54.3522 
G01 X83.1202 Y54.3425 
G01 X80.0283 Y57.4345 
G01 X80.0040 Y57.4588 
G01 X80.0040 Y61.5412 
G01 X80.0283 Y61.5655 
G01 X80.7088 Y62.2460 
G01 X81.5412 Y62.2460 
G01 X82.6288 Y61.1584 
G01 X82.6288 Y59.7049 
G01 X82.6657 Y59.5192 
G01 X82.7382 Y59.3443 
G01 X82.8434 Y59.1869 
G01 X82.9773 Y59.0530 
G01 X83.1347 Y58.9478 
G01 X83.3096 Y58.8753 
G01 X83.4953 Y58.8384 
G01 X83.6847 Y58.8384 
G01 X83.8704 Y58.8753 
G01 X84.0453 Y58.9478 
G01 X84.2027 Y59.0530 
G01 X84.3366 Y59.1869 
G01 X84.4418 Y59.3443 
G01 X84.5143 Y59.5192 
G01 X84.5512 Y59.7049 
G01 X84.5512 Y61.2151 
G01 X84.5143 Y61.4008 
G01 X84.4418 Y61.5757 
G01 X84.3366 Y61.7331 
G01 X84.2027 Y61.8670 
G01 X84.0453 Y61.9722 
G01 X83.8704 Y62.0447 
G01 X83.6847 Y62.0816 
G01 X83.4953 Y62.0816 
G01 X83.3096 Y62.0447 
G01 X83.2095 Y62.0032 
G01 X82.1533 Y63.0595 
G01 X82.0595 Y63.1533 
G01 X81.9445 Y63.2197 
G01 X81.8164 Y63.2540 
G01 X80.4336 Y63.2540 
G01 X80.3055 Y63.2197 
G01 X80.1905 Y63.1533 
G01 X79.5412 Y62.5040 
G01 X73.7088 Y62.5040 
G01 X67.5595 Y68.6533 
G01 X67.4445 Y68.7197 
G01 X67.3164 Y68.7540 
G01 X65.0088 Y68.7540 
G01 X63.6040 Y70.1588 
G01 X63.6040 Y71.4412 
G01 X64.3088 Y72.1460 
G01 X66.1912 Y72.1460 
G01 X66.8467 Y71.4905 
G01 X66.9405 Y71.3967 
G01 X67.0555 Y71.3303 
G01 X67.1836 Y71.2960 
G01 X79.2102 Y71.2960 
G01 X79.2102 Y70.7292 
G01 X79.8960 Y70.0434 
G01 X79.8960 Y69.9566 
G01 X79.2102 Y69.2708 
G01 X79.2102 Y68.2852 
G01 X79.9072 Y67.5882 
G01 X80.8928 Y67.5882 
G01 X81.5898 Y68.2852 
G01 X81.5898 Y69.2708 
G01 X80.9040 Y69.9566 
G01 X80.9040 Y70.0434 
G01 X81.5898 Y70.7292 
G01 X81.5898 Y71.3438 
G01 X82.6434 Y71.9960 
G01 X84.0624 Y71.9960 
G01 X84.0690 Y71.9830 
G01 X84.1673 Y71.8476 
G01 X84.2856 Y71.7293 
G01 X84.4210 Y71.6310 
G01 X84.5700 Y71.5551 
G01 X84.7291 Y71.5034 
G01 X84.8944 Y71.4772 
G01 X86.5856 Y71.4772 
G01 X86.7509 Y71.5034 
G01 X86.9100 Y71.5551 
G01 X87.0590 Y71.6310 
G01 X87.1944 Y71.7293 
G01 X87.3127 Y71.8476 
G01 X87.4110 Y71.9830 
G01 X87.4869 Y72.1320 
G01 X87.5386 Y72.2911 
G01 X87.5648 Y72.4564 
G01 X87.5648 Y72.6236 
G01 X87.5386 Y72.7889 
G01 X87.4869 Y72.9480 
G01 X87.4110 Y73.0970 
G01 X87.3127 Y73.2324 
G01 X87.1944 Y73.3507 
G01 X87.0590 Y73.4490 
G01 X86.9100 Y73.5249 
G01 X86.7509 Y73.5766 
G01 X86.5856 Y73.6028 
G01 X84.8944 Y73.6028 
G01 X84.7291 Y73.5766 
G01 X84.5700 Y73.5249 
G01 X84.4210 Y73.4490 
G01 X84.2856 Y73.3507 
G01 X84.1673 Y73.2324 
G01 X84.0690 Y73.0970 
G01 X84.0216 Y73.0040 
G01 X82.5585 Y73.0040 
G01 X82.5508 Y73.0058 
G01 X82.4923 Y73.0040 
G01 X82.4336 Y73.0040 
G01 X82.4261 Y73.0020 
G01 X82.4182 Y73.0017 
G01 X82.3621 Y72.9848 
G01 X82.3055 Y72.9697 
G01 X82.2987 Y72.9657 
G01 X82.2911 Y72.9635 
G01 X82.2413 Y72.9326 
G01 X82.1905 Y72.9033 
G01 X82.1850 Y72.8977 
G01 X81.0867 Y72.2179 
G01 X80.8928 Y72.4118 
G01 X79.9072 Y72.4118 
G01 X79.7994 Y72.3040 
G01 X67.4588 Y72.3040 
G01 X66.8033 Y72.9595 
G01 X66.7095 Y73.0533 
G01 X66.5945 Y73.1196 
G01 X66.4664 Y73.1540 
G01 X64.0336 Y73.1540 
G01 X63.9055 Y73.1196 
G01 X63.7905 Y73.0533 
G01 X63.6967 Y72.9595 
G01 X62.7905 Y72.0533 
G01 X62.6967 Y71.9595 
G01 X62.6303 Y71.8445 
G01 X62.5960 Y71.7164 
G01 X62.5960 Y69.8836 
G01 X62.6303 Y69.7555 
G01 X62.6967 Y69.6405 
G01 X62.7905 Y69.5467 
G01 X64.3967 Y67.9405 
G01 X64.4905 Y67.8467 
G01 X64.6055 Y67.7803 
G01 X64.7336 Y67.7460 
G01 X67.0412 Y67.7460 
G01 X73.0967 Y61.6905 
G01 X73.1905 Y61.5967 
G01 X73.3055 Y61.5303 
G01 X73.4336 Y61.4960 
G01 X78.9960 Y61.4960 
G01 X78.9960 Y57.2088 
G01 X71.7912 Y50.0040 
G01 X63.9986 Y50.0040 
G01 X63.3528 Y50.6498 
G01 X62.3672 Y50.6498 
G01 X61.6879 Y49.9705 
G01 X61.0042 Y49.9705 
G01 X61.0022 Y49.9753 
G01 X60.8970 Y50.1327 
G01 X60.7631 Y50.2666 
G01 X60.6057 Y50.3718 
G01 X60.4308 Y50.4443 
G01 X60.2451 Y50.4812 
G01 X58.7349 Y50.4812 
G01 X58.5492 Y50.4443 
G01 X58.3743 Y50.3718 
G01 X58.2169 Y50.2666 
G01 X58.0830 Y50.1327 
G01 X57.9778 Y49.9753 
G01 X57.9053 Y49.8004 
G01 X57.8684 Y49.6147 
G01 X57.8684 Y49.4253 
G01 X57.9053 Y49.2396 
G01 X57.9778 Y49.0647 
G01 X58.0830 Y48.9073 
G01 X52.9966 Y43.8160 
G01 X52.7728 Y44.0398 
G01 X51.7872 Y44.0398 
G01 X51.0902 Y43.3428 
G01 X51.0902 Y42.3572 
G01 X51.3673 Y42.0801 
G01 X47.2070 Y37.9198 
G01 X46.2572 Y37.9198 
G01 X45.5914 Y37.2540 
G01 X42.8086 Y37.2540 
G01 X42.1428 Y37.9198 
G01 X41.1572 Y37.9198 
G01 X40.4602 Y37.2228 
G01 X40.4602 Y36.4867 
G01 X39.8851 Y35.9116 
G01 X36.9530 Y35.9116 
G01 X36.9530 Y43.8052 
G01 X36.9186 Y43.9333 
G01 X36.8523 Y44.0483 
G01 X36.7585 Y44.1421 
G01 X33.8288 Y47.0718 
G01 X33.8288 Y48.9338 
G01 X33.8314 Y48.9883 
G01 X33.8288 Y49.0001 
G01 X33.8288 Y49.0122 
G01 X33.8147 Y49.0647 
G01 X33.8031 Y49.1179 
G01 X33.7976 Y49.1287 
G01 X33.7944 Y49.1403 
G01 X33.7812 Y49.1633 
G01 X33.7812 Y49.2490 
G01 X33.7944 Y49.2720 
G01 X33.8017 Y49.2989 
G01 X33.8129 Y49.3244 
G01 X33.8188 Y49.3627 
G01 X33.8288 Y49.4001 
G01 X33.8288 Y49.4280 
G01 X33.8330 Y49.4556 
G01 X33.8288 Y49.4941 
G01 X33.8288 Y51.8612 
G01 X37.3851 Y55.4176 
G01 X37.4447 Y55.3778 
G01 X37.6196 Y55.3053 
G01 X37.8053 Y55.2684 
G01 X37.9947 Y55.2684 
G01 X38.1804 Y55.3053 
G01 X38.3553 Y55.3778 
G01 X38.5127 Y55.4830 
G01 X38.6466 Y55.6169 
G01 X38.7518 Y55.7743 
G01 X38.8243 Y55.9492 
G01 X38.8612 Y56.1349 
G01 X38.8612 Y57.6451 
G01 X38.8243 Y57.8308 
G01 X38.7518 Y58.0057 
G01 X38.6466 Y58.1631 
G01 X38.5127 Y58.2970 
G01 X38.3553 Y58.4022 
G01 X38.1804 Y58.4747 
G01 X37.9947 Y58.5116 
G01 X37.9944 Y60.5902 
G01 X38.6308 Y60.5902 
G01 X39.3278 Y61.2872 
G01 X39.3278 Y62.2728 
G01 X38.6308 Y62.9698 
G01 X37.6452 Y62.9698 
G01 X36.9482 Y62.2728 
G01 X36.9482 Y61.2872 
G01 X36.9864 Y61.2490 
G01 X36.9864 Y57.8565 
G01 X36.9757 Y57.8308 
G01 X36.9388 Y57.6451 
G01 X36.9388 Y56.3968 
G01 X33.1160 Y52.5740 
G01 X24.6817 Y52.5740 
G01 X22.2727 Y54.9830 
G01 X22.1789 Y55.0768 
G01 X22.0639 Y55.1431 
G01 X21.9358 Y55.1775 
G01 X18.9540 Y55.1775 
G01 X18.4019 Y55.7296 
G01 X18.4318 Y55.7743 
G01 X18.5043 Y55.9492 
G01 X18.5412 Y56.1349 
G01 X18.5412 Y57.6451 
G01 X18.5043 Y57.8308 
G01 X18.4318 Y58.0057 
G01 X18.3266 Y58.1631 
G01 X18.2078 Y58.2819 
G01 X18.2078 Y61.0952 
G01 X18.8198 Y61.7072 
G01 X18.8198 Y62.6928 
G01 X18.1228 Y63.3898 
G01 X17.1372 Y63.3898 
G01 X16.4402 Y62.6928 
G01 X16.4402 Y61.7072 
G01 X17.1372 Y61.0102 
G01 X17.1998 Y61.0102 
G01 X17.1998 Y58.4333 
G01 X17.1247 Y58.4022 
G01 X16.9673 Y58.2970 
G01 X16.8334 Y58.1631 
G01 X16.7282 Y58.0057 
G01 X16.6557 Y57.8308 
G01 X16.6188 Y57.6451 
G01 X16.6188 Y56.3841 
G01 X15.4122 Y55.1775 
G01 X14.1353 Y55.1775 
G01 X14.0040 Y55.3088 
G01 X14.0040 Y61.3664 
G01 X13.9696 Y61.4945 
G01 X13.9033 Y61.6095 
G01 X13.8095 Y61.7033 
G01 X13.6945 Y61.7696 
G01 X13.5664 Y61.8040 
G01 X8.1048  Y61.8040 
G01 X8.1048  Y61.8736 
G01 X8.0786  Y62.0389 
G01 X8.0269  Y62.1980 
G01 X7.9510  Y62.3470 
G01 X7.8527  Y62.4824 
G01 X7.7344  Y62.6007 
G01 X7.5990  Y62.6990 
G01 X7.4500  Y62.7749 
G01 X7.2909  Y62.8266 
G01 X7.2731  Y62.8294 
G01 X7.2731  Y65.5102 
G01 X7.6028  Y65.5102 
G01 X8.2998  Y66.2072 
G01 X8.2998  Y67.1928 
G01 X7.7938  Y67.6988 
G01 X7.7938  Y68.2012 
G01 X8.2998  Y68.7072 
G01 X8.2998  Y69.6928 
G01 X7.7938  Y70.1988 
G01 X7.7938  Y70.7947 
G01 X7.7944  Y70.8017 
G01 X8.2998  Y71.3072 
G01 X8.2998  Y72.2928 
G01 X7.7938  Y72.7988 
G01 X7.7938  Y73.3012 
G01 X8.2998  Y73.8072 
G01 X8.2998  Y74.7928 
G01 X8.2777  Y74.8149 
G01 X10.4588 Y76.9960 
G01 X41.5412 Y76.9960 
G01 X42.7460 Y75.7912 
G01 X42.7460 Y75.2386 
G01 X42.3002 Y74.7928 
G01 X42.3002 Y73.8072 
G01 X42.9972 Y73.1102 
G01 X43.2348 Y73.1102 
G01 X43.2348 Y72.9898 
G01 X42.9972 Y72.9898 
G01 X42.3002 Y72.2928 
G01 X42.3002 Y71.3072 
G01 X42.9972 Y70.6102 
G01 X43.2348 Y70.6102 
G01 X43.2348 Y70.3898 
G01 X42.9972 Y70.3898 
G01 X42.3002 Y69.6928 
G01 X42.3002 Y68.7072 
G01 X42.9972 Y68.0102 
G01 X43.2348 Y68.0102 
G01 X43.2348 Y67.8898 
G01 X42.9972 Y67.8898 
G01 X42.3002 Y67.1928 
G01 X42.3002 Y66.2072 
G01 X42.9972 Y65.5102 
G01 X43.9828 Y65.5102 
G01 X44.6798 Y66.2072 
G01 X44.6798 Y67.1928 
G01 X44.2428 Y67.6298 
G01 X44.2428 Y68.2702 
G01 X44.6798 Y68.7072 
G01 X44.6798 Y69.6928 
G01 X44.2428 Y70.1298 
G01 X44.2428 Y70.8116 
G01 X44.2437 Y70.8710 
G01 X44.6798 Y71.3072 
G01 X44.6798 Y72.2928 
G01 X44.2428 Y72.7298 
G01 X44.2428 Y73.3558 
G01 X44.2436 Y73.3591 
G01 X44.2435 Y73.3709 
G01 X44.6798 Y73.8072 
G01 X44.6798 Y74.7928 
G01 X43.9828 Y75.4898 
G01 X43.7540 Y75.4898 
G01 X43.7540 Y76.0664 
G01 X43.7197 Y76.1945 
G01 X43.6533 Y76.3095 
G01 X42.1533 Y77.8095 
G01 X42.0595 Y77.9033 
G01 X41.9445 Y77.9697 
G01 X41.8164 Y78.0040 
G01 X10.1836 Y78.0040 
G01 X10.0555 Y77.9697 
G01 X9.9405  Y77.9033 
G01 X7.5270  Y75.4898 
G01 X6.6172  Y75.4898 
G01 X5.9202  Y74.7928 
G01 X5.9202  Y73.8072 
G01 X6.6172  Y73.1102 
G01 X6.7858  Y73.1102 
G01 X6.7858  Y72.9898 
G01 X6.6172  Y72.9898 
G01 X5.9202  Y72.2928 
G01 X5.9202  Y71.3072 
G01 X6.6172  Y70.6102 
G01 X6.7858  Y70.6102 
G01 X6.7858  Y70.3898 
G01 X6.6172  Y70.3898 
G01 X5.9202  Y69.6928 
G01 X5.9202  Y68.7072 
G01 X6.6172  Y68.0102 
G01 X6.7858  Y68.0102 
G01 X6.7858  Y67.8898 
G01 X6.6172  Y67.8898 
G01 X5.9202  Y67.1928 
G01 X5.9202  Y66.2072 
G01 X6.2651  Y65.8623 
G01 X6.2651  Y62.8528 
G01 X5.4344  Y62.8528 
G01 X5.2691  Y62.8266 
G01 X5.1100  Y62.7749 
G01 X4.9610  Y62.6990 
G01 X4.8256  Y62.6007 
G01 X4.7073  Y62.4824 
G01 X4.6090  Y62.3470 
G01 X4.5331  Y62.1980 
G01 X4.4814  Y62.0389 
G01 X4.4552  Y61.8736 
G01 X4.4552  Y61.7064 
G01 X4.4814  Y61.5411 
G01 X4.5087  Y61.4571 
G01 X3.2416  Y60.1900 
G01 X3.1752  Y60.0750 
G01 X3.1409  Y59.9469 
G01 X3.1409  Y56.1692 
G01 X3.1752  Y56.0411 
G01 X3.2416  Y55.9261 
G01 X3.3354  Y55.8323 
G01 X4.4942  Y54.6735 
G01 X3.2416  Y53.4209 
G01 X3.1752  Y53.3059 
G01 X3.1409  Y53.1778 
G01 X3.1409  Y47.8380 
G01 X3.1752  Y47.7099 
G01 X3.2416  Y47.5949 
G01 X3.3354  Y47.5011 
G01 X5.0858  Y45.7507 
G01 X4.9756  Y45.6707 
G01 X4.8573  Y45.5524 
G01 X4.7590  Y45.4170 
G01 X4.6831  Y45.2680 
G01 X4.6314  Y45.1089 
G01 X4.6052  Y44.9436 
G01 X4.6052  Y44.7764 
G01 X4.6314  Y44.6111 
G01 X4.6831  Y44.4520 
G01 X3.2416  Y43.0069 
G01 X3.1752  Y42.8919 
G01 X3.1409  Y42.7638 
G01 X3.1409  Y34.2998 
G01 X3.1752  Y34.1717 
G01 X3.2416  Y34.0567 
G01 X3.3354  Y33.9629 
G01 X5.2237  Y32.0746 
G01 X5.2237  Y26.7645 
G01 X2.7209  Y24.2617 
G01 X2.6545  Y24.1467 
G01 X2.6202  Y24.0186 
G01 X2.6202  Y22.3237 
G01 X2.6545  Y22.1956 
G01 X2.7209  Y22.0806 
G01 X2.8147  Y21.9868 
G01 X3.9013  Y20.9003 
G01 X3.8838  Y20.8581 
G01 X3.8452  Y20.6640 
G01 X3.8452  Y20.4660 
G01 X3.8838  Y20.2719 
G01 X3.9596  Y20.0890 
G01 X4.0695  Y19.9245 
G01 X4.2095  Y19.7845 
G01 X4.3740  Y19.6746 
G01 X4.5569  Y19.5988 
G01 X4.7510  Y19.5602 
G01 X4.9490  Y19.5602 
G01 X5.1431  Y19.5988 
G01 X5.3259  Y19.6746 
G01 X5.4905  Y19.7845 
G01 X5.6305  Y19.9245 
G01 X5.7404  Y20.0890 
G01 X5.8162  Y20.2719 
G01 X5.8548  Y20.4660 
G01 X5.8548  Y20.6640 
G01 X5.8162  Y20.8581 
G01 X5.7404  Y21.0409 
G01 X5.6305  Y21.2055 
G01 X5.4905  Y21.3455 
G01 X5.3259  Y21.4554 
G01 X5.1431  Y21.5312 
G01 X4.9490  Y21.5698 
G01 X4.7510  Y21.5698 
G01 X4.6728  Y21.5542 
G01 X3.6282  Y22.5989 
G01 X3.6282  Y23.7434 
G01 X6.0372  Y26.1524 
G01 X6.1310  Y26.2462 
G01 X6.1974  Y26.3612 
G01 X6.2317  Y26.4893 
G01 X6.2317  Y32.3498 
G01 X6.1974  Y32.4779 
G01 X6.1310  Y32.5929 
G01 X4.1489  Y34.5750 
G01 X4.1489  Y42.4886 
G01 X5.4748  Y43.8145 
G01 X5.5844  Y43.7972 
G01 X7.2756  Y43.7972 
G01 X7.4409  Y43.8234 
G01 X7.6000  Y43.8751 
G01 X7.7490  Y43.9510 
G01 X7.8844  Y44.0493 
G01 X8.0027  Y44.1676 
G01 X8.0940  Y44.2934 
G01 X8.5272  Y43.8602 
G01 X9.5128  Y43.8602 
G01 X10.2098 Y44.5572 
G01 X10.2098 Y45.5428 
G01 X9.5128  Y46.2398 
G01 X8.5272  Y46.2398 
G01 X8.0923  Y45.8049 
G01 X7.6785  Y45.8049 
G01 X7.6000  Y45.8449 
G01 X7.4409  Y45.8966 
G01 X7.2756  Y45.9228 
G01 X6.3393  Y45.9228 
G01 X4.1489  Y48.1132 
G01 X4.1489  Y52.9026 
G01 X4.7156  Y53.4694 
G01 X4.8256  Y53.3593 
G01 X4.9610  Y53.2610 
G01 X5.1100  Y53.1851 
G01 X5.2691  Y53.1334 
G01 X5.4344  Y53.1072 
G01 X7.1256  Y53.1072 
G01 X7.2909  Y53.1334 
G01 X7.4500  Y53.1851 
G01 X7.5990  Y53.2610 
G01 X7.7344  Y53.3593 
G01 X7.8527  Y53.4776 
G01 X7.9510  Y53.6130 
G01 X8.0269  Y53.7620 
G01 X8.0786  Y53.9211 
G01 X8.1048  Y54.0864 
G01 X8.1048  Y54.2536 
G01 X8.0786  Y54.4189 
G01 X8.0269  Y54.5780 
G01 X7.9510  Y54.7270 
G01 X7.8527  Y54.8624 
G01 X7.7344  Y54.9807 
G01 X7.5990  Y55.0790 
G01 X7.4500  Y55.1549 
G01 X7.2909  Y55.2066 
G01 X7.1256  Y55.2328 
G01 X5.4344  Y55.2328 
G01 X5.3706  Y55.2227 
G01 X4.1489  Y56.4444 
G01 X4.1489  Y59.6717 
G01 X5.2400  Y60.7628 
G01 X5.2691  Y60.7534 
G01 X5.4344  Y60.7272 
G01 X7.1256  Y60.7272 
G01 X7.2909  Y60.7534 
G01 X7.4221  Y60.7960 
G01 X12.9960 Y60.7960 
G01 X12.9960 Y55.0336 
G01 X13.0303 Y54.9055 
G01 X13.0967 Y54.7905 
G01 X13.1905 Y54.6967 
G01 X13.6170 Y54.2702 
G01 X13.7320 Y54.2038 
G01 X13.8601 Y54.1695 
G01 X15.6874 Y54.1695 
G01 X15.8155 Y54.2038 
G01 X15.9305 Y54.2702 
G01 X16.0243 Y54.3640 
G01 X17.0728 Y55.4125 
G01 X17.1247 Y55.3778 
G01 X17.2996 Y55.3053 
G01 X17.4257 Y55.2803 
G01 X18.4357 Y54.2702 
G01 X18.5507 Y54.2038 
G01 X18.6788 Y54.1695 
G01 X21.6606 Y54.1695 
G01 X24.1634 Y51.6667 
G01 X24.2784 Y51.6003 
G01 X24.4065 Y51.5660 
G01 X32.8208 Y51.5660 
G01 X32.8208 Y50.8916 
G01 X32.7253 Y50.8916 
G01 X32.5396 Y50.8547 
G01 X32.3647 Y50.7822 
G01 X32.2073 Y50.6770 
G01 X32.0734 Y50.5431 
G01 X31.9682 Y50.3857 
G01 X31.8957 Y50.2108 
G01 X31.8588 Y50.0251 
G01 X31.8588 Y48.5149 
G01 X31.8957 Y48.3292 
G01 X31.9682 Y48.1543 
G01 X32.0734 Y47.9969 
G01 X32.2073 Y47.8630 
G01 X32.3647 Y47.7578 
G01 X32.5396 Y47.6853 
G01 X32.7253 Y47.6484 
G01 X32.8208 Y47.6484 
G01 X32.8208 Y46.7966 
G01 X32.8551 Y46.6685 
G01 X32.9215 Y46.5535 
G01 X35.9450 Y43.5300 
G01 X35.9450 Y35.9116 
G01 X35.4808 Y35.9116 
G01 X35.4418 Y36.0057 
G01 X35.3366 Y36.1631 
G01 X35.2027 Y36.2970 
G01 X35.0453 Y36.4022 
G01 X34.8704 Y36.4747 
G01 X34.6847 Y36.5116 
G01 X34.4953 Y36.5116 
G01 X34.3096 Y36.4747 
G01 X34.1347 Y36.4022 
G01 X33.9773 Y36.2970 
G01 X33.8434 Y36.1631 
G01 X33.7382 Y36.0057 
G01 X33.6657 Y35.8308 
G01 X33.6288 Y35.6451 
G01 X33.6288 Y34.1349 
G01 X33.6657 Y33.9492 
G01 X33.7382 Y33.7743 
G01 X33.8434 Y33.6169 
G01 X33.9773 Y33.4830 
G01 X34.1347 Y33.3778 
G01 X34.3096 Y33.3053 
G01 X34.4953 Y33.2684 
G01 X34.6847 Y33.2684 
G01 X34.8704 Y33.3053 
G01 X35.0453 Y33.3778 
G01 X35.2027 Y33.4830 
G01 X35.3366 Y33.6169 
G01 X35.4418 Y33.7743 
G01 X35.5143 Y33.9492 
G01 X35.5512 Y34.1349 
G01 X35.5512 Y34.9036 
G01 X40.1603 Y34.9036 
G01 X40.2884 Y34.9379 
G01 X40.4034 Y35.0043 
G01 X41.0482 Y35.6492 
G01 X41.1572 Y35.5402 
G01 X42.1428 Y35.5402 
G01 X42.8398 Y36.2372 
G01 X42.8398 Y36.2460 
G01 X45.5602 Y36.2460 
G01 X45.5602 Y36.2372 
G01 X46.2572 Y35.5402 
G01 X47.2428 Y35.5402 
G01 X47.9398 Y36.2372 
G01 X47.9398 Y37.2228 
G01 X52.3730 Y41.6602 
G01 X52.7728 Y41.6602 
G01 X53.4698 Y42.3572 
G01 X53.4698 Y42.8637 
G01 X59.1649 Y48.5588 
G01 X60.2451 Y48.5588 
G01 X60.4308 Y48.5957 
G01 X60.6057 Y48.6682 
G01 X60.7631 Y48.7734 
G01 X60.8970 Y48.9073 
G01 X60.9339 Y48.9625 
G01 X61.6749 Y48.9625 
G01 X62.3672 Y48.2702 
G01 X62.7670 Y48.2702 
G01 X69.6905 Y41.3467 
G01 X69.8055 Y41.2803 
G01 X69.9336 Y41.2460 
G01 X79.6586 Y41.2460 
G01 X79.7764 Y41.1604 
G01 X79.9433 Y41.0754 
G01 X80.1214 Y41.0175 
G01 X80.3064 Y40.9882 
G01 X80.4936 Y40.9882 
G01 X80.6786 Y41.0175 
G01 X80.8567 Y41.0754 
G01 X81.0236 Y41.1604 
G01 X81.1751 Y41.2705 
G01 X81.3075 Y41.4029 
G01 X81.4176 Y41.5544 
G01 X81.5026 Y41.7213 
G01 X81.5605 Y41.8994 
G01 X81.5898 Y42.0844 
G01 X81.5898 Y42.2716 
G01 X81.5605 Y42.4566 
G01 X81.5026 Y42.6347 
G01 X81.4176 Y42.8016 
G01 X81.3075 Y42.9531 
G01 X81.1751 Y43.0855 
G01 X81.0236 Y43.1956 
G01 X80.8567 Y43.2806 
G01 X80.6786 Y43.3385 
G01 X80.4936 Y43.3678 
G01 X80.3064 Y43.3678 
G01 X80.1214 Y43.3385 
G01 X79.9433 Y43.2806 
G01 X79.7764 Y43.1956 
G01 X79.6249 Y43.0855 
G01 X79.4925 Y42.9531 
G01 X79.3824 Y42.8016 
G01 X79.2974 Y42.6347 
G01 X79.2395 Y42.4566 
G01 X79.2102 Y42.2716 
G01 X79.2102 Y42.2540 
G01 X70.2088 Y42.2540 
G01 X63.7727 Y48.6901 
G01 X64.0498 Y48.9672 
G01 X64.0498 Y48.9960 
G01 X72.0664 Y48.9960 
G01 X72.1945 Y49.0303 
G01 X72.3095 Y49.0967 
G01 X79.6250 Y56.4122 
G01 X82.6288 Y53.4084 
G01 X82.6288 Y52.0849 
G01 X82.6657 Y51.8992 
G01 X82.7382 Y51.7243 
G01 X82.8434 Y51.5669 
G01 X82.9773 Y51.4330 
G01 X83.1347 Y51.3278 
G01 X83.2460 Y51.2817 
G01 X83.2460 Y47.5040 
G01 X81.3810 Y47.5040 
G01 X81.4176 Y47.5544 
G01 X81.5026 Y47.7213 
G01 X81.5605 Y47.8994 
G01 X81.5898 Y48.0844 
G01 X81.5898 Y48.2716 
G01 X81.5605 Y48.4566 
G01 X81.5026 Y48.6347 
G01 X81.4176 Y48.8016 
G01 X81.3075 Y48.9531 
G01 X81.1751 Y49.0855 
G01 X81.0236 Y49.1956 
G01 X80.8567 Y49.2806 
G01 X80.6786 Y49.3385 
G01 X80.4936 Y49.3678 
G01 X80.3064 Y49.3678 
G01 X80.1214 Y49.3385 
G01 X79.9433 Y49.2806 
G01 X79.7764 Y49.1956 
G01 X79.6249 Y49.0855 
G01 X79.4925 Y48.9531 
G01 X79.3824 Y48.8016 
G01 X79.2974 Y48.6347 
G01 X79.2395 Y48.4566 
G01 X79.2102 Y48.2716 
G01 X79.2102 Y48.0844 
G01 X79.2395 Y47.8994 
G01 X79.2974 Y47.7213 
G01 X79.3824 Y47.5544 
G01 X79.4925 Y47.4029 
G01 X79.6249 Y47.2705 
G01 X79.7764 Y47.1604 
G01 X79.9433 Y47.0754 
G01 X79.9891 Y47.0605 
G01 X79.9960 Y46.9787 
G01 X79.9960 Y46.9336 
G01 X80.0016 Y46.9128 
G01 X80.0034 Y46.8912 
G01 X80.0187 Y46.8489 
G01 X80.0303 Y46.8055 
G01 X80.0412 Y46.7867 
G01 X80.0485 Y46.7664 
G01 X80.0742 Y46.7295 
G01 X80.0967 Y46.6905 
G01 X80.1120 Y46.6753 
G01 X80.1243 Y46.6575 
G01 X80.1587 Y46.6285 
G01 X80.1905 Y46.5967 
G01 X80.2092 Y46.5859 
G01 X80.2258 Y46.5720 
G01 X80.2665 Y46.5528 
G01 X80.3055 Y46.5303 
G01 X80.3263 Y46.5248 
G01 X80.3459 Y46.5156 
G01 X80.3902 Y46.5076 
G01 X80.4336 Y46.4960 
G01 X80.4553 Y46.4960 
G01 X80.4765 Y46.4922 
G01 X80.5213 Y46.4960 
G01 X84.0685 Y46.4960 
G01 X83.9931 Y46.3480 
G01 X83.9414 Y46.1889 
G01 X83.9152 Y46.0236 
G01 X83.9152 Y45.8564 
G01 X83.9414 Y45.6911 
G01 X83.9931 Y45.5320 
G01 X84.0690 Y45.3830 
G01 X84.1673 Y45.2476 
G01 X84.2856 Y45.1293 
G01 X84.4210 Y45.0310 
G01 X84.5700 Y44.9551 
G01 X84.7291 Y44.9034 
G01 X84.8944 Y44.8772 
G01 X86.5856 Y44.8772 
G01 X86.6499 Y44.8874 
G01 X87.9960 Y43.5412 
G01 X87.9960 Y40.4588 
G01 X87.2912 Y39.7540 
G01 X85.9336 Y39.7540 
G01 X85.8055 Y39.7197 
G01 X85.6905 Y39.6533 
G01 X85.5967 Y39.5595 
G01 X78.0967 Y32.0595 
G01 X78.0303 Y31.9445 
G01 X77.9960 Y31.8164 
G01 X77.9960 Y29.1836 
G01 X78.0303 Y29.0555 
G01 X78.0967 Y28.9405 
G01 X78.1905 Y28.8467 
G01 X79.2102 Y27.8270 
G01 X79.2102 Y26.9492 
G01 X79.9072 Y26.2522 
G01 X79.9960 Y26.2522 
G01 X79.9960 Y26.1878 
G01 X79.9072 Y26.1878 
G01 X79.2102 Y25.4908 
G01 X79.2102 Y24.5052 
G01 X79.3763 Y24.3391 
G01 X73.1905 Y18.1533 
G01 X73.0967 Y18.0595 
G01 X73.0303 Y17.9445 
G01 X72.9960 Y17.8164 
G01 X72.9960 Y14.7088 
G01 X71.8074 Y13.5202 
G01 X71.7805 Y13.5157 
G01 X71.7204 Y13.5073 
G01 X71.7151 Y13.5050 
G01 X71.7089 Y13.5040 
G01 X66.7088 Y13.5040 
G01 X65.4033 Y14.8095 
G01 X65.3095 Y14.9033 
G01 X65.1945 Y14.9696 
G01 X65.0664 Y15.0040 
G01 X62.6386 Y15.0040 
G01 X61.9528 Y15.6898 
G01 X60.9672 Y15.6898 
G01 X60.2702 Y14.9928 
G01 X60.2702 Y14.5040 
G01 X59.4588 Y14.5040 
G01 X56.0211 Y17.9416 
G01 X56.0243 Y17.9492 
G01 X56.0612 Y18.1349 
G01 X56.0612 Y19.6451 
G01 X56.0243 Y19.8308 
G01 X55.9518 Y20.0057 
G01 X55.8466 Y20.1631 
G01 X55.7127 Y20.2970 
G01 X55.6982 Y20.3067 
G01 X55.6982 Y20.9656 
G01 X56.2998 Y21.5672 
G01 X56.2998 Y22.5528 
G01 X55.6982 Y23.1544 
G01 X55.6982 Y23.5156 
G01 X56.2998 Y24.1172 
G01 X56.2998 Y25.1028 
G01 X55.6982 Y25.7044 
G01 X55.6982 Y26.0656 
G01 X56.2998 Y26.6672 
G01 X56.2998 Y27.6528 
G01 X55.6982 Y28.2544 
G01 X55.6982 Y28.7156 
G01 X56.1998 Y29.2172 
G01 X56.1998 Y30.2028 
G01 X55.5028 Y30.8998 
G01 X54.5172 Y30.8998 
G01 X53.8202 Y30.2028 
G01 X53.8202 Y29.2172 
G01 X54.5172 Y28.5202 
G01 X54.6902 Y28.5202 
G01 X54.6902 Y28.3498 
G01 X54.6172 Y28.3498 
G01 X53.9202 Y27.6528 
G01 X53.9202 Y26.6672 
G01 X54.6172 Y25.9702 
G01 X54.6902 Y25.9702 
G01 X54.6902 Y25.7998 
G01 X54.6172 Y25.7998 
G01 X53.9202 Y25.1028 
G01 X53.9202 Y24.1172 
G01 X54.6172 Y23.4202 
G01 X54.6902 Y23.4202 
G01 X54.6902 Y23.2498 
G01 X54.6172 Y23.2498 
G01 X53.9202 Y22.5528 
G01 X53.9202 Y21.5672 
G01 X54.6172 Y20.8702 
G01 X54.6902 Y20.8702 
G01 X54.6902 Y20.4210 
G01 X54.6447 Y20.4022 
G01 X54.4873 Y20.2970 
G01 X54.3534 Y20.1631 
G01 X54.2482 Y20.0057 
G01 X54.1757 Y19.8308 
G01 X54.1388 Y19.6451 
G01 X54.1388 Y18.1349 
G01 X54.1757 Y17.9492 
G01 X54.1846 Y17.9277 
G01 X53.4233 Y17.1664 
G01 X47.8539 Y17.1664 
G01 X47.8508 Y17.1672 
G01 X47.7877 Y17.1664 
G01 X47.7243 Y17.1664 
G01 X47.7213 Y17.1656 
G01 X47.7181 Y17.1655 
G01 X47.6573 Y17.1484 
G01 X47.5962 Y17.1320 
G01 X47.5934 Y17.1305 
G01 X47.5904 Y17.1296 
G01 X47.5360 Y17.0973 
G01 X47.4812 Y17.0657 
G01 X47.4763 Y17.0619 
G01 X47.4321 Y17.0166 
G01 X47.3874 Y16.9719 
G01 X47.3858 Y16.9691 
G01 X47.3527 Y16.9117 
G01 X47.3210 Y16.8569 
G01 X47.3202 Y16.8539 
G01 X41.3609 Y6.2317  
G01 X31.4508 Y6.2317  
G01 X30.7275 Y6.9549  
G01 X30.7798 Y7.0072  
G01 X30.7798 Y7.9928  
G01 X30.1839 Y8.5887  
G01 X30.1839 Y9.8571  
G01 X30.1927 Y9.8630  
G01 X30.3266 Y9.9969  
G01 X30.4318 Y10.1543 
G01 X30.5043 Y10.3292 
G01 X30.5412 Y10.5149 
G01 X30.5412 Y12.0251 
G01 X30.5043 Y12.2108 
G01 X30.4318 Y12.3857 
G01 X30.3266 Y12.5431 
G01 X30.1927 Y12.6770 
G01 X30.1839 Y12.6829 
G01 X30.1839 Y17.4771 
G01 X30.1927 Y17.4830 
G01 X30.3266 Y17.6169 
G01 X30.4318 Y17.7743 
G01 X30.5043 Y17.9492 
G01 X30.5412 Y18.1349 
G01 X30.5412 Y19.6451 
G01 X30.5043 Y19.8308 
G01 X30.4318 Y20.0057 
G01 X30.3266 Y20.1631 
G01 X30.1927 Y20.2970 
G01 X30.0353 Y20.4022 
G01 X29.8604 Y20.4747 
G01 X29.6747 Y20.5116 
G01 X29.4853 Y20.5116 
G01 X29.2996 Y20.4747 
G01 X29.1247 Y20.4022 
G01 X28.9673 Y20.2970 
G01 X28.8334 Y20.1631 
G01 X28.7282 Y20.0057 
G01 X28.6557 Y19.8308 
G01 X28.6188 Y19.6451 
G01 X28.6188 Y18.1349 
G01 X28.6557 Y17.9492 
G01 X28.7282 Y17.7743 
G01 X28.8334 Y17.6169 
G01 X28.9673 Y17.4830 
G01 X29.1247 Y17.3778 
G01 X29.1759 Y17.3566 
G01 X29.1759 Y17.1664 
G01 X18.9540 Y17.1664 
G01 X18.2078 Y17.9126 
G01 X18.2078 Y20.0985 
G01 X18.9083 Y20.7991 
G01 X18.9172 Y20.7902 
G01 X19.9028 Y20.7902 
G01 X20.5998 Y21.4872 
G01 X20.5998 Y22.4728 
G01 X19.9028 Y23.1698 
G01 X18.9172 Y23.1698 
G01 X18.2202 Y22.4728 
G01 X18.2202 Y21.5365 
G01 X17.3943 Y20.7106 
G01 X17.3005 Y20.6168 
G01 X17.2341 Y20.5018 
G01 X17.1998 Y20.3737 
G01 X17.1998 Y17.6374 
G01 X17.2341 Y17.5093 
G01 X17.3005 Y17.3943 
G01 X18.3419 Y16.3529 
G01 X18.4357 Y16.2591 
G01 X18.5507 Y16.1927 
G01 X18.6788 Y16.1584 
G01 X29.1759 Y16.1584 
G01 X29.1759 Y12.8034 
G01 X29.1247 Y12.7822 
G01 X28.9673 Y12.6770 
G01 X28.8334 Y12.5431 
G01 X28.7282 Y12.3857 
G01 X28.6557 Y12.2108 
G01 X28.6188 Y12.0251 
G01 X28.6188 Y10.5149 
G01 X28.6557 Y10.3292 
G01 X28.7282 Y10.1543 
G01 X28.8334 Y9.9969  
G00 Z2.9900  
G00 X31.3734 Y9.9969  
G01 Z-0.2000 F254   
G01 X31.5073 Y9.8630  F508   
G01 X31.6647 Y9.7578  
G01 X31.7794 Y9.7103  
G01 X31.7794 Y8.6898  
G01 X31.5972 Y8.6898  
G01 X30.9002 Y7.9928  
G01 X30.9002 Y7.0072  
G01 X31.5972 Y6.3102  
G01 X32.5828 Y6.3102  
G01 X33.2798 Y7.0072  
G01 X33.2798 Y7.9928  
G01 X32.7874 Y8.4852  
G01 X32.7874 Y9.9177  
G01 X32.8666 Y9.9969  
G01 X32.9718 Y10.1543 
G01 X33.0443 Y10.3292 
G01 X33.0812 Y10.5149 
G01 X33.0812 Y12.0251 
G01 X33.0443 Y12.2108 
G01 X32.9718 Y12.3857 
G01 X32.8666 Y12.5431 
G01 X32.7874 Y12.6223 
G01 X32.7874 Y13.5848 
G01 X33.1986 Y13.9960 
G01 X38.3912 Y13.9960 
G01 X40.2923 Y12.0949 
G01 X39.9602 Y11.7628 
G01 X39.9602 Y10.7772 
G01 X40.6572 Y10.0802 
G01 X41.6428 Y10.0802 
G01 X42.3398 Y10.7772 
G01 X42.3398 Y11.7628 
G01 X41.6428 Y12.4598 
G01 X41.3530 Y12.4598 
G01 X39.0033 Y14.8095 
G01 X38.9095 Y14.9033 
G01 X38.7945 Y14.9696 
G01 X38.6664 Y15.0040 
G01 X33.1986 Y15.0040 
G01 X32.5128 Y15.6898 
G01 X31.5272 Y15.6898 
G01 X30.8302 Y14.9928 
G01 X30.8302 Y14.0072 
G01 X31.5272 Y13.3102 
G01 X31.7794 Y13.3102 
G01 X31.7794 Y12.8297 
G01 X31.6647 Y12.7822 
G01 X31.5073 Y12.6770 
G01 X31.3734 Y12.5431 
G01 X31.2682 Y12.3857 
G01 X31.1957 Y12.2108 
G01 X31.1588 Y12.0251 
G01 X31.1588 Y10.5149 
G01 X31.1957 Y10.3292 
G01 X31.2682 Y10.1543 
G01 X31.3734 Y9.9969  
G00 Z2.9900  
G00 X33.9134 Y9.9969  
G01 Z-0.2000 F254   
G01 X34.0473 Y9.8630  F508   
G01 X34.2047 Y9.7578  
G01 X34.3796 Y9.6853  
G01 X34.3829 Y9.6847  
G01 X34.3829 Y8.6898  
G01 X34.1372 Y8.6898  
G01 X33.4402 Y7.9928  
G01 X33.4402 Y7.0072  
G01 X34.1372 Y6.3102  
G01 X35.1228 Y6.3102  
G01 X35.8198 Y7.0072  
G01 X35.8198 Y7.9928  
G01 X35.3909 Y8.4217  
G01 X35.3909 Y9.9812  
G01 X35.4066 Y9.9969  
G01 X35.5118 Y10.1543 
G01 X35.5843 Y10.3292 
G01 X35.6212 Y10.5149 
G01 X35.6212 Y10.9514 
G01 X36.7702 Y10.9514 
G01 X36.7702 Y10.7772 
G01 X37.4672 Y10.0802 
G01 X38.4528 Y10.0802 
G01 X39.1498 Y10.7772 
G01 X39.1498 Y11.7628 
G01 X38.4528 Y12.4598 
G01 X37.4672 Y12.4598 
G01 X36.9668 Y11.9594 
G01 X35.6212 Y11.9594 
G01 X35.6212 Y12.0251 
G01 X35.5843 Y12.2108 
G01 X35.5118 Y12.3857 
G01 X35.4066 Y12.5431 
G01 X35.2727 Y12.6770 
G01 X35.1153 Y12.7822 
G01 X34.9404 Y12.8547 
G01 X34.7547 Y12.8916 
G01 X34.5653 Y12.8916 
G01 X34.3796 Y12.8547 
G01 X34.2047 Y12.7822 
G01 X34.0473 Y12.6770 
G01 X33.9134 Y12.5431 
G01 X33.8082 Y12.3857 
G01 X33.7357 Y12.2108 
G01 X33.6988 Y12.0251 
G01 X33.6988 Y10.5149 
G01 X33.7357 Y10.3292 
G01 X33.8082 Y10.1543 
G01 X33.9134 Y9.9969  
G00 Z2.9900  
G00 X33.7791 Y16.1584 
G01 Z-0.2000 F254   
G01 X35.4740 Y16.1584 F508   
G01 X35.6021 Y16.1927 
G01 X35.7171 Y16.2591 
G01 X35.8109 Y16.3529 
G01 X37.3127 Y17.8547 
G01 X37.4672 Y17.7002 
G01 X38.4528 Y17.7002 
G01 X39.1498 Y18.3972 
G01 X39.1498 Y19.3828 
G01 X38.4528 Y20.0798 
G01 X37.4672 Y20.0798 
G01 X36.7702 Y19.3828 
G01 X36.7702 Y18.7378 
G01 X35.1988 Y17.1664 
G01 X34.0543 Y17.1664 
G01 X33.0812 Y18.1395 
G01 X33.0812 Y19.6451 
G01 X33.0443 Y19.8308 
G01 X32.9718 Y20.0057 
G01 X32.8666 Y20.1631 
G01 X32.7874 Y20.2423 
G01 X32.7874 Y21.2548 
G01 X33.0998 Y21.5672 
G01 X33.0998 Y22.5528 
G01 X32.4028 Y23.2498 
G01 X31.4172 Y23.2498 
G01 X30.7202 Y22.5528 
G01 X30.7202 Y21.5672 
G01 X31.4172 Y20.8702 
G01 X31.7794 Y20.8702 
G01 X31.7794 Y20.4497 
G01 X31.6647 Y20.4022 
G01 X31.5073 Y20.2970 
G01 X31.3734 Y20.1631 
G01 X31.2682 Y20.0057 
G01 X31.1957 Y19.8308 
G01 X31.1588 Y19.6451 
G01 X31.1588 Y18.1349 
G01 X31.1957 Y17.9492 
G01 X31.2682 Y17.7743 
G01 X31.3734 Y17.6169 
G01 X31.5073 Y17.4830 
G01 X31.6647 Y17.3778 
G01 X31.8396 Y17.3053 
G01 X32.0253 Y17.2684 
G01 X32.2147 Y17.2684 
G01 X32.4004 Y17.3053 
G01 X32.4636 Y17.3315 
G01 X33.5360 Y16.2591 
G01 X33.6510 Y16.1927 
G01 X33.7791 Y16.1584 
G00 Z2.9900  
G00 X33.9134 Y17.6169 
G01 Z-0.2000 F254   
G01 X34.0473 Y17.4830 F508   
G01 X34.2047 Y17.3778 
G01 X34.3796 Y17.3053 
G01 X34.5653 Y17.2684 
G01 X34.7547 Y17.2684 
G01 X34.9404 Y17.3053 
G01 X35.1153 Y17.3778 
G01 X35.2727 Y17.4830 
G01 X35.4066 Y17.6169 
G01 X35.5118 Y17.7743 
G01 X35.5843 Y17.9492 
G01 X35.6212 Y18.1349 
G01 X35.6212 Y19.6451 
G01 X35.5843 Y19.8308 
G01 X35.5118 Y20.0057 
G01 X35.4066 Y20.1631 
G01 X35.3909 Y20.1788 
G01 X35.3909 Y21.3183 
G01 X35.6398 Y21.5672 
G01 X35.6398 Y22.5528 
G01 X35.0040 Y23.1886 
G01 X35.0040 Y25.9814 
G01 X35.6498 Y26.6272 
G01 X35.6498 Y27.6128 
G01 X34.9528 Y28.3098 
G01 X33.9672 Y28.3098 
G01 X33.2702 Y27.6128 
G01 X33.2702 Y26.6272 
G01 X33.9672 Y25.9302 
G01 X33.9960 Y25.9302 
G01 X33.9960 Y23.2498 
G01 X33.9572 Y23.2498 
G01 X33.2602 Y22.5528 
G01 X33.2602 Y21.5672 
G01 X33.9572 Y20.8702 
G01 X34.3829 Y20.8702 
G01 X34.3829 Y20.4753 
G01 X34.3796 Y20.4747 
G01 X34.2047 Y20.4022 
G01 X34.0473 Y20.2970 
G01 X33.9134 Y20.1631 
G01 X33.8082 Y20.0057 
G01 X33.7357 Y19.8308 
G01 X33.6988 Y19.6451 
G01 X33.6988 Y18.1349 
G01 X33.7357 Y17.9492 
G01 X33.8082 Y17.7743 
G01 X33.9134 Y17.6169 
G00 Z2.9900  
G00 X27.7866 Y17.6169 
G01 Z-0.2000 F254   
G01 X27.8918 Y17.7743 F508   
G01 X27.9643 Y17.9492 
G01 X28.0012 Y18.1349 
G01 X28.0012 Y19.6451 
G01 X27.9643 Y19.8308 
G01 X27.8918 Y20.0057 
G01 X27.7866 Y20.1631 
G01 X27.7540 Y20.1957 
G01 X27.7540 Y22.2912 
G01 X38.9588 Y33.4960 
G01 X55.5412 Y33.4960 
G01 X56.2217 Y32.8155 
G01 X56.2460 Y32.7912 
G01 X56.2460 Y31.4336 
G01 X56.2803 Y31.3055 
G01 X56.3467 Y31.1905 
G01 X56.4405 Y31.0967 
G01 X56.7460 Y30.7912 
G01 X56.7460 Y19.9038 
G01 X56.7157 Y19.8308 
G01 X56.6788 Y19.6451 
G01 X56.6788 Y18.1349 
G01 X56.7157 Y17.9492 
G01 X56.7882 Y17.7743 
G01 X56.8934 Y17.6169 
G01 X57.0273 Y17.4830 
G01 X57.1847 Y17.3778 
G01 X57.3596 Y17.3053 
G01 X57.5453 Y17.2684 
G01 X57.7347 Y17.2684 
G01 X57.9204 Y17.3053 
G01 X58.0953 Y17.3778 
G01 X58.2527 Y17.4830 
G01 X58.3866 Y17.6169 
G01 X58.4918 Y17.7743 
G01 X58.5643 Y17.9492 
G01 X58.6012 Y18.1349 
G01 X58.6012 Y19.6451 
G01 X58.5643 Y19.8308 
G01 X58.4918 Y20.0057 
G01 X58.3866 Y20.1631 
G01 X58.2527 Y20.2970 
G01 X58.0953 Y20.4022 
G01 X57.9204 Y20.4747 
G01 X57.7540 Y20.5078 
G01 X57.7540 Y31.0664 
G01 X57.7197 Y31.1945 
G01 X57.6533 Y31.3095 
G01 X57.2540 Y31.7088 
G01 X57.2540 Y33.0412 
G01 X62.2088 Y37.9960 
G01 X79.3434 Y37.9960 
G01 X79.9072 Y37.4322 
G01 X80.8928 Y37.4322 
G01 X81.5898 Y38.1292 
G01 X81.5898 Y38.9960 
G01 X84.3164 Y38.9960 
G01 X84.4445 Y39.0303 
G01 X84.5595 Y39.0967 
G01 X85.2600 Y39.7972 
G01 X86.5856 Y39.7972 
G01 X86.7509 Y39.8234 
G01 X86.9100 Y39.8751 
G01 X87.0590 Y39.9510 
G01 X87.1944 Y40.0493 
G01 X87.3127 Y40.1676 
G01 X87.4110 Y40.3030 
G01 X87.4869 Y40.4520 
G01 X87.5386 Y40.6111 
G01 X87.5648 Y40.7764 
G01 X87.5648 Y40.9436 
G01 X87.5386 Y41.1089 
G01 X87.4869 Y41.2680 
G01 X87.4110 Y41.4170 
G01 X87.3127 Y41.5524 
G01 X87.1944 Y41.6707 
G01 X87.0590 Y41.7690 
G01 X86.9100 Y41.8449 
G01 X86.7509 Y41.8966 
G01 X86.5856 Y41.9228 
G01 X84.8944 Y41.9228 
G01 X84.7291 Y41.8966 
G01 X84.5700 Y41.8449 
G01 X84.4210 Y41.7690 
G01 X84.2856 Y41.6707 
G01 X84.1673 Y41.5524 
G01 X84.0690 Y41.4170 
G01 X83.9931 Y41.2680 
G01 X83.9414 Y41.1089 
G01 X83.9152 Y40.9436 
G01 X83.9152 Y40.7764 
G01 X83.9414 Y40.6111 
G01 X83.9931 Y40.4520 
G01 X84.0690 Y40.3030 
G01 X84.1673 Y40.1676 
G01 X84.1861 Y40.1489 
G01 X84.0412 Y40.0040 
G01 X80.5286 Y40.0040 
G01 X80.4911 Y40.0083 
G01 X80.4625 Y40.0040 
G01 X80.4336 Y40.0040 
G01 X80.3972 Y39.9942 
G01 X80.3599 Y39.9886 
G01 X80.3334 Y39.9771 
G01 X80.3055 Y39.9697 
G01 X80.2728 Y39.9508 
G01 X80.2382 Y39.9357 
G01 X80.2155 Y39.9177 
G01 X80.1905 Y39.9033 
G01 X80.1638 Y39.8766 
G01 X80.1343 Y39.8531 
G01 X80.1171 Y39.8299 
G01 X80.0990 Y39.8118 
G01 X79.9072 Y39.8118 
G01 X79.2102 Y39.1148 
G01 X79.2102 Y39.0040 
G01 X61.9336 Y39.0040 
G01 X61.8055 Y38.9697 
G01 X61.6905 Y38.9033 
G01 X56.6250 Y33.8378 
G01 X56.0595 Y34.4033 
G01 X55.9445 Y34.4697 
G01 X55.8164 Y34.5040 
G01 X38.6836 Y34.5040 
G01 X38.5555 Y34.4697 
G01 X38.4405 Y34.4033 
G01 X38.3467 Y34.3095 
G01 X26.8467 Y22.8095 
G01 X26.7803 Y22.6945 
G01 X26.7460 Y22.5664 
G01 X26.7460 Y20.4690 
G01 X26.5847 Y20.4022 
G01 X26.4273 Y20.2970 
G01 X26.2934 Y20.1631 
G01 X26.1882 Y20.0057 
G01 X26.1157 Y19.8308 
G01 X26.0788 Y19.6451 
G01 X26.0788 Y18.1349 
G01 X26.1157 Y17.9492 
G01 X26.1882 Y17.7743 
G01 X26.2934 Y17.6169 
G01 X26.4273 Y17.4830 
G01 X26.5847 Y17.3778 
G01 X26.7596 Y17.3053 
G01 X26.9453 Y17.2684 
G01 X27.1347 Y17.2684 
G01 X27.3204 Y17.3053 
G01 X27.4953 Y17.3778 
G01 X27.6527 Y17.4830 
G01 X27.7866 Y17.6169 
G00 Z2.9900  
G00 X25.2466 Y17.6169 
G01 Z-0.2000 F254   
G01 X25.3518 Y17.7743 F508   
G01 X25.4243 Y17.9492 
G01 X25.4612 Y18.1349 
G01 X25.4612 Y19.6451 
G01 X25.4243 Y19.8308 
G01 X25.3518 Y20.0057 
G01 X25.2466 Y20.1631 
G01 X25.1127 Y20.2970 
G01 X24.9769 Y20.3878 
G01 X24.9769 Y20.7902 
G01 X24.9828 Y20.7902 
G01 X25.6798 Y21.4872 
G01 X25.6798 Y22.4728 
G01 X24.9828 Y23.1698 
G01 X24.9769 Y23.1698 
G01 X24.9769 Y23.3902 
G01 X25.0328 Y23.3902 
G01 X25.7298 Y24.0872 
G01 X25.7298 Y25.0728 
G01 X25.0328 Y25.7698 
G01 X24.0472 Y25.7698 
G01 X23.3502 Y25.0728 
G01 X23.3502 Y24.0872 
G01 X23.9689 Y23.4685 
G01 X23.9689 Y23.1415 
G01 X23.3002 Y22.4728 
G01 X23.3002 Y21.4872 
G01 X23.9689 Y20.8185 
G01 X23.9689 Y20.3516 
G01 X23.8873 Y20.2970 
G01 X23.7534 Y20.1631 
G01 X23.6482 Y20.0057 
G01 X23.5757 Y19.8308 
G01 X23.5388 Y19.6451 
G01 X23.5388 Y18.1349 
G01 X23.5757 Y17.9492 
G01 X23.6482 Y17.7743 
G01 X23.7534 Y17.6169 
G01 X23.8873 Y17.4830 
G01 X24.0447 Y17.3778 
G01 X24.2196 Y17.3053 
G01 X24.4053 Y17.2684 
G01 X24.5947 Y17.2684 
G01 X24.7804 Y17.3053 
G01 X24.9553 Y17.3778 
G01 X25.1127 Y17.4830 
G01 X25.2466 Y17.6169 
G00 Z2.9900  
G00 X22.7066 Y17.6169 
G01 Z-0.2000 F254   
G01 X22.8118 Y17.7743 F508   
G01 X22.8843 Y17.9492 
G01 X22.9212 Y18.1349 
G01 X22.9212 Y19.6451 
G01 X22.8843 Y19.8308 
G01 X22.8118 Y20.0057 
G01 X22.7066 Y20.1631 
G01 X22.5727 Y20.2970 
G01 X22.4153 Y20.4022 
G01 X22.2404 Y20.4747 
G01 X22.0547 Y20.5116 
G01 X21.8653 Y20.5116 
G01 X21.8527 Y20.5091 
G01 X21.8527 Y23.4979 
G01 X21.8183 Y23.6260 
G01 X21.7520 Y23.7410 
G01 X20.6878 Y24.8052 
G01 X20.7698 Y24.8872 
G01 X20.7698 Y25.8728 
G01 X20.2906 Y26.3520 
G01 X20.2906 Y28.0080 
G01 X20.7698 Y28.4872 
G01 X20.7698 Y29.4728 
G01 X20.0728 Y30.1698 
G01 X19.0872 Y30.1698 
G01 X19.0110 Y30.0936 
G01 X15.5040 Y34.3799 
G01 X15.5040 Y42.4886 
G01 X16.4046 Y43.3892 
G01 X19.4678 Y46.4521 
G01 X19.5055 Y46.4303 
G01 X19.6337 Y46.3960 
G01 X22.8102 Y46.3960 
G01 X22.8102 Y46.2072 
G01 X23.5072 Y45.5102 
G01 X24.4928 Y45.5102 
G01 X25.1898 Y46.2072 
G01 X25.1898 Y47.1928 
G01 X24.4928 Y47.8898 
G01 X23.5072 Y47.8898 
G01 X23.0214 Y47.4040 
G01 X20.1906 Y47.4040 
G01 X20.1906 Y47.4500 
G01 X20.1906 Y47.6484 
G01 X20.2147 Y47.6484 
G01 X20.4004 Y47.6853 
G01 X20.5753 Y47.7578 
G01 X20.7327 Y47.8630 
G01 X20.8666 Y47.9969 
G01 X20.9718 Y48.1543 
G01 X21.0443 Y48.3292 
G01 X21.0812 Y48.5149 
G01 X21.0812 Y50.0251 
G01 X21.0443 Y50.2108 
G01 X20.9718 Y50.3857 
G01 X20.8666 Y50.5431 
G01 X20.7327 Y50.6770 
G01 X20.5753 Y50.7822 
G01 X20.4004 Y50.8547 
G01 X20.2147 Y50.8916 
G01 X20.0253 Y50.8916 
G01 X19.8396 Y50.8547 
G01 X19.6647 Y50.7822 
G01 X19.5073 Y50.6770 
G01 X19.3734 Y50.5431 
G01 X19.2682 Y50.3857 
G01 X19.1957 Y50.2108 
G01 X19.1588 Y50.0251 
G01 X19.1588 Y48.5149 
G01 X19.1826 Y48.3953 
G01 X19.1826 Y47.5925 
G01 X19.1420 Y47.5519 
G01 X19.0915 Y47.5014 
G01 X19.0482 Y47.4580 
G01 X18.9482 Y47.3580 
G01 X15.5980 Y44.0081 
G01 X14.6905 Y43.1007 
G01 X14.6217 Y43.0318 
G01 X14.5967 Y43.0069 
G01 X14.5505 Y42.9269 
G01 X14.5304 Y42.8920 
G01 X14.4960 Y42.7638 
G01 X14.4960 Y42.6740 
G01 X14.4960 Y42.6311 
G01 X14.4960 Y34.2251 
G01 X14.4919 Y34.1841 
G01 X14.4960 Y34.1591 
G01 X14.4960 Y34.1336 
G01 X14.5067 Y34.0938 
G01 X14.5133 Y34.0532 
G01 X14.5238 Y34.0300 
G01 X14.5303 Y34.0055 
G01 X14.5510 Y33.9698 
G01 X14.5679 Y33.9322 
G01 X14.5840 Y33.9125 
G01 X14.5967 Y33.8905 
G01 X14.6258 Y33.8614 
G01 X18.3902 Y29.2605 
G01 X18.3902 Y28.4872 
G01 X19.0872 Y27.7902 
G01 X19.2826 Y27.7902 
G01 X19.2826 Y26.5698 
G01 X19.0872 Y26.5698 
G01 X18.3902 Y25.8728 
G01 X18.3902 Y24.8872 
G01 X19.0872 Y24.1902 
G01 X19.8772 Y24.1902 
G01 X20.8447 Y23.2227 
G01 X20.8447 Y19.7699 
G01 X20.3564 Y19.7699 
G01 X20.3443 Y19.8308 
G01 X20.2718 Y20.0057 
G01 X20.1666 Y20.1631 
G01 X20.0327 Y20.2970 
G01 X19.8753 Y20.4022 
G01 X19.7004 Y20.4747 
G01 X19.5147 Y20.5116 
G01 X19.3253 Y20.5116 
G01 X19.1396 Y20.4747 
G01 X18.9647 Y20.4022 
G01 X18.8073 Y20.2970 
G01 X18.6734 Y20.1631 
G01 X18.5682 Y20.0057 
G01 X18.4957 Y19.8308 
G01 X18.4588 Y19.6451 
G01 X18.4588 Y18.1349 
G01 X18.4957 Y17.9492 
G01 X18.5682 Y17.7743 
G01 X18.6734 Y17.6169 
G01 X18.8073 Y17.4830 
G01 X18.9647 Y17.3778 
G01 X19.1396 Y17.3053 
G01 X19.3253 Y17.2684 
G01 X19.5147 Y17.2684 
G01 X19.7004 Y17.3053 
G01 X19.8753 Y17.3778 
G01 X20.0327 Y17.4830 
G01 X20.1666 Y17.6169 
G01 X20.2718 Y17.7743 
G01 X20.3443 Y17.9492 
G01 X20.3812 Y18.1349 
G01 X20.3812 Y18.7619 
G01 X20.9988 Y18.7619 
G01 X20.9988 Y18.1349 
G01 X21.0357 Y17.9492 
G01 X21.1082 Y17.7743 
G01 X21.2134 Y17.6169 
G01 X21.3473 Y17.4830 
G01 X21.5047 Y17.3778 
G01 X21.6796 Y17.3053 
G01 X21.8653 Y17.2684 
G01 X22.0547 Y17.2684 
G01 X22.2404 Y17.3053 
G01 X22.4153 Y17.3778 
G01 X22.5727 Y17.4830 
G01 X22.7066 Y17.6169 
G00 Z2.9900  
G00 X22.6128 Y24.1902 
G01 Z-0.2000 F254   
G01 X23.3098 Y24.8872 F508   
G01 X23.3098 Y25.8728 
G01 X22.8941 Y26.2885 
G01 X22.8941 Y28.0715 
G01 X23.3098 Y28.4872 
G01 X23.3098 Y28.6552 
G01 X23.8622 Y28.6552 
G01 X24.0472 Y28.4702 
G01 X24.8170 Y28.4702 
G01 X25.6623 Y27.6249 
G01 X25.6502 Y27.6128 
G01 X25.6502 Y26.6272 
G01 X26.3472 Y25.9302 
G01 X27.3328 Y25.9302 
G01 X28.0298 Y26.6272 
G01 X28.0298 Y27.6128 
G01 X27.3328 Y28.3098 
G01 X26.4030 Y28.3098 
G01 X25.6377 Y29.0751 
G01 X25.7298 Y29.1672 
G01 X25.7298 Y30.1528 
G01 X25.0328 Y30.8498 
G01 X24.0472 Y30.8498 
G01 X23.3502 Y30.1528 
G01 X23.3502 Y29.6632 
G01 X23.1194 Y29.6632 
G01 X22.6128 Y30.1698 
G01 X21.6272 Y30.1698 
G01 X20.9302 Y29.4728 
G01 X20.9302 Y28.4872 
G01 X21.6272 Y27.7902 
G01 X21.8861 Y27.7902 
G01 X21.8861 Y26.5698 
G01 X21.6272 Y26.5698 
G01 X20.9302 Y25.8728 
G01 X20.9302 Y24.8872 
G01 X21.6272 Y24.1902 
G01 X22.6128 Y24.1902 
G00 Z2.9900  
G00 X22.5027 Y33.4830 
G01 Z-0.2000 F254   
G01 X22.6366 Y33.6169 F508   
G01 X22.7418 Y33.7743 
G01 X22.8143 Y33.9492 
G01 X22.8512 Y34.1349 
G01 X22.8512 Y35.6451 
G01 X22.8143 Y35.8308 
G01 X22.7418 Y36.0057 
G01 X22.6366 Y36.1631 
G01 X22.5027 Y36.2970 
G01 X22.3453 Y36.4022 
G01 X22.1704 Y36.4747 
G01 X21.9847 Y36.5116 
G01 X21.7953 Y36.5116 
G01 X21.6096 Y36.4747 
G01 X21.4347 Y36.4022 
G01 X21.2773 Y36.2970 
G01 X21.1434 Y36.1631 
G01 X21.0382 Y36.0057 
G01 X20.9657 Y35.8308 
G01 X20.9288 Y35.6451 
G01 X20.9288 Y34.1349 
G01 X20.9657 Y33.9492 
G01 X21.0382 Y33.7743 
G01 X21.1434 Y33.6169 
G01 X21.2773 Y33.4830 
G01 X21.4347 Y33.3778 
G01 X21.6096 Y33.3053 
G01 X21.7953 Y33.2684 
G01 X21.9847 Y33.2684 
G01 X22.1704 Y33.3053 
G01 X22.3453 Y33.3778 
G01 X22.5027 Y33.4830 
G00 Z2.9900  
G00 X23.6834 Y33.6169 
G01 Z-0.2000 F254   
G01 X23.8173 Y33.4830 F508   
G01 X23.9747 Y33.3778 
G01 X24.1496 Y33.3053 
G01 X24.3353 Y33.2684 
G01 X24.5247 Y33.2684 
G01 X24.7104 Y33.3053 
G01 X24.8853 Y33.3778 
G01 X25.0427 Y33.4830 
G01 X25.1766 Y33.6169 
G01 X25.2818 Y33.7743 
G01 X25.3543 Y33.9492 
G01 X25.3912 Y34.1349 
G01 X25.3912 Y35.6451 
G01 X25.3543 Y35.8308 
G01 X25.3511 Y35.8384 
G01 X26.1088 Y36.5960 
G01 X27.7912 Y36.5960 
G01 X28.5809 Y35.8064 
G01 X28.5488 Y35.6451 
G01 X28.5488 Y34.1349 
G01 X28.5857 Y33.9492 
G01 X28.6582 Y33.7743 
G01 X28.7634 Y33.6169 
G01 X28.8973 Y33.4830 
G01 X29.0547 Y33.3778 
G01 X29.2296 Y33.3053 
G01 X29.4153 Y33.2684 
G01 X29.6047 Y33.2684 
G01 X29.7904 Y33.3053 
G01 X29.9653 Y33.3778 
G01 X30.1227 Y33.4830 
G01 X30.2566 Y33.6169 
G01 X30.3618 Y33.7743 
G01 X30.4343 Y33.9492 
G01 X30.4712 Y34.1349 
G01 X30.4712 Y35.6451 
G01 X30.4343 Y35.8308 
G01 X30.3618 Y36.0057 
G01 X30.2566 Y36.1631 
G01 X30.1227 Y36.2970 
G01 X29.9653 Y36.4022 
G01 X29.7904 Y36.4747 
G01 X29.6047 Y36.5116 
G01 X29.4153 Y36.5116 
G01 X29.3201 Y36.4927 
G01 X28.9128 Y36.9000 
G01 X32.0095 Y39.9967 
G01 X32.1033 Y40.0905 
G01 X32.1696 Y40.2055 
G01 X32.2040 Y40.3336 
G01 X32.2040 Y40.9002 
G01 X32.3304 Y40.9253 
G01 X32.5053 Y40.9978 
G01 X32.6627 Y41.1030 
G01 X32.7966 Y41.2369 
G01 X32.9018 Y41.3943 
G01 X32.9743 Y41.5692 
G01 X33.0112 Y41.7549 
G01 X33.0112 Y43.2651 
G01 X32.9743 Y43.4508 
G01 X32.9018 Y43.6257 
G01 X32.7966 Y43.7831 
G01 X32.6627 Y43.9170 
G01 X32.5890 Y43.9663 
G01 X32.6025 Y44.5295 
G01 X32.6044 Y44.5371 
G01 X32.6040 Y44.5957 
G01 X32.6054 Y44.6543 
G01 X32.6036 Y44.6619 
G01 X32.6035 Y44.6698 
G01 X32.5880 Y44.7263 
G01 X32.5742 Y44.7832 
G01 X32.5704 Y44.7902 
G01 X32.5683 Y44.7978 
G01 X32.5387 Y44.8483 
G01 X32.5106 Y44.8997 
G01 X32.5051 Y44.9054 
G01 X32.5012 Y44.9122 
G01 X32.4595 Y44.9534 
G01 X32.4190 Y44.9958 
G01 X32.4123 Y44.9999 
G01 X32.4067 Y45.0054 
G01 X32.3557 Y45.0344 
G01 X32.3057 Y45.0649 
G01 X32.2981 Y45.0671 
G01 X28.2040 Y47.3933 
G01 X28.2040 Y47.7636 
G01 X28.3527 Y47.8630 
G01 X28.4866 Y47.9969 
G01 X28.5918 Y48.1543 
G01 X28.6643 Y48.3292 
G01 X28.7012 Y48.5149 
G01 X28.7012 Y50.0251 
G01 X28.6643 Y50.2108 
G01 X28.5918 Y50.3857 
G01 X28.4866 Y50.5431 
G01 X28.3527 Y50.6770 
G01 X28.1953 Y50.7822 
G01 X28.0204 Y50.8547 
G01 X27.8347 Y50.8916 
G01 X27.6453 Y50.8916 
G01 X27.4596 Y50.8547 
G01 X27.2847 Y50.7822 
G01 X27.1273 Y50.6770 
G01 X26.9934 Y50.5431 
G01 X26.8882 Y50.3857 
G01 X26.8157 Y50.2108 
G01 X26.7788 Y50.0251 
G01 X26.7788 Y48.5149 
G01 X26.8157 Y48.3292 
G01 X26.8882 Y48.1543 
G01 X26.9934 Y47.9969 
G01 X27.1273 Y47.8630 
G01 X27.1960 Y47.8171 
G01 X27.1960 Y47.1646 
G01 X27.1960 Y47.0981 
G01 X27.1960 Y47.0336 
G01 X27.1965 Y47.0302 
G01 X27.2137 Y46.9677 
G01 X27.2303 Y46.9055 
G01 X27.2317 Y46.9022 
G01 X27.2645 Y46.8464 
G01 X27.2967 Y46.7905 
G01 X27.2988 Y46.7878 
G01 X27.3448 Y46.7424 
G01 X27.3905 Y46.6967 
G01 X27.3933 Y46.6946 
G01 X27.4496 Y46.6626 
G01 X27.5055 Y46.6303 
G01 X31.5889 Y44.3107 
G01 X31.5818 Y44.0136 
G01 X31.4373 Y43.9170 
G01 X31.3034 Y43.7831 
G01 X31.1982 Y43.6257 
G01 X31.1257 Y43.4508 
G01 X31.0888 Y43.2651 
G01 X31.0888 Y41.7549 
G01 X31.1257 Y41.5692 
G01 X31.1960 Y41.3996 
G01 X31.1960 Y40.6088 
G01 X28.1912 Y37.6040 
G01 X25.8336 Y37.6040 
G01 X25.7055 Y37.5697 
G01 X25.5905 Y37.5033 
G01 X24.5865 Y36.4993 
G01 X24.5247 Y36.5116 
G01 X24.3353 Y36.5116 
G01 X24.1496 Y36.4747 
G01 X23.9747 Y36.4022 
G01 X23.8173 Y36.2970 
G01 X23.6834 Y36.1631 
G01 X23.5782 Y36.0057 
G01 X23.5057 Y35.8308 
G01 X23.4688 Y35.6451 
G01 X23.4688 Y34.1349 
G01 X23.5057 Y33.9492 
G01 X23.5782 Y33.7743 
G01 X23.6834 Y33.6169 
G00 Z2.9900  
G00 X24.5912 Y32.7040 
G01 Z-0.2000 F254   
G01 X18.9899 Y32.7040 F508   
G01 X18.2686 Y33.9437 
G01 X18.2898 Y34.0214 
G01 X18.2898 Y35.8786 
G01 X18.2693 Y35.9551 
G01 X18.2297 Y36.0237 
G01 X18.1737 Y36.0797 
G01 X18.1051 Y36.1193 
G01 X18.0286 Y36.1398 
G01 X16.1714 Y36.1398 
G01 X16.0949 Y36.1193 
G01 X16.0263 Y36.0797 
G01 X15.9703 Y36.0237 
G01 X15.9307 Y35.9551 
G01 X15.9102 Y35.8786 
G01 X15.9102 Y34.0214 
G01 X15.9307 Y33.9449 
G01 X15.9703 Y33.8763 
G01 X16.0263 Y33.8203 
G01 X16.0949 Y33.7807 
G01 X16.1714 Y33.7602 
G01 X17.2092 Y33.7602 
G01 X18.2639 Y31.9473 
G01 X18.2967 Y31.8905 
G01 X18.3441 Y31.8431 
G01 X18.3905 Y31.7967 
G01 X18.4486 Y31.7632 
G01 X18.5055 Y31.7303 
G01 X18.5701 Y31.7130 
G01 X18.6336 Y31.6960 
G01 X18.7008 Y31.6960 
G01 X24.8664 Y31.6960 
G01 X24.9945 Y31.7303 
G01 X25.1095 Y31.7967 
G01 X25.2033 Y31.8905 
G01 X26.6391 Y33.3263 
G01 X26.6896 Y33.3053 
G01 X26.8753 Y33.2684 
G01 X27.0647 Y33.2684 
G01 X27.2504 Y33.3053 
G01 X27.3735 Y33.3563 
G01 X28.7559 Y31.9739 
G01 X28.8497 Y31.8801 
G01 X28.9647 Y31.8137 
G01 X29.0928 Y31.7794 
G01 X30.2670 Y31.7794 
G01 X30.3951 Y31.8137 
G01 X30.5101 Y31.8801 
G01 X31.9078 Y33.2779 
G01 X31.9553 Y33.2684 
G01 X32.1447 Y33.2684 
G01 X32.3304 Y33.3053 
G01 X32.5053 Y33.3778 
G01 X32.6627 Y33.4830 
G01 X32.7966 Y33.6169 
G01 X32.9018 Y33.7743 
G01 X32.9743 Y33.9492 
G01 X33.0112 Y34.1349 
G01 X33.0112 Y35.6451 
G01 X32.9743 Y35.8308 
G01 X32.9018 Y36.0057 
G01 X32.7966 Y36.1631 
G01 X32.6627 Y36.2970 
G01 X32.5053 Y36.4022 
G01 X32.3304 Y36.4747 
G01 X32.1447 Y36.5116 
G01 X31.9553 Y36.5116 
G01 X31.7696 Y36.4747 
G01 X31.5947 Y36.4022 
G01 X31.4373 Y36.2970 
G01 X31.3034 Y36.1631 
G01 X31.1982 Y36.0057 
G01 X31.1257 Y35.8308 
G01 X31.0888 Y35.6451 
G01 X31.0888 Y34.1349 
G01 X31.1257 Y33.9492 
G01 X31.1339 Y33.9295 
G01 X29.9918 Y32.7874 
G01 X29.3680 Y32.7874 
G01 X27.9312 Y34.2242 
G01 X27.9312 Y35.6451 
G01 X27.8943 Y35.8308 
G01 X27.8218 Y36.0057 
G01 X27.7166 Y36.1631 
G01 X27.5827 Y36.2970 
G01 X27.4253 Y36.4022 
G01 X27.2504 Y36.4747 
G01 X27.0647 Y36.5116 
G01 X26.8753 Y36.5116 
G01 X26.6896 Y36.4747 
G01 X26.5147 Y36.4022 
G01 X26.3573 Y36.2970 
G01 X26.2234 Y36.1631 
G01 X26.1182 Y36.0057 
G01 X26.0457 Y35.8308 
G01 X26.0088 Y35.6451 
G01 X26.0088 Y34.1349 
G01 X26.0110 Y34.1238 
G01 X24.5912 Y32.7040 
G00 Z2.9900  
G00 X19.9627 Y33.4830 
G01 Z-0.2000 F254   
G01 X20.0966 Y33.6169 F508   
G01 X20.2018 Y33.7743 
G01 X20.2743 Y33.9492 
G01 X20.3112 Y34.1349 
G01 X20.3112 Y35.6451 
G01 X20.2743 Y35.8308 
G01 X20.2018 Y36.0057 
G01 X20.0966 Y36.1631 
G01 X19.9627 Y36.2970 
G01 X19.8053 Y36.4022 
G01 X19.6304 Y36.4747 
G01 X19.4447 Y36.5116 
G01 X19.2553 Y36.5116 
G01 X19.0696 Y36.4747 
G01 X18.8947 Y36.4022 
G01 X18.7373 Y36.2970 
G01 X18.6034 Y36.1631 
G01 X18.4982 Y36.0057 
G01 X18.4257 Y35.8308 
G01 X18.3888 Y35.6451 
G01 X18.3888 Y34.1349 
G01 X18.4257 Y33.9492 
G01 X18.4982 Y33.7743 
G01 X18.6034 Y33.6169 
G01 X18.7373 Y33.4830 
G01 X18.8947 Y33.3778 
G01 X19.0696 Y33.3053 
G01 X19.2553 Y33.2684 
G01 X19.4447 Y33.2684 
G01 X19.6304 Y33.3053 
G01 X19.8053 Y33.3778 
G01 X19.9627 Y33.4830 
G00 Z2.9900  
G00 X18.1737 Y36.2703 
G01 Z-0.2000 F254   
G01 X18.2297 Y36.3263 F508   
G01 X18.2693 Y36.3949 
G01 X18.2898 Y36.4714 
G01 X18.2898 Y37.8270 
G01 X19.6533 Y39.1905 
G01 X19.7197 Y39.3055 
G01 X19.7540 Y39.4336 
G01 X19.7540 Y40.9765 
G01 X19.8053 Y40.9978 
G01 X19.9627 Y41.1030 
G01 X20.0966 Y41.2369 
G01 X20.2018 Y41.3943 
G01 X20.2743 Y41.5692 
G01 X20.3112 Y41.7549 
G01 X20.3112 Y43.2651 
G01 X20.2743 Y43.4508 
G01 X20.2018 Y43.6257 
G01 X20.0966 Y43.7831 
G01 X19.9627 Y43.9170 
G01 X19.8053 Y44.0222 
G01 X19.6304 Y44.0947 
G01 X19.4447 Y44.1316 
G01 X19.2553 Y44.1316 
G01 X19.0696 Y44.0947 
G01 X18.8947 Y44.0222 
G01 X18.7373 Y43.9170 
G01 X18.6034 Y43.7831 
G01 X18.4982 Y43.6257 
G01 X18.4257 Y43.4508 
G01 X18.3888 Y43.2651 
G01 X18.3888 Y41.7549 
G01 X18.4257 Y41.5692 
G01 X18.4982 Y41.3943 
G01 X18.6034 Y41.2369 
G01 X18.7373 Y41.1030 
G01 X18.7460 Y41.0972 
G01 X18.7460 Y39.7088 
G01 X17.6270 Y38.5898 
G01 X16.1714 Y38.5898 
G01 X16.0949 Y38.5693 
G01 X16.0263 Y38.5297 
G01 X15.9703 Y38.4737 
G01 X15.9307 Y38.4051 
G01 X15.9102 Y38.3286 
G01 X15.9102 Y36.4714 
G01 X15.9307 Y36.3949 
G01 X15.9703 Y36.3263 
G01 X16.0263 Y36.2703 
G01 X16.0949 Y36.2307 
G01 X16.1714 Y36.2102 
G01 X18.0286 Y36.2102 
G01 X18.1051 Y36.2307 
G01 X18.1737 Y36.2703 
G00 Z2.9900  
G00 X17.7328 Y38.8902 
G01 Z-0.2000 F254   
G01 X18.4298 Y39.5872 F508   
G01 X18.4298 Y40.5728 
G01 X18.2078 Y40.7948 
G01 X18.2078 Y43.5300 
G01 X19.9954 Y45.3176 
G01 X21.6606 Y45.3176 
G01 X23.4482 Y43.5300 
G01 X23.4482 Y42.7257 
G01 X23.4439 Y42.6878 
G01 X23.4482 Y42.6596 
G01 X23.4482 Y42.6310 
G01 X23.4581 Y42.5942 
G01 X23.4638 Y42.5566 
G01 X23.4688 Y42.5450 
G01 X23.4688 Y41.7549 
G01 X23.5057 Y41.5692 
G01 X23.5782 Y41.3943 
G01 X23.6834 Y41.2369 
G01 X23.8173 Y41.1030 
G01 X23.9747 Y40.9978 
G01 X24.1496 Y40.9253 
G01 X24.3353 Y40.8884 
G01 X24.5247 Y40.8884 
G01 X24.7104 Y40.9253 
G01 X24.8853 Y40.9978 
G01 X25.0427 Y41.1030 
G01 X25.1766 Y41.2369 
G01 X25.2818 Y41.3943 
G01 X25.3543 Y41.5692 
G01 X25.3912 Y41.7549 
G01 X25.3912 Y43.2651 
G01 X25.3543 Y43.4508 
G01 X25.2818 Y43.6257 
G01 X25.1766 Y43.7831 
G01 X25.0427 Y43.9170 
G01 X24.9231 Y43.9969 
G01 X25.2024 Y44.2762 
G01 X27.3883 Y44.2762 
G01 X28.5488 Y43.1157 
G01 X28.5488 Y41.7549 
G01 X28.5857 Y41.5692 
G01 X28.6582 Y41.3943 
G01 X28.7634 Y41.2369 
G01 X28.8973 Y41.1030 
G01 X29.0547 Y40.9978 
G01 X29.2296 Y40.9253 
G01 X29.4153 Y40.8884 
G01 X29.6047 Y40.8884 
G01 X29.7904 Y40.9253 
G01 X29.9653 Y40.9978 
G01 X30.1227 Y41.1030 
G01 X30.2566 Y41.2369 
G01 X30.3618 Y41.3943 
G01 X30.4343 Y41.5692 
G01 X30.4712 Y41.7549 
G01 X30.4712 Y43.2651 
G01 X30.4343 Y43.4508 
G01 X30.3618 Y43.6257 
G01 X30.2566 Y43.7831 
G01 X30.1227 Y43.9170 
G01 X29.9653 Y44.0222 
G01 X29.7904 Y44.0947 
G01 X29.6047 Y44.1316 
G01 X29.4153 Y44.1316 
G01 X29.2296 Y44.0947 
G01 X29.0640 Y44.0261 
G01 X28.0004 Y45.0897 
G01 X27.9066 Y45.1835 
G01 X27.7916 Y45.2499 
G01 X27.6635 Y45.2842 
G01 X24.9272 Y45.2842 
G01 X24.7991 Y45.2499 
G01 X24.6841 Y45.1835 
G01 X23.9522 Y44.4516 
G01 X22.2727 Y46.1311 
G01 X22.1789 Y46.2249 
G01 X22.0639 Y46.2912 
G01 X21.9358 Y46.3256 
G01 X19.7202 Y46.3256 
G01 X19.5921 Y46.2912 
G01 X19.4771 Y46.2249 
G01 X19.3833 Y46.1311 
G01 X17.3005 Y44.0483 
G01 X17.2341 Y43.9333 
G01 X17.1998 Y43.8052 
G01 X17.1998 Y41.2698 
G01 X16.7472 Y41.2698 
G01 X16.0502 Y40.5728 
G01 X16.0502 Y39.5872 
G01 X16.7472 Y38.8902 
G01 X17.7328 Y38.8902 
G00 Z2.9900  
G00 X13.3498 Y39.5872 
G01 Z-0.2000 F254   
G01 X13.3498 Y40.5728 F508   
G01 X12.6528 Y41.2698 
G01 X11.6672 Y41.2698 
G01 X10.9702 Y40.5728 
G01 X10.9702 Y40.1830 
G01 X10.8967 Y40.1095 
G01 X6.3658  Y35.5786 
G01 X6.2994  Y35.4636 
G01 X6.2651  Y35.3355 
G01 X6.2651  Y26.2438 
G01 X4.8975  Y24.8762 
G01 X4.8037  Y24.7824 
G01 X4.7373  Y24.6674 
G01 X4.7030  Y24.5393 
G01 X4.7030  Y24.1002 
G01 X4.5569  Y24.0712 
G01 X4.3740  Y23.9954 
G01 X4.2095  Y23.8855 
G01 X4.0695  Y23.7455 
G01 X3.9596  Y23.5810 
G01 X3.8838  Y23.3981 
G01 X3.8452  Y23.2040 
G01 X3.8452  Y23.0060 
G01 X3.8838  Y22.8119 
G01 X3.9596  Y22.6290 
G01 X4.0695  Y22.4645 
G01 X4.2095  Y22.3245 
G01 X4.3740  Y22.2146 
G01 X4.5569  Y22.1388 
G01 X4.7510  Y22.1002 
G01 X4.9490  Y22.1002 
G01 X5.1431  Y22.1388 
G01 X5.3259  Y22.2146 
G01 X5.4905  Y22.3245 
G01 X5.6305  Y22.4645 
G01 X5.7404  Y22.6290 
G01 X5.8162  Y22.8119 
G01 X5.8548  Y23.0060 
G01 X5.8548  Y23.2040 
G01 X5.8162  Y23.3981 
G01 X5.7404  Y23.5810 
G01 X5.7110  Y23.6250 
G01 X5.7110  Y24.2641 
G01 X7.1724  Y25.7255 
G01 X7.2387  Y25.8405 
G01 X7.2731  Y25.9686 
G01 X7.2731  Y35.0603 
G01 X11.3851 Y39.1723 
G01 X11.6672 Y38.8902 
G01 X12.6528 Y38.8902 
G01 X13.3498 Y39.5872 
G00 Z2.9900  
G00 X11.7297 Y36.0237 
G01 Z-0.2000 F254   
G01 X11.6737 Y36.0797 F508   
G01 X11.6051 Y36.1193 
G01 X11.5286 Y36.1398 
G01 X9.6714  Y36.1398 
G01 X9.5949  Y36.1193 
G01 X9.5263  Y36.0797 
G01 X9.4703  Y36.0237 
G01 X9.4307  Y35.9551 
G01 X9.4102  Y35.8786 
G01 X9.4102  Y34.0214 
G01 X9.4307  Y33.9449 
G01 X9.4703  Y33.8763 
G01 X9.5263  Y33.8203 
G01 X9.5949  Y33.7807 
G01 X9.6714  Y33.7602 
G01 X9.8366  Y33.7602 
G01 X7.4072  Y31.3308 
G01 X7.3408  Y31.2158 
G01 X7.3065  Y31.0877 
G01 X7.3065  Y25.3798 
G01 X7.2910  Y25.3798 
G01 X7.0969  Y25.3412 
G01 X6.9140  Y25.2654 
G01 X6.7495  Y25.1555 
G01 X6.6095  Y25.0155 
G01 X6.4996  Y24.8510 
G01 X6.4238  Y24.6681 
G01 X6.3852  Y24.4740 
G01 X6.3852  Y24.2760 
G01 X6.4238  Y24.0819 
G01 X6.4996  Y23.8990 
G01 X6.6095  Y23.7345 
G01 X6.7495  Y23.5945 
G01 X6.9140  Y23.4846 
G01 X7.0969  Y23.4088 
G01 X7.2910  Y23.3702 
G01 X7.4890  Y23.3702 
G01 X7.6831  Y23.4088 
G01 X7.8659  Y23.4846 
G01 X8.0305  Y23.5945 
G01 X8.1705  Y23.7345 
G01 X8.2804  Y23.8990 
G01 X8.3562  Y24.0819 
G01 X8.3948  Y24.2760 
G01 X8.3948  Y24.4740 
G01 X8.3562  Y24.6681 
G01 X8.3145  Y24.7687 
G01 X8.3145  Y30.8125 
G01 X10.9498 Y33.4479 
G01 X10.9567 Y33.4521 
G01 X10.9967 Y33.4947 
G01 X11.0380 Y33.5360 
G01 X11.0420 Y33.5430 
G01 X11.0475 Y33.5489 
G01 X11.0751 Y33.6004 
G01 X11.1044 Y33.6510 
G01 X11.1064 Y33.6587 
G01 X11.1102 Y33.6658 
G01 X11.1236 Y33.7227 
G01 X11.1336 Y33.7602 
G01 X11.5286 Y33.7602 
G01 X11.6051 Y33.7807 
G01 X11.6737 Y33.8203 
G01 X11.7297 Y33.8763 
G01 X11.7693 Y33.9449 
G01 X11.7898 Y34.0214 
G01 X11.7898 Y35.8786 
G01 X11.7693 Y35.9551 
G01 X11.7297 Y36.0237 
G00 Z2.9900  
G00 X11.1507 Y42.8294 
G01 Z-0.2000 F254   
G01 X11.1754 Y42.8601 F508   
G01 X11.2033 Y42.8879 
G01 X11.2169 Y42.9115 
G01 X11.2340 Y42.9327 
G01 X11.2499 Y42.9687 
G01 X11.2697 Y43.0029 
G01 X11.2767 Y43.0291 
G01 X11.2877 Y43.0540 
G01 X11.2938 Y43.0930 
G01 X11.3040 Y43.1310 
G01 X11.3040 Y43.1582 
G01 X11.3082 Y43.1851 
G01 X11.3040 Y43.2243 
G01 X11.3040 Y47.4348 
G01 X13.2409 Y47.4348 
G01 X13.7602 Y46.7245 
G01 X13.7798 Y46.6905 
G01 X13.7992 Y46.6711 
G01 X13.8154 Y46.6490 
G01 X13.8459 Y46.6244 
G01 X13.8736 Y46.5967 
G01 X13.8974 Y46.5830 
G01 X13.9188 Y46.5658 
G01 X13.9546 Y46.5499 
G01 X13.9886 Y46.5303 
G01 X14.0151 Y46.5232 
G01 X14.0402 Y46.5122 
G01 X14.0789 Y46.5061 
G01 X14.1167 Y46.4960 
G01 X14.1442 Y46.4960 
G01 X14.1713 Y46.4918 
G01 X14.2103 Y46.4960 
G01 X17.1394 Y46.4960 
G01 X17.1617 Y46.4921 
G01 X17.2055 Y46.4960 
G01 X17.2495 Y46.4960 
G01 X17.2713 Y46.5019 
G01 X17.2938 Y46.5039 
G01 X17.3352 Y46.5190 
G01 X17.3776 Y46.5303 
G01 X17.3972 Y46.5417 
G01 X17.4185 Y46.5494 
G01 X17.4545 Y46.5747 
G01 X17.4926 Y46.5967 
G01 X17.5086 Y46.6127 
G01 X17.5271 Y46.6257 
G01 X17.5553 Y46.6594 
G01 X17.5864 Y46.6905 
G01 X17.5977 Y46.7101 
G01 X17.6122 Y46.7275 
G01 X17.6308 Y46.7674 
G01 X17.6528 Y46.8055 
G01 X17.6586 Y46.8273 
G01 X17.6681 Y46.8478 
G01 X17.6757 Y46.8912 
G01 X17.6871 Y46.9336 
G01 X17.6871 Y46.9563 
G01 X17.8129 Y47.6759 
G01 X17.8604 Y47.6853 
G01 X18.0353 Y47.7578 
G01 X18.1927 Y47.8630 
G01 X18.3266 Y47.9969 
G01 X18.4318 Y48.1543 
G01 X18.5043 Y48.3292 
G01 X18.5412 Y48.5149 
G01 X18.5412 Y50.0251 
G01 X18.5043 Y50.2108 
G01 X18.4318 Y50.3857 
G01 X18.3266 Y50.5431 
G01 X18.1927 Y50.6770 
G01 X18.0353 Y50.7822 
G01 X17.8604 Y50.8547 
G01 X17.6747 Y50.8916 
G01 X17.4853 Y50.8916 
G01 X17.2996 Y50.8547 
G01 X17.1247 Y50.7822 
G01 X16.9673 Y50.6770 
G01 X16.8334 Y50.5431 
G01 X16.7282 Y50.3857 
G01 X16.6557 Y50.2108 
G01 X16.6188 Y50.0251 
G01 X16.6188 Y48.5149 
G01 X16.6557 Y48.3292 
G01 X16.7282 Y48.1543 
G01 X16.8334 Y47.9969 
G01 X16.8439 Y47.9863 
G01 X16.7596 Y47.5040 
G01 X14.4390 Y47.5040 
G01 X13.9197 Y48.2143 
G01 X13.9001 Y48.2483 
G01 X13.8807 Y48.2677 
G01 X13.8645 Y48.2898 
G01 X13.8340 Y48.3144 
G01 X13.8063 Y48.3421 
G01 X13.7825 Y48.3558 
G01 X13.7611 Y48.3730 
G01 X13.7253 Y48.3889 
G01 X13.6913 Y48.4085 
G01 X13.6648 Y48.4155 
G01 X13.6397 Y48.4266 
G01 X13.6010 Y48.4327 
G01 X13.5632 Y48.4428 
G01 X13.5357 Y48.4428 
G01 X13.5086 Y48.4470 
G01 X13.4696 Y48.4428 
G01 X10.7336 Y48.4428 
G01 X10.6055 Y48.4085 
G01 X10.4905 Y48.3421 
G01 X10.3967 Y48.2483 
G01 X10.3303 Y48.1333 
G01 X10.2960 Y48.0052 
G01 X10.2960 Y43.5430 
G01 X9.8441  Y43.3685 
G01 X9.5128  Y43.6998 
G01 X8.5272  Y43.6998 
G01 X8.0288  Y43.2014 
G01 X7.7870  Y43.2014 
G01 X7.7490  Y43.2290 
G01 X7.6000  Y43.3049 
G01 X7.4409  Y43.3566 
G01 X7.2756  Y43.3828 
G01 X5.5844  Y43.3828 
G01 X5.4191  Y43.3566 
G01 X5.2600  Y43.3049 
G01 X5.1110  Y43.2290 
G01 X4.9756  Y43.1307 
G01 X4.8573  Y43.0124 
G01 X4.7590  Y42.8770 
G01 X4.6831  Y42.7280 
G01 X4.6314  Y42.5689 
G01 X4.6052  Y42.4036 
G01 X4.6052  Y42.2364 
G01 X4.6314  Y42.0711 
G01 X4.6831  Y41.9120 
G01 X4.7590  Y41.7630 
G01 X4.8573  Y41.6276 
G01 X4.9756  Y41.5093 
G01 X5.1110  Y41.4110 
G01 X5.2600  Y41.3351 
G01 X5.4191  Y41.2834 
G01 X5.5844  Y41.2572 
G01 X7.2756  Y41.2572 
G01 X7.4409  Y41.2834 
G01 X7.6000  Y41.3351 
G01 X7.7490  Y41.4110 
G01 X7.8844  Y41.5093 
G01 X8.0027  Y41.6276 
G01 X8.0940  Y41.7534 
G01 X8.5272  Y41.3202 
G01 X9.5128  Y41.3202 
G01 X10.2098 Y42.0172 
G01 X10.2098 Y42.4292 
G01 X10.9565 Y42.7175 
G01 X10.9945 Y42.7277 
G01 X11.0181 Y42.7413 
G01 X11.0435 Y42.7511 
G01 X11.0753 Y42.7744 
G01 X11.1095 Y42.7941 
G01 X11.1287 Y42.8133 
G01 X11.1507 Y42.8294 
G00 Z2.9900  
G00 X9.5128  Y47.9402 
G01 Z-0.2000 F254   
G01 X10.1586 Y48.5860 F508   
G01 X14.0788 Y48.5860 
G01 X14.0788 Y48.5149 
G01 X14.1157 Y48.3292 
G01 X14.1882 Y48.1543 
G01 X14.2934 Y47.9969 
G01 X14.4273 Y47.8630 
G01 X14.5847 Y47.7578 
G01 X14.7596 Y47.6853 
G01 X14.9453 Y47.6484 
G01 X15.1347 Y47.6484 
G01 X15.3204 Y47.6853 
G01 X15.4953 Y47.7578 
G01 X15.6527 Y47.8630 
G01 X15.7866 Y47.9969 
G01 X15.8918 Y48.1543 
G01 X15.9643 Y48.3292 
G01 X16.0012 Y48.5149 
G01 X16.0012 Y50.0251 
G01 X15.9643 Y50.2108 
G01 X15.8918 Y50.3857 
G01 X15.7866 Y50.5431 
G01 X15.6527 Y50.6770 
G01 X15.4953 Y50.7822 
G01 X15.3204 Y50.8547 
G01 X15.1347 Y50.8916 
G01 X14.9453 Y50.8916 
G01 X14.7596 Y50.8547 
G01 X14.5847 Y50.7822 
G01 X14.4273 Y50.6770 
G01 X14.2934 Y50.5431 
G01 X14.1882 Y50.3857 
G01 X14.1157 Y50.2108 
G01 X14.0788 Y50.0251 
G01 X14.0788 Y49.5940 
G01 X10.2098 Y49.5940 
G01 X10.2098 Y49.6228 
G01 X9.5128  Y50.3198 
G01 X8.5272  Y50.3198 
G01 X7.9103  Y49.7030 
G01 X7.8527  Y49.7824 
G01 X7.7344  Y49.9007 
G01 X7.5990  Y49.9990 
G01 X7.4500  Y50.0749 
G01 X7.2909  Y50.1266 
G01 X7.1256  Y50.1528 
G01 X5.4344  Y50.1528 
G01 X5.2691  Y50.1266 
G01 X5.1100  Y50.0749 
G01 X4.9610  Y49.9990 
G01 X4.8256  Y49.9007 
G01 X4.7073  Y49.7824 
G01 X4.6090  Y49.6470 
G01 X4.5331  Y49.4980 
G01 X4.4814  Y49.3389 
G01 X4.4552  Y49.1736 
G01 X4.4552  Y49.0064 
G01 X4.4814  Y48.8411 
G01 X4.5331  Y48.6820 
G01 X4.6090  Y48.5330 
G01 X4.7073  Y48.3976 
G01 X4.8256  Y48.2793 
G01 X4.9610  Y48.1810 
G01 X5.1100  Y48.1051 
G01 X5.2691  Y48.0534 
G01 X5.4344  Y48.0272 
G01 X7.1256  Y48.0272 
G01 X7.2909  Y48.0534 
G01 X7.4500  Y48.1051 
G01 X7.5990  Y48.1810 
G01 X7.7344  Y48.2793 
G01 X7.8527  Y48.3976 
G01 X7.9440  Y48.5234 
G01 X8.5272  Y47.9402 
G01 X9.5128  Y47.9402 
G00 Z2.9900  
G00 X9.5128  Y50.4802 
G01 Z-0.2000 F254   
G01 X10.1586 Y51.1260 F508   
G01 X11.0691 Y51.1260 
G01 X11.4102 Y50.9359 
G01 X11.4102 Y49.9214 
G01 X11.4307 Y49.8449 
G01 X11.4703 Y49.7763 
G01 X11.5263 Y49.7203 
G01 X11.5949 Y49.6807 
G01 X11.6714 Y49.6602 
G01 X13.5286 Y49.6602 
G01 X13.6051 Y49.6807 
G01 X13.6737 Y49.7203 
G01 X13.7297 Y49.7763 
G01 X13.7693 Y49.8449 
G01 X13.7898 Y49.9214 
G01 X13.7898 Y51.7786 
G01 X13.7693 Y51.8551 
G01 X13.7297 Y51.9237 
G01 X13.6737 Y51.9797 
G01 X13.6051 Y52.0193 
G01 X13.5286 Y52.0398 
G01 X11.6714 Y52.0398 
G01 X11.5949 Y52.0193 
G01 X11.5664 Y52.0028 
G01 X11.4486 Y52.0684 
G01 X11.3945 Y52.0996 
G01 X11.3908 Y52.1007 
G01 X11.3873 Y52.1026 
G01 X11.3267 Y52.1178 
G01 X11.2664 Y52.1340 
G01 X11.2624 Y52.1340 
G01 X11.2586 Y52.1350 
G01 X11.1961 Y52.1340 
G01 X10.7040 Y52.1340 
G01 X10.7040 Y55.2184 
G01 X10.7193 Y55.2449 
G01 X10.7398 Y55.3214 
G01 X10.7398 Y57.1786 
G01 X10.7193 Y57.2551 
G01 X10.6797 Y57.3237 
G01 X10.6237 Y57.3797 
G01 X10.5551 Y57.4193 
G01 X10.4786 Y57.4398 
G01 X8.6214  Y57.4398 
G01 X8.5449  Y57.4193 
G01 X8.4763  Y57.3797 
G01 X8.4203  Y57.3237 
G01 X8.3807  Y57.2551 
G01 X8.3602  Y57.1786 
G01 X8.3602  Y55.3214 
G01 X8.3807  Y55.2449 
G01 X8.4203  Y55.1763 
G01 X8.4763  Y55.1203 
G01 X8.5449  Y55.0807 
G01 X8.6214  Y55.0602 
G01 X9.6960  Y55.0602 
G01 X9.6960  Y52.6766 
G01 X9.5128  Y52.8598 
G01 X8.5272  Y52.8598 
G01 X7.9103  Y52.2430 
G01 X7.8527  Y52.3224 
G01 X7.7344  Y52.4407 
G01 X7.5990  Y52.5390 
G01 X7.4500  Y52.6149 
G01 X7.2909  Y52.6666 
G01 X7.1256  Y52.6928 
G01 X5.4344  Y52.6928 
G01 X5.2691  Y52.6666 
G01 X5.1100  Y52.6149 
G01 X4.9610  Y52.5390 
G01 X4.8256  Y52.4407 
G01 X4.7073  Y52.3224 
G01 X4.6090  Y52.1870 
G01 X4.5331  Y52.0380 
G01 X4.4814  Y51.8789 
G01 X4.4552  Y51.7136 
G01 X4.4552  Y51.5464 
G01 X4.4814  Y51.3811 
G01 X4.5331  Y51.2220 
G01 X4.6090  Y51.0730 
G01 X4.7073  Y50.9376 
G01 X4.8256  Y50.8193 
G01 X4.9610  Y50.7210 
G01 X5.1100  Y50.6451 
G01 X5.2691  Y50.5934 
G01 X5.4344  Y50.5672 
G01 X7.1256  Y50.5672 
G01 X7.2909  Y50.5934 
G01 X7.4500  Y50.6451 
G01 X7.5990  Y50.7210 
G01 X7.7344  Y50.8193 
G01 X7.8527  Y50.9376 
G01 X7.9440  Y51.0634 
G01 X8.5272  Y50.4802 
G01 X9.5128  Y50.4802 
G00 Z2.9900  
G00 X12.4754 Y52.2074 
G01 Z-0.2000 F254   
G01 X12.4886 Y52.1986 F508   
G01 X12.4998 Y52.1874 
G01 X12.5438 Y52.1620 
G01 X12.5860 Y52.1340 
G01 X12.6010 Y52.1290 
G01 X12.6148 Y52.1210 
G01 X12.6637 Y52.1079 
G01 X12.7118 Y52.0918 
G01 X12.7276 Y52.0908 
G01 X12.7429 Y52.0867 
G01 X12.7937 Y52.0867 
G01 X12.8443 Y52.0836 
G01 X12.8598 Y52.0867 
G01 X19.5778 Y52.0867 
G01 X21.6988 Y49.9657 
G01 X21.6988 Y48.5149 
G01 X21.7357 Y48.3292 
G01 X21.8082 Y48.1543 
G01 X21.9134 Y47.9969 
G01 X22.0473 Y47.8630 
G01 X22.2047 Y47.7578 
G01 X22.3796 Y47.6853 
G01 X22.5653 Y47.6484 
G01 X22.7547 Y47.6484 
G01 X22.9404 Y47.6853 
G01 X23.1153 Y47.7578 
G01 X23.2727 Y47.8630 
G01 X23.4066 Y47.9969 
G01 X23.5118 Y48.1543 
G01 X23.5843 Y48.3292 
G01 X23.6212 Y48.5149 
G01 X23.6212 Y50.0251 
G01 X23.5843 Y50.2108 
G01 X23.5118 Y50.3857 
G01 X23.4066 Y50.5431 
G01 X23.2727 Y50.6770 
G01 X23.1153 Y50.7822 
G01 X22.9404 Y50.8547 
G01 X22.7547 Y50.8916 
G01 X22.5653 Y50.8916 
G01 X22.3796 Y50.8547 
G01 X22.2776 Y50.8124 
G01 X20.1899 Y52.9002 
G01 X20.0961 Y52.9940 
G01 X19.9811 Y53.0603 
G01 X19.8530 Y53.0947 
G01 X13.0366 Y53.0947 
G01 X11.8040 Y54.4907 
G01 X11.8040 Y59.0664 
G01 X11.7697 Y59.1945 
G01 X11.7033 Y59.3095 
G01 X11.6095 Y59.4033 
G01 X11.4945 Y59.4697 
G01 X11.3664 Y59.5040 
G01 X9.2336  Y59.5040 
G01 X9.1055  Y59.4697 
G01 X8.9905  Y59.4033 
G01 X7.3233  Y57.7361 
G01 X7.2909  Y57.7466 
G01 X7.1256  Y57.7728 
G01 X5.4344  Y57.7728 
G01 X5.2691  Y57.7466 
G01 X5.1100  Y57.6949 
G01 X4.9610  Y57.6190 
G01 X4.8256  Y57.5207 
G01 X4.7073  Y57.4024 
G01 X4.6090  Y57.2670 
G01 X4.5331  Y57.1180 
G01 X4.4814  Y56.9589 
G01 X4.4552  Y56.7936 
G01 X4.4552  Y56.6264 
G01 X4.4814  Y56.4611 
G01 X4.5331  Y56.3020 
G01 X4.6090  Y56.1530 
G01 X4.7073  Y56.0176 
G01 X4.8256  Y55.8993 
G01 X4.9610  Y55.8010 
G01 X5.1100  Y55.7251 
G01 X5.2691  Y55.6734 
G01 X5.4344  Y55.6472 
G01 X7.1256  Y55.6472 
G01 X7.2909  Y55.6734 
G01 X7.4500  Y55.7251 
G01 X7.5990  Y55.8010 
G01 X7.7344  Y55.8993 
G01 X7.8527  Y56.0176 
G01 X7.9510  Y56.1530 
G01 X8.0269  Y56.3020 
G01 X8.0786  Y56.4611 
G01 X8.1048  Y56.6264 
G01 X8.1048  Y56.7936 
G01 X8.0786  Y56.9589 
G01 X8.0524  Y57.0396 
G01 X9.5088  Y58.4960 
G01 X10.7960 Y58.4960 
G01 X10.7960 Y54.3156 
G01 X10.7929 Y54.2650 
G01 X10.7960 Y54.2495 
G01 X10.7960 Y54.2336 
G01 X10.8091 Y54.1847 
G01 X10.8192 Y54.1350 
G01 X10.8262 Y54.1208 
G01 X10.8303 Y54.1055 
G01 X10.8557 Y54.0615 
G01 X10.8783 Y54.0161 
G01 X10.8888 Y54.0043 
G01 X10.8967 Y53.9905 
G01 X10.9326 Y53.9547 
G01 X12.3981 Y52.2950 
G01 X12.4060 Y52.2812 
G01 X12.4419 Y52.2454 
G01 X12.4754 Y52.2074 
G00 Z2.9900  
G00 X12.9574 Y53.2566 
G01 Z-0.2000 F254   
G01 X12.9752 Y53.2442 F508   
G01 X12.9905 Y53.2288 
G01 X13.0294 Y53.2064 
G01 X13.0662 Y53.1807 
G01 X13.0867 Y53.1733 
G01 X13.1055 Y53.1624 
G01 X13.1488 Y53.1508 
G01 X13.1910 Y53.1356 
G01 X13.2127 Y53.1337 
G01 X13.2336 Y53.1281 
G01 X13.2785 Y53.1281 
G01 X13.3233 Y53.1243 
G01 X13.3446 Y53.1281 
G01 X21.1399 Y53.1281 
G01 X24.2395 Y50.0285 
G01 X24.2388 Y50.0251 
G01 X24.2388 Y48.5149 
G01 X24.2757 Y48.3292 
G01 X24.3482 Y48.1543 
G01 X24.4534 Y47.9969 
G01 X24.5873 Y47.8630 
G01 X24.7447 Y47.7578 
G01 X24.9196 Y47.6853 
G01 X25.1053 Y47.6484 
G01 X25.2947 Y47.6484 
G01 X25.4804 Y47.6853 
G01 X25.6553 Y47.7578 
G01 X25.8127 Y47.8630 
G01 X25.9466 Y47.9969 
G01 X26.0518 Y48.1543 
G01 X26.1243 Y48.3292 
G01 X26.1612 Y48.5149 
G01 X26.1612 Y50.0251 
G01 X26.1243 Y50.2108 
G01 X26.0518 Y50.3857 
G01 X25.9466 Y50.5431 
G01 X25.8127 Y50.6770 
G01 X25.6553 Y50.7822 
G01 X25.4804 Y50.8547 
G01 X25.2947 Y50.8916 
G01 X25.1053 Y50.8916 
G01 X24.9196 Y50.8547 
G01 X24.8625 Y50.8310 
G01 X21.7520 Y53.9416 
G01 X21.6582 Y54.0354 
G01 X21.5432 Y54.1018 
G01 X21.4151 Y54.1361 
G01 X13.5344 Y54.1361 
G01 X12.9040 Y54.8841 
G01 X12.9040 Y60.1664 
G01 X12.8697 Y60.2945 
G01 X12.8033 Y60.4095 
G01 X12.7095 Y60.5033 
G01 X12.5945 Y60.5697 
G01 X12.4664 Y60.6040 
G01 X7.7336  Y60.6040 
G01 X7.6055  Y60.5697 
G01 X7.4905  Y60.5033 
G01 X7.2762  Y60.2890 
G01 X7.1256  Y60.3128 
G01 X5.4344  Y60.3128 
G01 X5.2691  Y60.2866 
G01 X5.1100  Y60.2349 
G01 X4.9610  Y60.1590 
G01 X4.8256  Y60.0607 
G01 X4.7073  Y59.9424 
G01 X4.6090  Y59.8070 
G01 X4.5331  Y59.6580 
G01 X4.4814  Y59.4989 
G01 X4.4552  Y59.3336 
G01 X4.4552  Y59.1664 
G01 X4.4814  Y59.0011 
G01 X4.5331  Y58.8420 
G01 X4.6090  Y58.6930 
G01 X4.7073  Y58.5576 
G01 X4.8256  Y58.4393 
G01 X4.9610  Y58.3410 
G01 X5.1100  Y58.2651 
G01 X5.2691  Y58.2134 
G01 X5.4344  Y58.1872 
G01 X7.1256  Y58.1872 
G01 X7.2909  Y58.2134 
G01 X7.4500  Y58.2651 
G01 X7.5990  Y58.3410 
G01 X7.7344  Y58.4393 
G01 X7.8527  Y58.5576 
G01 X7.9510  Y58.6930 
G01 X8.0269  Y58.8420 
G01 X8.0786  Y59.0011 
G01 X8.1048  Y59.1664 
G01 X8.1048  Y59.3336 
G01 X8.0786  Y59.4989 
G01 X8.0471  Y59.5960 
G01 X11.8960 Y59.5960 
G01 X11.8960 Y54.7214 
G01 X11.8922 Y54.6767 
G01 X11.8960 Y54.6554 
G01 X11.8960 Y54.6336 
G01 X11.9076 Y54.5903 
G01 X11.9155 Y54.5461 
G01 X11.9247 Y54.5264 
G01 X11.9303 Y54.5055 
G01 X11.9528 Y54.4666 
G01 X11.9718 Y54.4259 
G01 X11.9858 Y54.4093 
G01 X11.9967 Y54.3905 
G01 X12.0284 Y54.3588 
G01 X12.8858 Y53.3414 
G01 X12.8967 Y53.3226 
G01 X12.9284 Y53.2909 
G01 X12.9574 Y53.2566 
G00 Z2.9900  
G00 X14.2934 Y55.6169 
G01 Z-0.2000 F254   
G01 X14.4273 Y55.4830 F508   
G01 X14.5847 Y55.3778 
G01 X14.7596 Y55.3053 
G01 X14.9453 Y55.2684 
G01 X15.1347 Y55.2684 
G01 X15.3204 Y55.3053 
G01 X15.4953 Y55.3778 
G01 X15.6527 Y55.4830 
G01 X15.7866 Y55.6169 
G01 X15.8918 Y55.7743 
G01 X15.9643 Y55.9492 
G01 X16.0012 Y56.1349 
G01 X16.0012 Y57.6451 
G01 X15.9643 Y57.8308 
G01 X15.8918 Y58.0057 
G01 X15.7866 Y58.1631 
G01 X15.6527 Y58.2970 
G01 X15.6043 Y58.3294 
G01 X15.6043 Y61.0317 
G01 X16.2798 Y61.7072 
G01 X16.2798 Y62.6928 
G01 X15.5828 Y63.3898 
G01 X14.5972 Y63.3898 
G01 X14.2101 Y63.0027 
G01 X13.9033 Y63.3095 
G01 X13.8095 Y63.4033 
G01 X13.6945 Y63.4697 
G01 X13.5664 Y63.5040 
G01 X10.7398 Y63.5040 
G01 X10.7398 Y64.0286 
G01 X10.7193 Y64.1051 
G01 X10.6797 Y64.1737 
G01 X10.6237 Y64.2297 
G01 X10.5551 Y64.2693 
G01 X10.4786 Y64.2898 
G01 X10.2540 Y64.2898 
G01 X10.2540 Y74.2912 
G01 X11.7088 Y75.7460 
G01 X13.0412 Y75.7460 
G01 X14.2288 Y74.5584 
G01 X14.2288 Y73.5549 
G01 X14.2657 Y73.3692 
G01 X14.3382 Y73.1943 
G01 X14.4434 Y73.0369 
G01 X14.5773 Y72.9030 
G01 X14.7347 Y72.7978 
G01 X14.9096 Y72.7253 
G01 X15.0953 Y72.6884 
G01 X15.2847 Y72.6884 
G01 X15.4704 Y72.7253 
G01 X15.6453 Y72.7978 
G01 X15.8027 Y72.9030 
G01 X15.9366 Y73.0369 
G01 X16.0418 Y73.1943 
G01 X16.1143 Y73.3692 
G01 X16.1512 Y73.5549 
G01 X16.1512 Y73.9561 
G01 X16.7688 Y73.9561 
G01 X16.7688 Y73.5549 
G01 X16.8057 Y73.3692 
G01 X16.8782 Y73.1943 
G01 X16.9834 Y73.0369 
G01 X17.1173 Y72.9030 
G01 X17.2747 Y72.7978 
G01 X17.4496 Y72.7253 
G01 X17.6353 Y72.6884 
G01 X17.8247 Y72.6884 
G01 X18.0104 Y72.7253 
G01 X18.1853 Y72.7978 
G01 X18.3427 Y72.9030 
G01 X18.4766 Y73.0369 
G01 X18.5818 Y73.1943 
G01 X18.6543 Y73.3692 
G01 X18.6912 Y73.5549 
G01 X18.6912 Y73.9561 
G01 X19.3088 Y73.9561 
G01 X19.3088 Y73.5549 
G01 X19.3457 Y73.3692 
G01 X19.4182 Y73.1943 
G01 X19.5234 Y73.0369 
G01 X19.6573 Y72.9030 
G01 X19.8147 Y72.7978 
G01 X19.9896 Y72.7253 
G01 X20.1753 Y72.6884 
G01 X20.3647 Y72.6884 
G01 X20.5504 Y72.7253 
G01 X20.7253 Y72.7978 
G01 X20.8827 Y72.9030 
G01 X21.0166 Y73.0369 
G01 X21.1218 Y73.1943 
G01 X21.1943 Y73.3692 
G01 X21.2312 Y73.5549 
G01 X21.2312 Y73.9561 
G01 X21.8488 Y73.9561 
G01 X21.8488 Y73.5549 
G01 X21.8857 Y73.3692 
G01 X21.9582 Y73.1943 
G01 X22.0634 Y73.0369 
G01 X22.1973 Y72.9030 
G01 X22.3547 Y72.7978 
G01 X22.5296 Y72.7253 
G01 X22.7153 Y72.6884 
G01 X22.9047 Y72.6884 
G01 X23.0904 Y72.7253 
G01 X23.2653 Y72.7978 
G01 X23.4227 Y72.9030 
G01 X23.5566 Y73.0369 
G01 X23.6618 Y73.1943 
G01 X23.7343 Y73.3692 
G01 X23.7712 Y73.5549 
G01 X23.7712 Y73.9561 
G01 X26.8288 Y73.9561 
G01 X26.8288 Y73.5549 
G01 X26.8657 Y73.3692 
G01 X26.9382 Y73.1943 
G01 X27.0434 Y73.0369 
G01 X27.1773 Y72.9030 
G01 X27.3347 Y72.7978 
G01 X27.5096 Y72.7253 
G01 X27.6953 Y72.6884 
G01 X27.8847 Y72.6884 
G01 X28.0704 Y72.7253 
G01 X28.2453 Y72.7978 
G01 X28.4027 Y72.9030 
G01 X28.5366 Y73.0369 
G01 X28.6418 Y73.1943 
G01 X28.7143 Y73.3692 
G01 X28.7512 Y73.5549 
G01 X28.7512 Y73.9561 
G01 X29.3688 Y73.9561 
G01 X29.3688 Y73.5549 
G01 X29.4057 Y73.3692 
G01 X29.4782 Y73.1943 
G01 X29.5834 Y73.0369 
G01 X29.7173 Y72.9030 
G01 X29.8747 Y72.7978 
G01 X30.0496 Y72.7253 
G01 X30.2353 Y72.6884 
G01 X30.4247 Y72.6884 
G01 X30.6104 Y72.7253 
G01 X30.7853 Y72.7978 
G01 X30.9427 Y72.9030 
G01 X31.0766 Y73.0369 
G01 X31.1818 Y73.1943 
G01 X31.2543 Y73.3692 
G01 X31.2912 Y73.5549 
G01 X31.2912 Y73.9561 
G01 X31.9088 Y73.9561 
G01 X31.9088 Y73.5549 
G01 X31.9457 Y73.3692 
G01 X32.0182 Y73.1943 
G01 X32.1234 Y73.0369 
G01 X32.2573 Y72.9030 
G01 X32.4147 Y72.7978 
G01 X32.5896 Y72.7253 
G01 X32.7753 Y72.6884 
G01 X32.9647 Y72.6884 
G01 X33.1504 Y72.7253 
G01 X33.3253 Y72.7978 
G01 X33.4827 Y72.9030 
G01 X33.6166 Y73.0369 
G01 X33.7218 Y73.1943 
G01 X33.7943 Y73.3692 
G01 X33.8312 Y73.5549 
G01 X33.8312 Y73.9561 
G01 X34.4488 Y73.9561 
G01 X34.4488 Y73.5549 
G01 X34.4857 Y73.3692 
G01 X34.5582 Y73.1943 
G01 X34.6634 Y73.0369 
G01 X34.7973 Y72.9030 
G01 X34.9547 Y72.7978 
G01 X35.1296 Y72.7253 
G01 X35.3153 Y72.6884 
G01 X35.5047 Y72.6884 
G01 X35.6904 Y72.7253 
G01 X35.8653 Y72.7978 
G01 X36.0227 Y72.9030 
G01 X36.1566 Y73.0369 
G01 X36.2618 Y73.1943 
G01 X36.3343 Y73.3692 
G01 X36.3712 Y73.5549 
G01 X36.3712 Y74.1584 
G01 X37.9588 Y75.7460 
G01 X38.7912 Y75.7460 
G01 X39.7460 Y74.7912 
G01 X39.7460 Y67.1836 
G01 X39.7803 Y67.0555 
G01 X39.8467 Y66.9405 
G01 X42.4405 Y64.3467 
G01 X42.5555 Y64.2803 
G01 X42.6836 Y64.2460 
G01 X44.3164 Y64.2460 
G01 X44.4445 Y64.2803 
G01 X44.5595 Y64.3467 
G01 X44.6533 Y64.4405 
G01 X47.6250 Y67.4122 
G01 X54.7460 Y60.2912 
G01 X54.7460 Y58.5757 
G01 X54.7292 Y58.5210 
G01 X54.7245 Y58.5129 
G01 X54.7098 Y58.4577 
G01 X54.6929 Y58.4030 
G01 X54.6926 Y58.3937 
G01 X54.6902 Y58.3848 
G01 X54.6902 Y58.3276 
G01 X54.6881 Y58.2704 
G01 X54.6902 Y58.2613 
G01 X54.6902 Y50.1960 
G01 X52.1874 Y47.6932 
G01 X52.1210 Y47.5782 
G01 X52.0867 Y47.4501 
G01 X52.0867 Y46.5798 
G01 X51.7872 Y46.5798 
G01 X51.5330 Y46.3256 
G01 X48.6339 Y46.3256 
G01 X46.4751 Y48.4843 
G01 X46.4812 Y48.5149 
G01 X46.4812 Y50.0251 
G01 X46.4443 Y50.2108 
G01 X46.3718 Y50.3857 
G01 X46.2666 Y50.5431 
G01 X46.1327 Y50.6770 
G01 X45.9753 Y50.7822 
G01 X45.8004 Y50.8547 
G01 X45.6147 Y50.8916 
G01 X45.4253 Y50.8916 
G01 X45.2396 Y50.8547 
G01 X45.0647 Y50.7822 
G01 X44.9073 Y50.6770 
G01 X44.7734 Y50.5431 
G01 X44.6682 Y50.3857 
G01 X44.5957 Y50.2108 
G01 X44.5588 Y50.0251 
G01 X44.5588 Y48.5149 
G01 X44.5957 Y48.3292 
G01 X44.6682 Y48.1543 
G01 X44.7734 Y47.9969 
G01 X44.9073 Y47.8630 
G01 X45.0647 Y47.7578 
G01 X45.2396 Y47.6853 
G01 X45.4253 Y47.6484 
G01 X45.6147 Y47.6484 
G01 X45.8004 Y47.6853 
G01 X45.8345 Y47.6995 
G01 X48.0218 Y45.5121 
G01 X48.1156 Y45.4183 
G01 X48.2306 Y45.3519 
G01 X48.3587 Y45.3176 
G01 X51.0902 Y45.3176 
G01 X51.0902 Y44.8972 
G01 X51.7872 Y44.2002 
G01 X52.7728 Y44.2002 
G01 X53.4698 Y44.8972 
G01 X53.4698 Y45.8828 
G01 X53.0947 Y46.2579 
G01 X53.0947 Y47.1749 
G01 X55.5037 Y49.5839 
G01 X55.5975 Y49.6777 
G01 X55.6638 Y49.7927 
G01 X55.6982 Y49.9208 
G01 X55.6982 Y58.2427 
G01 X55.7150 Y58.2974 
G01 X55.7197 Y58.3055 
G01 X55.7345 Y58.3607 
G01 X55.7513 Y58.4154 
G01 X55.7516 Y58.4247 
G01 X55.7540 Y58.4336 
G01 X55.7540 Y58.4908 
G01 X55.7561 Y58.5480 
G01 X55.7540 Y58.5571 
G01 X55.7540 Y60.5664 
G01 X55.7197 Y60.6945 
G01 X55.6533 Y60.8095 
G01 X48.0283 Y68.4345 
G01 X47.9345 Y68.5283 
G01 X46.0040 Y70.4588 
G01 X46.0040 Y73.2912 
G01 X46.7107 Y73.9979 
G01 X46.7423 Y74.0295 
G01 X46.7766 Y74.0584 
G01 X46.7891 Y74.0763 
G01 X47.1533 Y74.4405 
G01 X47.1742 Y74.4768 
G01 X58.2789 Y74.4768 
G01 X58.3054 Y74.4726 
G01 X58.3137 Y74.4735 
G01 X59.4405 Y73.3467 
G01 X59.5555 Y73.2803 
G01 X59.6836 Y73.2460 
G01 X80.3442 Y73.2460 
G01 X80.3544 Y73.2437 
G01 X80.4103 Y73.2460 
G01 X80.4664 Y73.2460 
G01 X80.4765 Y73.2487 
G01 X80.4870 Y73.2492 
G01 X80.5404 Y73.2659 
G01 X80.5945 Y73.2803 
G01 X80.6036 Y73.2856 
G01 X82.0769 Y73.7460 
G01 X87.7912 Y73.7460 
G01 X88.4960 Y73.0412 
G01 X88.4960 Y71.9588 
G01 X87.2711 Y70.7339 
G01 X87.1944 Y70.8107 
G01 X87.0590 Y70.9090 
G01 X86.9100 Y70.9849 
G01 X86.7509 Y71.0366 
G01 X86.5856 Y71.0628 
G01 X84.8944 Y71.0628 
G01 X84.7291 Y71.0366 
G01 X84.5700 Y70.9849 
G01 X84.4210 Y70.9090 
G01 X84.2856 Y70.8107 
G01 X84.1673 Y70.6924 
G01 X84.0690 Y70.5570 
G01 X83.9931 Y70.4080 
G01 X83.9414 Y70.2489 
G01 X83.9152 Y70.0836 
G01 X83.9152 Y69.9164 
G01 X83.9414 Y69.7511 
G01 X83.9931 Y69.5920 
G01 X84.0690 Y69.4430 
G01 X84.1673 Y69.3076 
G01 X84.2856 Y69.1893 
G01 X84.4210 Y69.0910 
G01 X84.5700 Y69.0151 
G01 X84.7291 Y68.9634 
G01 X84.8944 Y68.9372 
G01 X86.5856 Y68.9372 
G01 X86.7509 Y68.9634 
G01 X86.9100 Y69.0151 
G01 X87.0590 Y69.0910 
G01 X87.1944 Y69.1893 
G01 X87.3127 Y69.3076 
G01 X87.4110 Y69.4430 
G01 X87.4601 Y69.5393 
G01 X87.5595 Y69.5967 
G01 X87.6533 Y69.6905 
G01 X89.3095 Y71.3467 
G01 X89.4033 Y71.4405 
G01 X89.4697 Y71.5555 
G01 X89.5040 Y71.6836 
G01 X89.5040 Y73.3164 
G01 X89.4697 Y73.4445 
G01 X89.4033 Y73.5595 
G01 X88.4033 Y74.5595 
G01 X88.3095 Y74.6533 
G01 X88.1945 Y74.7197 
G01 X88.0664 Y74.7540 
G01 X82.0558 Y74.7540 
G01 X82.0456 Y74.7563 
G01 X81.9896 Y74.7540 
G01 X81.9336 Y74.7540 
G01 X81.9235 Y74.7513 
G01 X81.9130 Y74.7508 
G01 X81.8595 Y74.7341 
G01 X81.8055 Y74.7197 
G01 X81.7964 Y74.7144 
G01 X81.5840 Y74.6480 
G01 X81.5898 Y74.6844 
G01 X81.5898 Y74.8716 
G01 X81.5605 Y75.0566 
G01 X81.5026 Y75.2347 
G01 X81.4176 Y75.4016 
G01 X81.3075 Y75.5531 
G01 X81.1751 Y75.6855 
G01 X81.0236 Y75.7956 
G01 X80.8567 Y75.8806 
G01 X80.6786 Y75.9385 
G01 X80.4936 Y75.9678 
G01 X80.3064 Y75.9678 
G01 X80.1214 Y75.9385 
G01 X79.9433 Y75.8806 
G01 X79.7764 Y75.7956 
G01 X79.6249 Y75.6855 
G01 X79.4925 Y75.5531 
G01 X79.3824 Y75.4016 
